hermes-skills/ugc-video-pipeline/luts/cinematic.cube
TITLE "Cinematic Orange Teal"
LUT_3D_SIZE 9
0.050000 0.120000 0.180000
0.160000 0.114000 0.171000
0.270000 0.108000 0.162000
0.380000 0.102000 0.153000
0.500000 0.000000 0.000000
0.625000 0.000000 0.000000
0.750000 0.000000 0.000000
0.875000 0.000000 0.000000
1.000000 0.000000 0.000000
0.047500 0.232750 0.171000
0.157500 0.226750 0.162000
0.267500 0.220750 0.153000
0.375000 0.122500 0.000000
0.500000 0.122500 0.000000
0.625000 0.122500 0.000000
0.750000 0.122500 0.000000
0.875000 0.122500 0.000000
1.000000 0.122500 0.000000
0.045000 0.345500 0.162000
0.155000 0.339500 0.153000
0.250000 0.245000 0.000000
0.375000 0.245000 0.000000
0.500000 0.245000 0.000000
0.625000 0.245000 0.000000
0.750000 0.245000 0.000000
0.875000 0.245000 0.000000
1.000000 0.245000 0.000000
0.042500 0.458250 0.153000
0.125000 0.367500 0.000000
0.250000 0.367500 0.000000
0.375000 0.367500 0.000000
0.500000 0.367500 0.000000
0.625000 0.367500 0.000000
0.750000 0.367500 0.000000
0.875000 0.367500 0.000000
1.000000 0.367500 0.000000
0.000000 0.490000 0.000000
0.125000 0.490000 0.000000
0.250000 0.490000 0.000000
0.375000 0.490000 0.000000
0.500000 0.490000 0.000000
0.625000 0.490000 0.000000
0.750000 0.490000 0.000000
0.875000 0.490000 0.000000
1.000000 0.490000 0.000000
0.000000 0.612500 0.000000
0.125000 0.612500 0.000000
0.250000 0.612500 0.000000
0.375000 0.612500 0.000000
0.500000 0.612500 0.000000
0.625000 0.612500 0.000000
0.750000 0.612500 0.000000
0.875000 0.612500 0.000000
1.000000 0.610833 -0.004167
0.000000 0.735000 0.000000
0.125000 0.735000 0.000000
0.250000 0.735000 0.000000
0.375000 0.735000 0.000000
0.500000 0.735000 0.000000
0.625000 0.735000 0.000000
0.750000 0.735000 0.000000
0.881667 0.733333 -0.004167
1.000000 0.731667 -0.008333
0.000000 0.857500 0.000000
0.125000 0.857500 0.000000
0.250000 0.857500 0.000000
0.375000 0.857500 0.000000
0.500000 0.857500 0.000000
0.625000 0.857500 0.000000
0.756667 0.855833 -0.004167
0.888333 0.854167 -0.008333
1.000000 0.852500 -0.012500
0.000000 0.980000 0.000000
0.125000 0.980000 0.000000
0.250000 0.980000 0.000000
0.375000 0.980000 0.000000
0.500000 0.980000 0.000000
0.631667 0.978333 -0.004167
0.763333 0.976667 -0.008333
0.895000 0.975000 -0.012500
1.000000 0.973333 -0.016667
0.047500 0.114000 0.302250
0.157500 0.108000 0.293250
0.267500 0.102000 0.284250
0.375000 0.000000 0.115000
0.500000 0.000000 0.115000
0.625000 0.000000 0.115000
0.750000 0.000000 0.115000
0.875000 0.000000 0.115000
1.000000 0.000000 0.115000
0.045000 0.226750 0.293250
0.155000 0.220750 0.284250
0.250000 0.122500 0.115000
0.375000 0.122500 0.115000
0.500000 0.122500 0.115000
0.625000 0.122500 0.115000
0.750000 0.122500 0.115000
0.875000 0.122500 0.115000
1.000000 0.122500 0.115000
0.042500 0.339500 0.284250
0.125000 0.245000 0.115000
0.250000 0.245000 0.115000
0.375000 0.245000 0.115000
0.500000 0.245000 0.115000
0.625000 0.245000 0.115000
0.750000 0.245000 0.115000
0.875000 0.245000 0.115000
1.000000 0.245000 0.115000
0.000000 0.367500 0.115000
0.125000 0.367500 0.115000
0.250000 0.367500 0.115000
0.375000 0.367500 0.115000
0.500000 0.367500 0.115000
0.625000 0.367500 0.115000
0.750000 0.367500 0.115000
0.875000 0.367500 0.115000
1.000000 0.367500 0.115000
0.000000 0.490000 0.115000
0.125000 0.490000 0.115000
0.250000 0.490000 0.115000
0.375000 0.490000 0.115000
0.500000 0.490000 0.115000
0.625000 0.490000 0.115000
0.750000 0.490000 0.115000
0.875000 0.490000 0.115000
1.000000 0.488333 0.110833
0.000000 0.612500 0.115000
0.125000 0.612500 0.115000
0.250000 0.612500 0.115000
0.375000 0.612500 0.115000
0.500000 0.612500 0.115000
0.625000 0.612500 0.115000
0.750000 0.612500 0.115000
0.881667 0.610833 0.110833
1.000000 0.609167 0.106667
0.000000 0.735000 0.115000
0.125000 0.735000 0.115000
0.250000 0.735000 0.115000
0.375000 0.735000 0.115000
0.500000 0.735000 0.115000
0.625000 0.735000 0.115000
0.756667 0.733333 0.110833
0.888333 0.731667 0.106667
1.000000 0.730000 0.102500
0.000000 0.857500 0.115000
0.125000 0.857500 0.115000
0.250000 0.857500 0.115000
0.375000 0.857500 0.115000
0.500000 0.857500 0.115000
0.631667 0.855833 0.110833
0.763333 0.854167 0.106667
0.895000 0.852500 0.102500
1.000000 0.850833 0.098333
0.000000 0.980000 0.115000
0.125000 0.980000 0.115000
0.250000 0.980000 0.115000
0.375000 0.980000 0.115000
0.506667 0.978333 0.110833
0.638333 0.976667 0.106667
0.770000 0.975000 0.102500
0.901667 0.973333 0.098333
1.000000 0.971667 0.094167
0.045000 0.108000 0.424500
0.155000 0.102000 0.415500
0.250000 0.000000 0.230000
0.375000 0.000000 0.230000
0.500000 0.000000 0.230000
0.625000 0.000000 0.230000
0.750000 0.000000 0.230000
0.875000 0.000000 0.230000
1.000000 0.000000 0.230000
0.042500 0.220750 0.415500
0.125000 0.122500 0.230000
0.250000 0.122500 0.230000
0.375000 0.122500 0.230000
0.500000 0.122500 0.230000
0.625000 0.122500 0.230000
0.750000 0.122500 0.230000
0.875000 0.122500 0.230000
1.000000 0.122500 0.230000
0.000000 0.245000 0.230000
0.125000 0.245000 0.230000
0.250000 0.245000 0.230000
0.375000 0.245000 0.230000
0.500000 0.245000 0.230000
0.625000 0.245000 0.230000
0.750000 0.245000 0.230000
0.875000 0.245000 0.230000
1.000000 0.245000 0.230000
0.000000 0.367500 0.230000
0.125000 0.367500 0.230000
0.250000 0.367500 0.230000
0.375000 0.367500 0.230000
0.500000 0.367500 0.230000
0.625000 0.367500 0.230000
0.750000 0.367500 0.230000
0.875000 0.367500 0.230000
1.000000 0.365833 0.225833
0.000000 0.490000 0.230000
0.125000 0.490000 0.230000
0.250000 0.490000 0.230000
0.375000 0.490000 0.230000
0.500000 0.490000 0.230000
0.625000 0.490000 0.230000
0.750000 0.490000 0.230000
0.881667 0.488333 0.225833
1.000000 0.486667 0.221667
0.000000 0.612500 0.230000
0.125000 0.612500 0.230000
0.250000 0.612500 0.230000
0.375000 0.612500 0.230000
0.500000 0.612500 0.230000
0.625000 0.612500 0.230000
0.756667 0.610833 0.225833
0.888333 0.609167 0.221667
1.000000 0.607500 0.217500
0.000000 0.735000 0.230000
0.125000 0.735000 0.230000
0.250000 0.735000 0.230000
0.375000 0.735000 0.230000
0.500000 0.735000 0.230000
0.631667 0.733333 0.225833
0.763333 0.731667 0.221667
0.895000 0.730000 0.217500
1.000000 0.728333 0.213333
0.000000 0.857500 0.230000
0.125000 0.857500 0.230000
0.250000 0.857500 0.230000
0.375000 0.857500 0.230000
0.506667 0.855833 0.225833
0.638333 0.854167 0.221667
0.770000 0.852500 0.217500
0.901667 0.850833 0.213333
1.000000 0.849167 0.209167
0.000000 0.980000 0.230000
0.125000 0.980000 0.230000
0.250000 0.980000 0.230000
0.381667 0.978333 0.225833
0.513333 0.976667 0.221667
0.645000 0.975000 0.217500
0.776667 0.973333 0.213333
0.908333 0.971667 0.209167
1.000000 0.970000 0.205000
0.042500 0.102000 0.546750
0.125000 0.000000 0.345000
0.250000 0.000000 0.345000
0.375000 0.000000 0.345000
0.500000 0.000000 0.345000
0.625000 0.000000 0.345000
0.750000 0.000000 0.345000
0.875000 0.000000 0.345000
1.000000 0.000000 0.345000
0.000000 0.122500 0.345000
0.125000 0.122500 0.345000
0.250000 0.122500 0.345000
0.375000 0.122500 0.345000
0.500000 0.122500 0.345000
0.625000 0.122500 0.345000
0.750000 0.122500 0.345000
0.875000 0.122500 0.345000
1.000000 0.122500 0.345000
0.000000 0.245000 0.345000
0.125000 0.245000 0.345000
0.250000 0.245000 0.345000
0.375000 0.245000 0.345000
0.500000 0.245000 0.345000
0.625000 0.245000 0.345000
0.750000 0.245000 0.345000
0.875000 0.245000 0.345000
1.000000 0.243333 0.340833
0.000000 0.367500 0.345000
0.125000 0.367500 0.345000
0.250000 0.367500 0.345000
0.375000 0.367500 0.345000
0.500000 0.367500 0.345000
0.625000 0.367500 0.345000
0.750000 0.367500 0.345000
0.881667 0.365833 0.340833
1.000000 0.364167 0.336667
0.000000 0.490000 0.345000
0.125000 0.490000 0.345000
0.250000 0.490000 0.345000
0.375000 0.490000 0.345000
0.500000 0.490000 0.345000
0.625000 0.490000 0.345000
0.756667 0.488333 0.340833
0.888333 0.486667 0.336667
1.000000 0.485000 0.332500
0.000000 0.612500 0.345000
0.125000 0.612500 0.345000
0.250000 0.612500 0.345000
0.375000 0.612500 0.345000
0.500000 0.612500 0.345000
0.631667 0.610833 0.340833
0.763333 0.609167 0.336667
0.895000 0.607500 0.332500
1.000000 0.605833 0.328333
0.000000 0.735000 0.345000
0.125000 0.735000 0.345000
0.250000 0.735000 0.345000
0.375000 0.735000 0.345000
0.506667 0.733333 0.340833
0.638333 0.731667 0.336667
0.770000 0.730000 0.332500
0.901667 0.728333 0.328333
1.000000 0.726667 0.324167
0.000000 0.857500 0.345000
0.125000 0.857500 0.345000
0.250000 0.857500 0.345000
0.381667 0.855833 0.340833
0.513333 0.854167 0.336667
0.645000 0.852500 0.332500
0.776667 0.850833 0.328333
0.908333 0.849167 0.324167
1.000000 0.847500 0.320000
0.000000 0.980000 0.345000
0.125000 0.980000 0.345000
0.256667 0.978333 0.340833
0.388333 0.976667 0.336667
0.520000 0.975000 0.332500
0.651667 0.973333 0.328333
0.783333 0.971667 0.324167
0.915000 0.970000 0.320000
1.000000 0.968333 0.315833
0.000000 0.000000 0.460000
0.125000 0.000000 0.460000
0.250000 0.000000 0.460000
0.375000 0.000000 0.460000
0.500000 0.000000 0.460000
0.625000 0.000000 0.460000
0.750000 0.000000 0.460000
0.875000 0.000000 0.460000
1.000000 0.000000 0.460000
0.000000 0.122500 0.460000
0.125000 0.122500 0.460000
0.250000 0.122500 0.460000
0.375000 0.122500 0.460000
0.500000 0.122500 0.460000
0.625000 0.122500 0.460000
0.750000 0.122500 0.460000
0.875000 0.122500 0.460000
1.000000 0.120833 0.455833
0.000000 0.245000 0.460000
0.125000 0.245000 0.460000
0.250000 0.245000 0.460000
0.375000 0.245000 0.460000
0.500000 0.245000 0.460000
0.625000 0.245000 0.460000
0.750000 0.245000 0.460000
0.881667 0.243333 0.455833
1.000000 0.241667 0.451667
0.000000 0.367500 0.460000
0.125000 0.367500 0.460000
0.250000 0.367500 0.460000
0.375000 0.367500 0.460000
0.500000 0.367500 0.460000
0.625000 0.367500 0.460000
0.756667 0.365833 0.455833
0.888333 0.364167 0.451667
1.000000 0.362500 0.447500
0.000000 0.490000 0.460000
0.125000 0.490000 0.460000
0.250000 0.490000 0.460000
0.375000 0.490000 0.460000
0.500000 0.490000 0.460000
0.631667 0.488333 0.455833
0.763333 0.486667 0.451667
0.895000 0.485000 0.447500
1.000000 0.483333 0.443333
0.000000 0.612500 0.460000
0.125000 0.612500 0.460000
0.250000 0.612500 0.460000
0.375000 0.612500 0.460000
0.506667 0.610833 0.455833
0.638333 0.609167 0.451667
0.770000 0.607500 0.447500
0.901667 0.605833 0.443333
1.000000 0.604167 0.439167
0.000000 0.735000 0.460000
0.125000 0.735000 0.460000
0.250000 0.735000 0.460000
0.381667 0.733333 0.455833
0.513333 0.731667 0.451667
0.645000 0.730000 0.447500
0.776667 0.728333 0.443333
0.908333 0.726667 0.439167
1.000000 0.725000 0.435000
0.000000 0.857500 0.460000
0.125000 0.857500 0.460000
0.256667 0.855833 0.455833
0.388333 0.854167 0.451667
0.520000 0.852500 0.447500
0.651667 0.850833 0.443333
0.783333 0.849167 0.439167
0.915000 0.847500 0.435000
1.000000 0.845833 0.430833
0.000000 0.980000 0.460000
0.131667 0.978333 0.455833
0.263333 0.976667 0.451667
0.395000 0.975000 0.447500
0.526667 0.973333 0.443333
0.658333 0.971667 0.439167
0.790000 0.970000 0.435000
0.921667 0.968333 0.430833
1.000000 0.966667 0.426667
0.000000 0.000000 0.575000
0.125000 0.000000 0.575000
0.250000 0.000000 0.575000
0.375000 0.000000 0.575000
0.500000 0.000000 0.575000
0.625000 0.000000 0.575000
0.750000 0.000000 0.575000
0.875000 0.000000 0.575000
1.000000 -0.001667 0.570833
0.000000 0.122500 0.575000
0.125000 0.122500 0.575000
0.250000 0.122500 0.575000
0.375000 0.122500 0.575000
0.500000 0.122500 0.575000
0.625000 0.122500 0.575000
0.750000 0.122500 0.575000
0.881667 0.120833 0.570833
1.000000 0.119167 0.566667
0.000000 0.245000 0.575000
0.125000 0.245000 0.575000
0.250000 0.245000 0.575000
0.375000 0.245000 0.575000
0.500000 0.245000 0.575000
0.625000 0.245000 0.575000
0.756667 0.243333 0.570833
0.888333 0.241667 0.566667
1.000000 0.240000 0.562500
0.000000 0.367500 0.575000
0.125000 0.367500 0.575000
0.250000 0.367500 0.575000
0.375000 0.367500 0.575000
0.500000 0.367500 0.575000
0.631667 0.365833 0.570833
0.763333 0.364167 0.566667
0.895000 0.362500 0.562500
1.000000 0.360833 0.558333
0.000000 0.490000 0.575000
0.125000 0.490000 0.575000
0.250000 0.490000 0.575000
0.375000 0.490000 0.575000
0.506667 0.488333 0.570833
0.638333 0.486667 0.566667
0.770000 0.485000 0.562500
0.901667 0.483333 0.558333
1.000000 0.481667 0.554167
0.000000 0.612500 0.575000
0.125000 0.612500 0.575000
0.250000 0.612500 0.575000
0.381667 0.610833 0.570833
0.513333 0.609167 0.566667
0.645000 0.607500 0.562500
0.776667 0.605833 0.558333
0.908333 0.604167 0.554167
1.000000 0.602500 0.550000
0.000000 0.735000 0.575000
0.125000 0.735000 0.575000
0.256667 0.733333 0.570833
0.388333 0.731667 0.566667
0.520000 0.730000 0.562500
0.651667 0.728333 0.558333
0.783333 0.726667 0.554167
0.915000 0.725000 0.550000
1.000000 0.723333 0.545833
0.000000 0.857500 0.575000
0.131667 0.855833 0.570833
0.263333 0.854167 0.566667
0.395000 0.852500 0.562500
0.526667 0.850833 0.558333
0.658333 0.849167 0.554167
0.790000 0.847500 0.550000
0.921667 0.845833 0.545833
1.000000 0.844167 0.541667
0.006667 0.978333 0.570833
0.138333 0.976667 0.566667
0.270000 0.975000 0.562500
0.401667 0.973333 0.558333
0.533333 0.971667 0.554167
0.665000 0.970000 0.550000
0.796667 0.968333 0.545833
0.928333 0.966667 0.541667
1.000000 0.965000 0.537500
0.000000 0.000000 0.690000
0.125000 0.000000 0.690000
0.250000 0.000000 0.690000
0.375000 0.000000 0.690000
0.500000 0.000000 0.690000
0.625000 0.000000 0.690000
0.750000 0.000000 0.690000
0.881667 -0.001667 0.685833
1.000000 -0.003333 0.681667
0.000000 0.122500 0.690000
0.125000 0.122500 0.690000
0.250000 0.122500 0.690000
0.375000 0.122500 0.690000
0.500000 0.122500 0.690000
0.625000 0.122500 0.690000
0.756667 0.120833 0.685833
0.888333 0.119167 0.681667
1.000000 0.117500 0.677500
0.000000 0.245000 0.690000
0.125000 0.245000 0.690000
0.250000 0.245000 0.690000
0.375000 0.245000 0.690000
0.500000 0.245000 0.690000
0.631667 0.243333 0.685833
0.763333 0.241667 0.681667
0.895000 0.240000 0.677500
1.000000 0.238333 0.673333
0.000000 0.367500 0.690000
0.125000 0.367500 0.690000
0.250000 0.367500 0.690000
0.375000 0.367500 0.690000
0.506667 0.365833 0.685833
0.638333 0.364167 0.681667
0.770000 0.362500 0.677500
0.901667 0.360833 0.673333
1.000000 0.359167 0.669167
0.000000 0.490000 0.690000
0.125000 0.490000 0.690000
0.250000 0.490000 0.690000
0.381667 0.488333 0.685833
0.513333 0.486667 0.681667
0.645000 0.485000 0.677500
0.776667 0.483333 0.673333
0.908333 0.481667 0.669167
1.000000 0.480000 0.665000
0.000000 0.612500 0.690000
0.125000 0.612500 0.690000
0.256667 0.610833 0.685833
0.388333 0.609167 0.681667
0.520000 0.607500 0.677500
0.651667 0.605833 0.673333
0.783333 0.604167 0.669167
0.915000 0.602500 0.665000
1.000000 0.600833 0.660833
0.000000 0.735000 0.690000
0.131667 0.733333 0.685833
0.263333 0.731667 0.681667
0.395000 0.730000 0.677500
0.526667 0.728333 0.673333
0.658333 0.726667 0.669167
0.790000 0.725000 0.665000
0.921667 0.723333 0.660833
1.000000 0.721667 0.656667
0.006667 0.855833 0.685833
0.138333 0.854167 0.681667
0.270000 0.852500 0.677500
0.401667 0.850833 0.673333
0.533333 0.849167 0.669167
0.665000 0.847500 0.665000
0.796667 0.845833 0.660833
0.928333 0.844167 0.656667
1.000000 0.842500 0.652500
0.013333 0.976667 0.681667
0.145000 0.975000 0.677500
0.276667 0.973333 0.673333
0.408333 0.971667 0.669167
0.540000 0.970000 0.665000
0.671667 0.968333 0.660833
0.803333 0.966667 0.656667
0.935000 0.965000 0.652500
1.000000 0.963333 0.648333
0.000000 0.000000 0.805000
0.125000 0.000000 0.805000
0.250000 0.000000 0.805000
0.375000 0.000000 0.805000
0.500000 0.000000 0.805000
0.625000 0.000000 0.805000
0.756667 -0.001667 0.800833
0.888333 -0.003333 0.796667
1.000000 -0.005000 0.792500
0.000000 0.122500 0.805000
0.125000 0.122500 0.805000
0.250000 0.122500 0.805000
0.375000 0.122500 0.805000
0.500000 0.122500 0.805000
0.631667 0.120833 0.800833
0.763333 0.119167 0.796667
0.895000 0.117500 0.792500
1.000000 0.115833 0.788333
0.000000 0.245000 0.805000
0.125000 0.245000 0.805000
0.250000 0.245000 0.805000
0.375000 0.245000 0.805000
0.506667 0.243333 0.800833
0.638333 0.241667 0.796667
0.770000 0.240000 0.792500
0.901667 0.238333 0.788333
1.000000 0.236667 0.784167
0.000000 0.367500 0.805000
0.125000 0.367500 0.805000
0.250000 0.367500 0.805000
0.381667 0.365833 0.800833
0.513333 0.364167 0.796667
0.645000 0.362500 0.792500
0.776667 0.360833 0.788333
0.908333 0.359167 0.784167
1.000000 0.357500 0.780000
0.000000 0.490000 0.805000
0.125000 0.490000 0.805000
0.256667 0.488333 0.800833
0.388333 0.486667 0.796667
0.520000 0.485000 0.792500
0.651667 0.483333 0.788333
0.783333 0.481667 0.784167
0.915000 0.480000 0.780000
1.000000 0.478333 0.775833
0.000000 0.612500 0.805000
0.131667 0.610833 0.800833
0.263333 0.609167 0.796667
0.395000 0.607500 0.792500
0.526667 0.605833 0.788333
0.658333 0.604167 0.784167
0.790000 0.602500 0.780000
0.921667 0.600833 0.775833
1.000000 0.599167 0.771667
0.006667 0.733333 0.800833
0.138333 0.731667 0.796667
0.270000 0.730000 0.792500
0.401667 0.728333 0.788333
0.533333 0.726667 0.784167
0.665000 0.725000 0.780000
0.796667 0.723333 0.775833
0.928333 0.721667 0.771667
1.000000 0.720000 0.767500
0.013333 0.854167 0.796667
0.145000 0.852500 0.792500
0.276667 0.850833 0.788333
0.408333 0.849167 0.784167
0.540000 0.847500 0.780000
0.671667 0.845833 0.775833
0.803333 0.844167 0.771667
0.935000 0.842500 0.767500
1.000000 0.840833 0.763333
0.020000 0.975000 0.792500
0.151667 0.973333 0.788333
0.283333 0.971667 0.784167
0.415000 0.970000 0.780000
0.546667 0.968333 0.775833
0.678333 0.966667 0.771667
0.810000 0.965000 0.767500
0.941667 0.963333 0.763333
1.000000 0.961667 0.759167
0.000000 0.000000 0.920000
0.125000 0.000000 0.920000
0.250000 0.000000 0.920000
0.375000 0.000000 0.920000
0.500000 0.000000 0.920000
0.631667 -0.001667 0.915833
0.763333 -0.003333 0.911667
0.895000 -0.005000 0.907500
1.000000 -0.006667 0.903333
0.000000 0.122500 0.920000
0.125000 0.122500 0.920000
0.250000 0.122500 0.920000
0.375000 0.122500 0.920000
0.506667 0.120833 0.915833
0.638333 0.119167 0.911667
0.770000 0.117500 0.907500
0.901667 0.115833 0.903333
1.000000 0.114167 0.899167
0.000000 0.245000 0.920000
0.125000 0.245000 0.920000
0.250000 0.245000 0.920000
0.381667 0.243333 0.915833
0.513333 0.241667 0.911667
0.645000 0.240000 0.907500
0.776667 0.238333 0.903333
0.908333 0.236667 0.899167
1.000000 0.235000 0.895000
0.000000 0.367500 0.920000
0.125000 0.367500 0.920000
0.256667 0.365833 0.915833
0.388333 0.364167 0.911667
0.520000 0.362500 0.907500
0.651667 0.360833 0.903333
0.783333 0.359167 0.899167
0.915000 0.357500 0.895000
1.000000 0.355833 0.890833
0.000000 0.490000 0.920000
0.131667 0.488333 0.915833
0.263333 0.486667 0.911667
0.395000 0.485000 0.907500
0.526667 0.483333 0.903333
0.658333 0.481667 0.899167
0.790000 0.480000 0.895000
0.921667 0.478333 0.890833
1.000000 0.476667 0.886667
0.006667 0.610833 0.915833
0.138333 0.609167 0.911667
0.270000 0.607500 0.907500
0.401667 0.605833 0.903333
0.533333 0.604167 0.899167
0.665000 0.602500 0.895000
0.796667 0.600833 0.890833
0.928333 0.599167 0.886667
1.000000 0.597500 0.882500
0.013333 0.731667 0.911667
0.145000 0.730000 0.907500
0.276667 0.728333 0.903333
0.408333 0.726667 0.899167
0.540000 0.725000 0.895000
0.671667 0.723333 0.890833
0.803333 0.721667 0.886667
0.935000 0.720000 0.882500
1.000000 0.718333 0.878333
0.020000 0.852500 0.907500
0.151667 0.850833 0.903333
0.283333 0.849167 0.899167
0.415000 0.847500 0.895000
0.546667 0.845833 0.890833
0.678333 0.844167 0.886667
0.810000 0.842500 0.882500
0.941667 0.840833 0.878333
1.000000 0.839167 0.874167
0.026667 0.973333 0.903333
0.158333 0.971667 0.899167
0.290000 0.970000 0.895000
0.421667 0.968333 0.890833
0.553333 0.966667 0.886667
0.685000 0.965000 0.882500
0.816667 0.963333 0.878333
0.948333 0.961667 0.874167
1.000000 0.960000 0.870000
