hermes-skills/ugc-video-pipeline/luts/cinematic.cube
TITLE "Cinematic Orange Teal"
LUT_3D_SIZE 17
0.050000 0.120000 0.180000
0.105000 0.117000 0.175500
0.160000 0.114000 0.171000
0.215000 0.111000 0.166500
0.270000 0.108000 0.162000
0.325000 0.105000 0.157500
0.380000 0.102000 0.153000
0.435000 0.099000 0.148500
0.500000 0.000000 0.000000
0.562500 0.000000 0.000000
0.625000 0.000000 0.000000
0.687500 0.000000 0.000000
0.750000 0.000000 0.000000
0.812500 0.000000 0.000000
0.875000 0.000000 0.000000
0.937500 0.000000 0.000000
1.000000 0.000000 0.000000
0.048750 0.176375 0.175500
0.103750 0.173375 0.171000
0.158750 0.170375 0.166500
0.213750 0.167375 0.162000
0.268750 0.164375 0.157500
0.323750 0.161375 0.153000
0.378750 0.158375 0.148500
0.437500 0.061250 0.000000
0.500000 0.061250 0.000000
0.562500 0.061250 0.000000
0.625000 0.061250 0.000000
0.687500 0.061250 0.000000
0.750000 0.061250 0.000000
0.812500 0.061250 0.000000
0.875000 0.061250 0.000000
0.937500 0.061250 0.000000
1.000000 0.061250 0.000000
0.047500 0.232750 0.171000
0.102500 0.229750 0.166500
0.157500 0.226750 0.162000
0.212500 0.223750 0.157500
0.267500 0.220750 0.153000
0.322500 0.217750 0.148500
0.375000 0.122500 0.000000
0.437500 0.122500 0.000000
0.500000 0.122500 0.000000
0.562500 0.122500 0.000000
0.625000 0.122500 0.000000
0.687500 0.122500 0.000000
0.750000 0.122500 0.000000
0.812500 0.122500 0.000000
0.875000 0.122500 0.000000
0.937500 0.122500 0.000000
1.000000 0.122500 0.000000
0.046250 0.289125 0.166500
0.101250 0.286125 0.162000
0.156250 0.283125 0.157500
0.211250 0.280125 0.153000
0.266250 0.277125 0.148500
0.312500 0.183750 0.000000
0.375000 0.183750 0.000000
0.437500 0.183750 0.000000
0.500000 0.183750 0.000000
0.562500 0.183750 0.000000
0.625000 0.183750 0.000000
0.687500 0.183750 0.000000
0.750000 0.183750 0.000000
0.812500 0.183750 0.000000
0.875000 0.183750 0.000000
0.937500 0.183750 0.000000
1.000000 0.183750 0.000000
0.045000 0.345500 0.162000
0.100000 0.342500 0.157500
0.155000 0.339500 0.153000
0.210000 0.336500 0.148500
0.250000 0.245000 0.000000
0.312500 0.245000 0.000000
0.375000 0.245000 0.000000
0.437500 0.245000 0.000000
0.500000 0.245000 0.000000
0.562500 0.245000 0.000000
0.625000 0.245000 0.000000
0.687500 0.245000 0.000000
0.750000 0.245000 0.000000
0.812500 0.245000 0.000000
0.875000 0.245000 0.000000
0.937500 0.245000 0.000000
1.000000 0.245000 0.000000
0.043750 0.401875 0.157500
0.098750 0.398875 0.153000
0.153750 0.395875 0.148500
0.187500 0.306250 0.000000
0.250000 0.306250 0.000000
0.312500 0.306250 0.000000
0.375000 0.306250 0.000000
0.437500 0.306250 0.000000
0.500000 0.306250 0.000000
0.562500 0.306250 0.000000
0.625000 0.306250 0.000000
0.687500 0.306250 0.000000
0.750000 0.306250 0.000000
0.812500 0.306250 0.000000
0.875000 0.306250 0.000000
0.937500 0.306250 0.000000
1.000000 0.306250 0.000000
0.042500 0.458250 0.153000
0.097500 0.455250 0.148500
0.125000 0.367500 0.000000
0.187500 0.367500 0.000000
0.250000 0.367500 0.000000
0.312500 0.367500 0.000000
0.375000 0.367500 0.000000
0.437500 0.367500 0.000000
0.500000 0.367500 0.000000
0.562500 0.367500 0.000000
0.625000 0.367500 0.000000
0.687500 0.367500 0.000000
0.750000 0.367500 0.000000
0.812500 0.367500 0.000000
0.875000 0.367500 0.000000
0.937500 0.367500 0.000000
1.000000 0.367500 0.000000
0.041250 0.514625 0.148500
0.062500 0.428750 0.000000
0.125000 0.428750 0.000000
0.187500 0.428750 0.000000
0.250000 0.428750 0.000000
0.312500 0.428750 0.000000
0.375000 0.428750 0.000000
0.437500 0.428750 0.000000
0.500000 0.428750 0.000000
0.562500 0.428750 0.000000
0.625000 0.428750 0.000000
0.687500 0.428750 0.000000
0.750000 0.428750 0.000000
0.812500 0.428750 0.000000
0.875000 0.428750 0.000000
0.937500 0.428750 0.000000
1.000000 0.428750 0.000000
0.000000 0.490000 0.000000
0.062500 0.490000 0.000000
0.125000 0.490000 0.000000
0.187500 0.490000 0.000000
0.250000 0.490000 0.000000
0.312500 0.490000 0.000000
0.375000 0.490000 0.000000
0.437500 0.490000 0.000000
0.500000 0.490000 0.000000
0.562500 0.490000 0.000000
0.625000 0.490000 0.000000
0.687500 0.490000 0.000000
0.750000 0.490000 0.000000
0.812500 0.490000 0.000000
0.875000 0.490000 0.000000
0.937500 0.490000 0.000000
1.000000 0.490000 0.000000
0.000000 0.551250 0.000000
0.062500 0.551250 0.000000
0.125000 0.551250 0.000000
0.187500 0.551250 0.000000
0.250000 0.551250 0.000000
0.312500 0.551250 0.000000
0.375000 0.551250 0.000000
0.437500 0.551250 0.000000
0.500000 0.551250 0.000000
0.562500 0.551250 0.000000
0.625000 0.551250 0.000000
0.687500 0.551250 0.000000
0.750000 0.551250 0.000000
0.812500 0.551250 0.000000
0.875000 0.551250 0.000000
0.937500 0.551250 0.000000
1.000000 0.550417 -0.002083
0.000000 0.612500 0.000000
0.062500 0.612500 0.000000
0.125000 0.612500 0.000000
0.187500 0.612500 0.000000
0.250000 0.612500 0.000000
0.312500 0.612500 0.000000
0.375000 0.612500 0.000000
0.437500 0.612500 0.000000
0.500000 0.612500 0.000000
0.562500 0.612500 0.000000
0.625000 0.612500 0.000000
0.687500 0.612500 0.000000
0.750000 0.612500 0.000000
0.812500 0.612500 0.000000
0.875000 0.612500 0.000000
0.940833 0.611667 -0.002083
1.000000 0.610833 -0.004167
0.000000 0.673750 0.000000
0.062500 0.673750 0.000000
0.125000 0.673750 0.000000
0.187500 0.673750 0.000000
0.250000 0.673750 0.000000
0.312500 0.673750 0.000000
0.375000 0.673750 0.000000
0.437500 0.673750 0.000000
0.500000 0.673750 0.000000
0.562500 0.673750 0.000000
0.625000 0.673750 0.000000
0.687500 0.673750 0.000000
0.750000 0.673750 0.000000
0.812500 0.673750 0.000000
0.878333 0.672917 -0.002083
0.944167 0.672083 -0.004167
1.000000 0.671250 -0.006250
0.000000 0.735000 0.000000
0.062500 0.735000 0.000000
0.125000 0.735000 0.000000
0.187500 0.735000 0.000000
0.250000 0.735000 0.000000
0.312500 0.735000 0.000000
0.375000 0.735000 0.000000
0.437500 0.735000 0.000000
0.500000 0.735000 0.000000
0.562500 0.735000 0.000000
0.625000 0.735000 0.000000
0.687500 0.735000 0.000000
0.750000 0.735000 0.000000
0.815833 0.734167 -0.002083
0.881667 0.733333 -0.004167
0.947500 0.732500 -0.006250
1.000000 0.731667 -0.008333
0.000000 0.796250 0.000000
0.062500 0.796250 0.000000
0.125000 0.796250 0.000000
0.187500 0.796250 0.000000
0.250000 0.796250 0.000000
0.312500 0.796250 0.000000
0.375000 0.796250 0.000000
0.437500 0.796250 0.000000
0.500000 0.796250 0.000000
0.562500 0.796250 0.000000
0.625000 0.796250 0.000000
0.687500 0.796250 0.000000
0.753333 0.795417 -0.002083
0.819167 0.794583 -0.004167
0.885000 0.793750 -0.006250
0.950833 0.792917 -0.008333
1.000000 0.792083 -0.010417
0.000000 0.857500 0.000000
0.062500 0.857500 0.000000
0.125000 0.857500 0.000000
0.187500 0.857500 0.000000
0.250000 0.857500 0.000000
0.312500 0.857500 0.000000
0.375000 0.857500 0.000000
0.437500 0.857500 0.000000
0.500000 0.857500 0.000000
0.562500 0.857500 0.000000
0.625000 0.857500 0.000000
0.690833 0.856667 -0.002083
0.756667 0.855833 -0.004167
0.822500 0.855000 -0.006250
0.888333 0.854167 -0.008333
0.954167 0.853333 -0.010417
1.000000 0.852500 -0.012500
0.000000 0.918750 0.000000
0.062500 0.918750 0.000000
0.125000 0.918750 0.000000
0.187500 0.918750 0.000000
0.250000 0.918750 0.000000
0.312500 0.918750 0.000000
0.375000 0.918750 0.000000
0.437500 0.918750 0.000000
0.500000 0.918750 0.000000
0.562500 0.918750 0.000000
0.628333 0.917917 -0.002083
0.694167 0.917083 -0.004167
0.760000 0.916250 -0.006250
0.825833 0.915417 -0.008333
0.891667 0.914583 -0.010417
0.957500 0.913750 -0.012500
1.000000 0.912917 -0.014583
0.000000 0.980000 0.000000
0.062500 0.980000 0.000000
0.125000 0.980000 0.000000
0.187500 0.980000 0.000000
0.250000 0.980000 0.000000
0.312500 0.980000 0.000000
0.375000 0.980000 0.000000
0.437500 0.980000 0.000000
0.500000 0.980000 0.000000
0.565833 0.979167 -0.002083
0.631667 0.978333 -0.004167
0.697500 0.977500 -0.006250
0.763333 0.976667 -0.008333
0.829167 0.975833 -0.010417
0.895000 0.975000 -0.012500
0.960833 0.974167 -0.014583
1.000000 0.973333 -0.016667
0.048750 0.117000 0.241125
0.103750 0.114000 0.236625
0.158750 0.111000 0.232125
0.213750 0.108000 0.227625
0.268750 0.105000 0.223125
0.323750 0.102000 0.218625
0.378750 0.099000 0.214125
0.437500 0.000000 0.057500
0.500000 0.000000 0.057500
0.562500 0.000000 0.057500
0.625000 0.000000 0.057500
0.687500 0.000000 0.057500
0.750000 0.000000 0.057500
0.812500 0.000000 0.057500
0.875000 0.000000 0.057500
0.937500 0.000000 0.057500
1.000000 0.000000 0.057500
0.047500 0.173375 0.236625
0.102500 0.170375 0.232125
0.157500 0.167375 0.227625
0.212500 0.164375 0.223125
0.267500 0.161375 0.218625
0.322500 0.158375 0.214125
0.375000 0.061250 0.057500
0.437500 0.061250 0.057500
0.500000 0.061250 0.057500
0.562500 0.061250 0.057500
0.625000 0.061250 0.057500
0.687500 0.061250 0.057500
0.750000 0.061250 0.057500
0.812500 0.061250 0.057500
0.875000 0.061250 0.057500
0.937500 0.061250 0.057500
1.000000 0.061250 0.057500
0.046250 0.229750 0.232125
0.101250 0.226750 0.227625
0.156250 0.223750 0.223125
0.211250 0.220750 0.218625
0.266250 0.217750 0.214125
0.312500 0.122500 0.057500
0.375000 0.122500 0.057500
0.437500 0.122500 0.057500
0.500000 0.122500 0.057500
0.562500 0.122500 0.057500
0.625000 0.122500 0.057500
0.687500 0.122500 0.057500
0.750000 0.122500 0.057500
0.812500 0.122500 0.057500
0.875000 0.122500 0.057500
0.937500 0.122500 0.057500
1.000000 0.122500 0.057500
0.045000 0.286125 0.227625
0.100000 0.283125 0.223125
0.155000 0.280125 0.218625
0.210000 0.277125 0.214125
0.250000 0.183750 0.057500
0.312500 0.183750 0.057500
0.375000 0.183750 0.057500
0.437500 0.183750 0.057500
0.500000 0.183750 0.057500
0.562500 0.183750 0.057500
0.625000 0.183750 0.057500
0.687500 0.183750 0.057500
0.750000 0.183750 0.057500
0.812500 0.183750 0.057500
0.875000 0.183750 0.057500
0.937500 0.183750 0.057500
1.000000 0.183750 0.057500
0.043750 0.342500 0.223125
0.098750 0.339500 0.218625
0.153750 0.336500 0.214125
0.187500 0.245000 0.057500
0.250000 0.245000 0.057500
0.312500 0.245000 0.057500
0.375000 0.245000 0.057500
0.437500 0.245000 0.057500
0.500000 0.245000 0.057500
0.562500 0.245000 0.057500
0.625000 0.245000 0.057500
0.687500 0.245000 0.057500
0.750000 0.245000 0.057500
0.812500 0.245000 0.057500
0.875000 0.245000 0.057500
0.937500 0.245000 0.057500
1.000000 0.245000 0.057500
0.042500 0.398875 0.218625
0.097500 0.395875 0.214125
0.125000 0.306250 0.057500
0.187500 0.306250 0.057500
0.250000 0.306250 0.057500
0.312500 0.306250 0.057500
0.375000 0.306250 0.057500
0.437500 0.306250 0.057500
0.500000 0.306250 0.057500
0.562500 0.306250 0.057500
0.625000 0.306250 0.057500
0.687500 0.306250 0.057500
0.750000 0.306250 0.057500
0.812500 0.306250 0.057500
0.875000 0.306250 0.057500
0.937500 0.306250 0.057500
1.000000 0.306250 0.057500
0.041250 0.455250 0.214125
0.062500 0.367500 0.057500
0.125000 0.367500 0.057500
0.187500 0.367500 0.057500
0.250000 0.367500 0.057500
0.312500 0.367500 0.057500
0.375000 0.367500 0.057500
0.437500 0.367500 0.057500
0.500000 0.367500 0.057500
0.562500 0.367500 0.057500
0.625000 0.367500 0.057500
0.687500 0.367500 0.057500
0.750000 0.367500 0.057500
0.812500 0.367500 0.057500
0.875000 0.367500 0.057500
0.937500 0.367500 0.057500
1.000000 0.367500 0.057500
0.000000 0.428750 0.057500
0.062500 0.428750 0.057500
0.125000 0.428750 0.057500
0.187500 0.428750 0.057500
0.250000 0.428750 0.057500
0.312500 0.428750 0.057500
0.375000 0.428750 0.057500
0.437500 0.428750 0.057500
0.500000 0.428750 0.057500
0.562500 0.428750 0.057500
0.625000 0.428750 0.057500
0.687500 0.428750 0.057500
0.750000 0.428750 0.057500
0.812500 0.428750 0.057500
0.875000 0.428750 0.057500
0.937500 0.428750 0.057500
1.000000 0.428750 0.057500
0.000000 0.490000 0.057500
0.062500 0.490000 0.057500
0.125000 0.490000 0.057500
0.187500 0.490000 0.057500
0.250000 0.490000 0.057500
0.312500 0.490000 0.057500
0.375000 0.490000 0.057500
0.437500 0.490000 0.057500
0.500000 0.490000 0.057500
0.562500 0.490000 0.057500
0.625000 0.490000 0.057500
0.687500 0.490000 0.057500
0.750000 0.490000 0.057500
0.812500 0.490000 0.057500
0.875000 0.490000 0.057500
0.937500 0.490000 0.057500
1.000000 0.489167 0.055417
0.000000 0.551250 0.057500
0.062500 0.551250 0.057500
0.125000 0.551250 0.057500
0.187500 0.551250 0.057500
0.250000 0.551250 0.057500
0.312500 0.551250 0.057500
0.375000 0.551250 0.057500
0.437500 0.551250 0.057500
0.500000 0.551250 0.057500
0.562500 0.551250 0.057500
0.625000 0.551250 0.057500
0.687500 0.551250 0.057500
0.750000 0.551250 0.057500
0.812500 0.551250 0.057500
0.875000 0.551250 0.057500
0.940833 0.550417 0.055417
1.000000 0.549583 0.053333
0.000000 0.612500 0.057500
0.062500 0.612500 0.057500
0.125000 0.612500 0.057500
0.187500 0.612500 0.057500
0.250000 0.612500 0.057500
0.312500 0.612500 0.057500
0.375000 0.612500 0.057500
0.437500 0.612500 0.057500
0.500000 0.612500 0.057500
0.562500 0.612500 0.057500
0.625000 0.612500 0.057500
0.687500 0.612500 0.057500
0.750000 0.612500 0.057500
0.812500 0.612500 0.057500
0.878333 0.611667 0.055417
0.944167 0.610833 0.053333
1.000000 0.610000 0.051250
0.000000 0.673750 0.057500
0.062500 0.673750 0.057500
0.125000 0.673750 0.057500
0.187500 0.673750 0.057500
0.250000 0.673750 0.057500
0.312500 0.673750 0.057500
0.375000 0.673750 0.057500
0.437500 0.673750 0.057500
0.500000 0.673750 0.057500
0.562500 0.673750 0.057500
0.625000 0.673750 0.057500
0.687500 0.673750 0.057500
0.750000 0.673750 0.057500
0.815833 0.672917 0.055417
0.881667 0.672083 0.053333
0.947500 0.671250 0.051250
1.000000 0.670417 0.049167
0.000000 0.735000 0.057500
0.062500 0.735000 0.057500
0.125000 0.735000 0.057500
0.187500 0.735000 0.057500
0.250000 0.735000 0.057500
0.312500 0.735000 0.057500
0.375000 0.735000 0.057500
0.437500 0.735000 0.057500
0.500000 0.735000 0.057500
0.562500 0.735000 0.057500
0.625000 0.735000 0.057500
0.687500 0.735000 0.057500
0.753333 0.734167 0.055417
0.819167 0.733333 0.053333
0.885000 0.732500 0.051250
0.950833 0.731667 0.049167
1.000000 0.730833 0.047083
0.000000 0.796250 0.057500
0.062500 0.796250 0.057500
0.125000 0.796250 0.057500
0.187500 0.796250 0.057500
0.250000 0.796250 0.057500
0.312500 0.796250 0.057500
0.375000 0.796250 0.057500
0.437500 0.796250 0.057500
0.500000 0.796250 0.057500
0.562500 0.796250 0.057500
0.625000 0.796250 0.057500
0.690833 0.795417 0.055417
0.756667 0.794583 0.053333
0.822500 0.793750 0.051250
0.888333 0.792917 0.049167
0.954167 0.792083 0.047083
1.000000 0.791250 0.045000
0.000000 0.857500 0.057500
0.062500 0.857500 0.057500
0.125000 0.857500 0.057500
0.187500 0.857500 0.057500
0.250000 0.857500 0.057500
0.312500 0.857500 0.057500
0.375000 0.857500 0.057500
0.437500 0.857500 0.057500
0.500000 0.857500 0.057500
0.562500 0.857500 0.057500
0.628333 0.856667 0.055417
0.694167 0.855833 0.053333
0.760000 0.855000 0.051250
0.825833 0.854167 0.049167
0.891667 0.853333 0.047083
0.957500 0.852500 0.045000
1.000000 0.851667 0.042917
0.000000 0.918750 0.057500
0.062500 0.918750 0.057500
0.125000 0.918750 0.057500
0.187500 0.918750 0.057500
0.250000 0.918750 0.057500
0.312500 0.918750 0.057500
0.375000 0.918750 0.057500
0.437500 0.918750 0.057500
0.500000 0.918750 0.057500
0.565833 0.917917 0.055417
0.631667 0.917083 0.053333
0.697500 0.916250 0.051250
0.763333 0.915417 0.049167
0.829167 0.914583 0.047083
0.895000 0.913750 0.045000
0.960833 0.912917 0.042917
1.000000 0.912083 0.040833
0.000000 0.980000 0.057500
0.062500 0.980000 0.057500
0.125000 0.980000 0.057500
0.187500 0.980000 0.057500
0.250000 0.980000 0.057500
0.312500 0.980000 0.057500
0.375000 0.980000 0.057500
0.437500 0.980000 0.057500
0.503333 0.979167 0.055417
0.569167 0.978333 0.053333
0.635000 0.977500 0.051250
0.700833 0.976667 0.049167
0.766667 0.975833 0.047083
0.832500 0.975000 0.045000
0.898333 0.974167 0.042917
0.964167 0.973333 0.040833
1.000000 0.972500 0.038750
0.047500 0.114000 0.302250
0.102500 0.111000 0.297750
0.157500 0.108000 0.293250
0.212500 0.105000 0.288750
0.267500 0.102000 0.284250
0.322500 0.099000 0.279750
0.375000 0.000000 0.115000
0.437500 0.000000 0.115000
0.500000 0.000000 0.115000
0.562500 0.000000 0.115000
0.625000 0.000000 0.115000
0.687500 0.000000 0.115000
0.750000 0.000000 0.115000
0.812500 0.000000 0.115000
0.875000 0.000000 0.115000
0.937500 0.000000 0.115000
1.000000 0.000000 0.115000
0.046250 0.170375 0.297750
0.101250 0.167375 0.293250
0.156250 0.164375 0.288750
0.211250 0.161375 0.284250
0.266250 0.158375 0.279750
0.312500 0.061250 0.115000
0.375000 0.061250 0.115000
0.437500 0.061250 0.115000
0.500000 0.061250 0.115000
0.562500 0.061250 0.115000
0.625000 0.061250 0.115000
0.687500 0.061250 0.115000
0.750000 0.061250 0.115000
0.812500 0.061250 0.115000
0.875000 0.061250 0.115000
0.937500 0.061250 0.115000
1.000000 0.061250 0.115000
0.045000 0.226750 0.293250
0.100000 0.223750 0.288750
0.155000 0.220750 0.284250
0.210000 0.217750 0.279750
0.250000 0.122500 0.115000
0.312500 0.122500 0.115000
0.375000 0.122500 0.115000
0.437500 0.122500 0.115000
0.500000 0.122500 0.115000
0.562500 0.122500 0.115000
0.625000 0.122500 0.115000
0.687500 0.122500 0.115000
0.750000 0.122500 0.115000
0.812500 0.122500 0.115000
0.875000 0.122500 0.115000
0.937500 0.122500 0.115000
1.000000 0.122500 0.115000
0.043750 0.283125 0.288750
0.098750 0.280125 0.284250
0.153750 0.277125 0.279750
0.187500 0.183750 0.115000
0.250000 0.183750 0.115000
0.312500 0.183750 0.115000
0.375000 0.183750 0.115000
0.437500 0.183750 0.115000
0.500000 0.183750 0.115000
0.562500 0.183750 0.115000
0.625000 0.183750 0.115000
0.687500 0.183750 0.115000
0.750000 0.183750 0.115000
0.812500 0.183750 0.115000
0.875000 0.183750 0.115000
0.937500 0.183750 0.115000
1.000000 0.183750 0.115000
0.042500 0.339500 0.284250
0.097500 0.336500 0.279750
0.125000 0.245000 0.115000
0.187500 0.245000 0.115000
0.250000 0.245000 0.115000
0.312500 0.245000 0.115000
0.375000 0.245000 0.115000
0.437500 0.245000 0.115000
0.500000 0.245000 0.115000
0.562500 0.245000 0.115000
0.625000 0.245000 0.115000
0.687500 0.245000 0.115000
0.750000 0.245000 0.115000
0.812500 0.245000 0.115000
0.875000 0.245000 0.115000
0.937500 0.245000 0.115000
1.000000 0.245000 0.115000
0.041250 0.395875 0.279750
0.062500 0.306250 0.115000
0.125000 0.306250 0.115000
0.187500 0.306250 0.115000
0.250000 0.306250 0.115000
0.312500 0.306250 0.115000
0.375000 0.306250 0.115000
0.437500 0.306250 0.115000
0.500000 0.306250 0.115000
0.562500 0.306250 0.115000
0.625000 0.306250 0.115000
0.687500 0.306250 0.115000
0.750000 0.306250 0.115000
0.812500 0.306250 0.115000
0.875000 0.306250 0.115000
0.937500 0.306250 0.115000
1.000000 0.306250 0.115000
0.000000 0.367500 0.115000
0.062500 0.367500 0.115000
0.125000 0.367500 0.115000
0.187500 0.367500 0.115000
0.250000 0.367500 0.115000
0.312500 0.367500 0.115000
0.375000 0.367500 0.115000
0.437500 0.367500 0.115000
0.500000 0.367500 0.115000
0.562500 0.367500 0.115000
0.625000 0.367500 0.115000
0.687500 0.367500 0.115000
0.750000 0.367500 0.115000
0.812500 0.367500 0.115000
0.875000 0.367500 0.115000
0.937500 0.367500 0.115000
1.000000 0.367500 0.115000
0.000000 0.428750 0.115000
0.062500 0.428750 0.115000
0.125000 0.428750 0.115000
0.187500 0.428750 0.115000
0.250000 0.428750 0.115000
0.312500 0.428750 0.115000
0.375000 0.428750 0.115000
0.437500 0.428750 0.115000
0.500000 0.428750 0.115000
0.562500 0.428750 0.115000
0.625000 0.428750 0.115000
0.687500 0.428750 0.115000
0.750000 0.428750 0.115000
0.812500 0.428750 0.115000
0.875000 0.428750 0.115000
0.937500 0.428750 0.115000
1.000000 0.427917 0.112917
0.000000 0.490000 0.115000
0.062500 0.490000 0.115000
0.125000 0.490000 0.115000
0.187500 0.490000 0.115000
0.250000 0.490000 0.115000
0.312500 0.490000 0.115000
0.375000 0.490000 0.115000
0.437500 0.490000 0.115000
0.500000 0.490000 0.115000
0.562500 0.490000 0.115000
0.625000 0.490000 0.115000
0.687500 0.490000 0.115000
0.750000 0.490000 0.115000
0.812500 0.490000 0.115000
0.875000 0.490000 0.115000
0.940833 0.489167 0.112917
1.000000 0.488333 0.110833
0.000000 0.551250 0.115000
0.062500 0.551250 0.115000
0.125000 0.551250 0.115000
0.187500 0.551250 0.115000
0.250000 0.551250 0.115000
0.312500 0.551250 0.115000
0.375000 0.551250 0.115000
0.437500 0.551250 0.115000
0.500000 0.551250 0.115000
0.562500 0.551250 0.115000
0.625000 0.551250 0.115000
0.687500 0.551250 0.115000
0.750000 0.551250 0.115000
0.812500 0.551250 0.115000
0.878333 0.550417 0.112917
0.944167 0.549583 0.110833
1.000000 0.548750 0.108750
0.000000 0.612500 0.115000
0.062500 0.612500 0.115000
0.125000 0.612500 0.115000
0.187500 0.612500 0.115000
0.250000 0.612500 0.115000
0.312500 0.612500 0.115000
0.375000 0.612500 0.115000
0.437500 0.612500 0.115000
0.500000 0.612500 0.115000
0.562500 0.612500 0.115000
0.625000 0.612500 0.115000
0.687500 0.612500 0.115000
0.750000 0.612500 0.115000
0.815833 0.611667 0.112917
0.881667 0.610833 0.110833
0.947500 0.610000 0.108750
1.000000 0.609167 0.106667
0.000000 0.673750 0.115000
0.062500 0.673750 0.115000
0.125000 0.673750 0.115000
0.187500 0.673750 0.115000
0.250000 0.673750 0.115000
0.312500 0.673750 0.115000
0.375000 0.673750 0.115000
0.437500 0.673750 0.115000
0.500000 0.673750 0.115000
0.562500 0.673750 0.115000
0.625000 0.673750 0.115000
0.687500 0.673750 0.115000
0.753333 0.672917 0.112917
0.819167 0.672083 0.110833
0.885000 0.671250 0.108750
0.950833 0.670417 0.106667
1.000000 0.669583 0.104583
0.000000 0.735000 0.115000
0.062500 0.735000 0.115000
0.125000 0.735000 0.115000
0.187500 0.735000 0.115000
0.250000 0.735000 0.115000
0.312500 0.735000 0.115000
0.375000 0.735000 0.115000
0.437500 0.735000 0.115000
0.500000 0.735000 0.115000
0.562500 0.735000 0.115000
0.625000 0.735000 0.115000
0.690833 0.734167 0.112917
0.756667 0.733333 0.110833
0.822500 0.732500 0.108750
0.888333 0.731667 0.106667
0.954167 0.730833 0.104583
1.000000 0.730000 0.102500
0.000000 0.796250 0.115000
0.062500 0.796250 0.115000
0.125000 0.796250 0.115000
0.187500 0.796250 0.115000
0.250000 0.796250 0.115000
0.312500 0.796250 0.115000
0.375000 0.796250 0.115000
0.437500 0.796250 0.115000
0.500000 0.796250 0.115000
0.562500 0.796250 0.115000
0.628333 0.795417 0.112917
0.694167 0.794583 0.110833
0.760000 0.793750 0.108750
0.825833 0.792917 0.106667
0.891667 0.792083 0.104583
0.957500 0.791250 0.102500
1.000000 0.790417 0.100417
0.000000 0.857500 0.115000
0.062500 0.857500 0.115000
0.125000 0.857500 0.115000
0.187500 0.857500 0.115000
0.250000 0.857500 0.115000
0.312500 0.857500 0.115000
0.375000 0.857500 0.115000
0.437500 0.857500 0.115000
0.500000 0.857500 0.115000
0.565833 0.856667 0.112917
0.631667 0.855833 0.110833
0.697500 0.855000 0.108750
0.763333 0.854167 0.106667
0.829167 0.853333 0.104583
0.895000 0.852500 0.102500
0.960833 0.851667 0.100417
1.000000 0.850833 0.098333
0.000000 0.918750 0.115000
0.062500 0.918750 0.115000
0.125000 0.918750 0.115000
0.187500 0.918750 0.115000
0.250000 0.918750 0.115000
0.312500 0.918750 0.115000
0.375000 0.918750 0.115000
0.437500 0.918750 0.115000
0.503333 0.917917 0.112917
0.569167 0.917083 0.110833
0.635000 0.916250 0.108750
0.700833 0.915417 0.106667
0.766667 0.914583 0.104583
0.832500 0.913750 0.102500
0.898333 0.912917 0.100417
0.964167 0.912083 0.098333
1.000000 0.911250 0.096250
0.000000 0.980000 0.115000
0.062500 0.980000 0.115000
0.125000 0.980000 0.115000
0.187500 0.980000 0.115000
0.250000 0.980000 0.115000
0.312500 0.980000 0.115000
0.375000 0.980000 0.115000
0.440833 0.979167 0.112917
0.506667 0.978333 0.110833
0.572500 0.977500 0.108750
0.638333 0.976667 0.106667
0.704167 0.975833 0.104583
0.770000 0.975000 0.102500
0.835833 0.974167 0.100417
0.901667 0.973333 0.098333
0.967500 0.972500 0.096250
1.000000 0.971667 0.094167
0.046250 0.111000 0.363375
0.101250 0.108000 0.358875
0.156250 0.105000 0.354375
0.211250 0.102000 0.349875
0.266250 0.099000 0.345375
0.312500 0.000000 0.172500
0.375000 0.000000 0.172500
0.437500 0.000000 0.172500
0.500000 0.000000 0.172500
0.562500 0.000000 0.172500
0.625000 0.000000 0.172500
0.687500 0.000000 0.172500
0.750000 0.000000 0.172500
0.812500 0.000000 0.172500
0.875000 0.000000 0.172500
0.937500 0.000000 0.172500
1.000000 0.000000 0.172500
0.045000 0.167375 0.358875
