hermes-skills/ugc-video-pipeline/luts/cinematic.cube
TITLE "Cinematic Orange Teal"
LUT_3D_SIZE 5
0.050000 0.120000 0.180000
0.270000 0.108000 0.162000
0.500000 0.000000 0.000000
0.750000 0.000000 0.000000
1.000000 0.000000 0.000000
0.045000 0.345500 0.162000
0.250000 0.245000 0.000000
0.500000 0.245000 0.000000
0.750000 0.245000 0.000000
1.000000 0.245000 0.000000
0.000000 0.490000 0.000000
0.250000 0.490000 0.000000
0.500000 0.490000 0.000000
0.750000 0.490000 0.000000
1.000000 0.490000 0.000000
0.000000 0.735000 0.000000
0.250000 0.735000 0.000000
0.500000 0.735000 0.000000
0.750000 0.735000 0.000000
1.000000 0.731667 -0.008333
0.000000 0.980000 0.000000
0.250000 0.980000 0.000000
0.500000 0.980000 0.000000
0.763333 0.976667 -0.008333
1.000000 0.973333 -0.016667
0.045000 0.108000 0.424500
0.250000 0.000000 0.230000
0.500000 0.000000 0.230000
0.750000 0.000000 0.230000
1.000000 0.000000 0.230000
0.000000 0.245000 0.230000
0.250000 0.245000 0.230000
0.500000 0.245000 0.230000
0.750000 0.245000 0.230000
1.000000 0.245000 0.230000
0.000000 0.490000 0.230000
0.250000 0.490000 0.230000
0.500000 0.490000 0.230000
0.750000 0.490000 0.230000
1.000000 0.486667 0.221667
0.000000 0.735000 0.230000
0.250000 0.735000 0.230000
0.500000 0.735000 0.230000
0.763333 0.731667 0.221667
1.000000 0.728333 0.213333
0.000000 0.980000 0.230000
0.250000 0.980000 0.230000
0.513333 0.976667 0.221667
0.776667 0.973333 0.213333
1.000000 0.970000 0.205000
0.000000 0.000000 0.460000
0.250000 0.000000 0.460000
0.500000 0.000000 0.460000
0.750000 0.000000 0.460000
1.000000 0.000000 0.460000
0.000000 0.245000 0.460000
0.250000 0.245000 0.460000
0.500000 0.245000 0.460000
0.750000 0.245000 0.460000
1.000000 0.241667 0.451667
0.000000 0.490000 0.460000
0.250000 0.490000 0.460000
0.500000 0.490000 0.460000
0.763333 0.486667 0.451667
1.000000 0.483333 0.443333
0.000000 0.735000 0.460000
0.250000 0.735000 0.460000
0.513333 0.731667 0.451667
0.776667 0.728333 0.443333
1.000000 0.725000 0.435000
0.000000 0.980000 0.460000
0.263333 0.976667 0.451667
0.526667 0.973333 0.443333
0.790000 0.970000 0.435000
1.000000 0.966667 0.426667
0.000000 0.000000 0.690000
0.250000 0.000000 0.690000
0.500000 0.000000 0.690000
0.750000 0.000000 0.690000
1.000000 -0.003333 0.681667
0.000000 0.245000 0.690000
0.250000 0.245000 0.690000
0.500000 0.245000 0.690000
0.763333 0.241667 0.681667
1.000000 0.238333 0.673333
0.000000 0.490000 0.690000
0.250000 0.490000 0.690000
0.513333 0.486667 0.681667
0.776667 0.483333 0.673333
1.000000 0.480000 0.665000
0.000000 0.735000 0.690000
0.263333 0.731667 0.681667
0.526667 0.728333 0.673333
0.790000 0.725000 0.665000
1.000000 0.721667 0.656667
0.013333 0.976667 0.681667
0.276667 0.973333 0.673333
0.540000 0.970000 0.665000
0.803333 0.966667 0.656667
1.000000 0.963333 0.648333
0.000000 0.000000 0.920000
0.250000 0.000000 0.920000
0.500000 0.000000 0.920000
0.763333 -0.003333 0.911667
1.000000 -0.006667 0.903333
0.000000 0.245000 0.920000
0.250000 0.245000 0.920000
0.513333 0.241667 0.911667
0.776667 0.238333 0.903333
1.000000 0.235000 0.895000
0.000000 0.490000 0.920000
0.263333 0.486667 0.911667
0.526667 0.483333 0.903333
0.790000 0.480000 0.895000
1.000000 0.476667 0.886667
0.013333 0.731667 0.911667
0.276667 0.728333 0.903333
0.540000 0.725000 0.895000
0.803333 0.721667 0.886667
1.000000 0.718333 0.878333
0.026667 0.973333 0.903333
0.290000 0.970000 0.895000
0.553333 0.966667 0.886667
0.816667 0.963333 0.878333
1.000000 0.960000 0.870000
