hermes-skills/ugc-video-pipeline/luts/cool_blue.cube
TITLE "Cool Blue Tech"
LUT_3D_SIZE 5
0.000000 0.000000 0.000000
0.217040 0.000000 0.000000
0.487040 0.000000 0.000000
0.757040 0.000000 0.000000
1.000000 0.000000 0.000000
0.000000 0.224600 0.000000
0.217040 0.224600 0.000000
0.487040 0.224600 0.000000
0.757040 0.224600 0.000000
1.000000 0.224600 0.000000
0.000000 0.489200 0.000000
0.217040 0.489200 0.000000
0.487040 0.489200 0.000000
0.757040 0.489200 0.000000
1.000000 0.489200 0.000000
0.000000 0.753800 0.000000
0.217040 0.753800 0.000000
0.487040 0.753800 0.000000
0.757040 0.753800 0.000000
1.000000 0.753800 0.000000
0.000000 1.000000 0.000000
0.217040 1.000000 0.000000
0.487040 1.000000 0.000000
0.757040 1.000000 0.000000
1.000000 1.000000 0.000000
0.000000 0.000000 0.251600
0.217040 0.000000 0.251600
0.487040 0.000000 0.251600
0.757040 0.000000 0.251600
1.000000 0.000000 0.251600
0.000000 0.224600 0.251600
0.217040 0.224600 0.251600
0.487040 0.224600 0.251600
0.757040 0.224600 0.251600
1.000000 0.224600 0.251600
0.000000 0.489200 0.251600
0.217040 0.489200 0.251600
0.487040 0.489200 0.251600
0.757040 0.489200 0.251600
1.000000 0.489200 0.251600
0.000000 0.753800 0.251600
0.217040 0.753800 0.251600
0.487040 0.753800 0.251600
0.757040 0.753800 0.251600
1.000000 0.753800 0.251600
0.000000 1.000000 0.251600
0.217040 1.000000 0.251600
0.487040 1.000000 0.251600
0.757040 1.000000 0.251600
1.000000 1.000000 0.251600
0.000000 0.000000 0.521600
0.217040 0.000000 0.521600
0.487040 0.000000 0.521600
0.757040 0.000000 0.521600
1.000000 0.000000 0.521600
0.000000 0.224600 0.521600
0.217040 0.224600 0.521600
0.487040 0.224600 0.521600
0.757040 0.224600 0.521600
1.000000 0.224600 0.521600
0.000000 0.489200 0.521600
0.217040 0.489200 0.521600
0.487040 0.489200 0.521600
0.757040 0.489200 0.521600
1.000000 0.489200 0.521600
0.000000 0.753800 0.521600
0.217040 0.753800 0.521600
0.487040 0.753800 0.521600
0.757040 0.753800 0.521600
1.000000 0.753800 0.521600
0.000000 1.000000 0.521600
0.217040 1.000000 0.521600
0.487040 1.000000 0.521600
0.757040 1.000000 0.521600
1.000000 1.000000 0.521600
0.000000 0.000000 0.791600
0.217040 0.000000 0.791600
0.487040 0.000000 0.791600
0.757040 0.000000 0.791600
1.000000 0.000000 0.791600
0.000000 0.224600 0.791600
0.217040 0.224600 0.791600
0.487040 0.224600 0.791600
0.757040 0.224600 0.791600
1.000000 0.224600 0.791600
0.000000 0.489200 0.791600
0.217040 0.489200 0.791600
0.487040 0.489200 0.791600
0.757040 0.489200 0.791600
1.000000 0.489200 0.791600
0.000000 0.753800 0.791600
0.217040 0.753800 0.791600
0.487040 0.753800 0.791600
0.757040 0.753800 0.791600
1.000000 0.753800 0.791600
0.000000 1.000000 0.791600
0.217040 1.000000 0.791600
0.487040 1.000000 0.791600
0.757040 1.000000 0.791600
1.000000 1.000000 0.791600
0.000000 0.000000 1.000000
0.217040 0.000000 1.000000
0.487040 0.000000 1.000000
0.757040 0.000000 1.000000
1.000000 0.000000 1.000000
0.000000 0.224600 1.000000
0.217040 0.224600 1.000000
0.487040 0.224600 1.000000
0.757040 0.224600 1.000000
1.000000 0.224600 1.000000
0.000000 0.489200 1.000000
0.217040 0.489200 1.000000
0.487040 0.489200 1.000000
0.757040 0.489200 1.000000
1.000000 0.489200 1.000000
0.000000 0.753800 1.000000
0.217040 0.753800 1.000000
0.487040 0.753800 1.000000
0.757040 0.753800 1.000000
1.000000 0.753800 1.000000
0.000000 1.000000 1.000000
0.217040 1.000000 1.000000
0.487040 1.000000 1.000000
0.757040 1.000000 1.000000
1.000000 1.000000 1.000000
