hermes-skills/ugc-video-pipeline/luts/cool_blue.cube
TITLE "Cool Blue Tech"
LUT_3D_SIZE 9
0.000000 0.000000 0.000000
0.082040 0.000000 0.000000
0.217040 0.000000 0.000000
0.352040 0.000000 0.000000
0.487040 0.000000 0.000000
0.622040 0.000000 0.000000
0.757040 0.000000 0.000000
0.892040 0.000000 0.000000
1.000000 0.000000 0.000000
0.000000 0.092300 0.000000
0.082040 0.092300 0.000000
0.217040 0.092300 0.000000
0.352040 0.092300 0.000000
0.487040 0.092300 0.000000
0.622040 0.092300 0.000000
0.757040 0.092300 0.000000
0.892040 0.092300 0.000000
1.000000 0.092300 0.000000
0.000000 0.224600 0.000000
0.082040 0.224600 0.000000
0.217040 0.224600 0.000000
0.352040 0.224600 0.000000
0.487040 0.224600 0.000000
0.622040 0.224600 0.000000
0.757040 0.224600 0.000000
0.892040 0.224600 0.000000
1.000000 0.224600 0.000000
0.000000 0.356900 0.000000
0.082040 0.356900 0.000000
0.217040 0.356900 0.000000
0.352040 0.356900 0.000000
0.487040 0.356900 0.000000
0.622040 0.356900 0.000000
0.757040 0.356900 0.000000
0.892040 0.356900 0.000000
1.000000 0.356900 0.000000
0.000000 0.489200 0.000000
0.082040 0.489200 0.000000
0.217040 0.489200 0.000000
0.352040 0.489200 0.000000
0.487040 0.489200 0.000000
0.622040 0.489200 0.000000
0.757040 0.489200 0.000000
0.892040 0.489200 0.000000
1.000000 0.489200 0.000000
0.000000 0.621500 0.000000
0.082040 0.621500 0.000000
0.217040 0.621500 0.000000
0.352040 0.621500 0.000000
0.487040 0.621500 0.000000
0.622040 0.621500 0.000000
0.757040 0.621500 0.000000
0.892040 0.621500 0.000000
1.000000 0.621500 0.000000
0.000000 0.753800 0.000000
0.082040 0.753800 0.000000
0.217040 0.753800 0.000000
0.352040 0.753800 0.000000
0.487040 0.753800 0.000000
0.622040 0.753800 0.000000
0.757040 0.753800 0.000000
0.892040 0.753800 0.000000
1.000000 0.753800 0.000000
0.000000 0.886100 0.000000
0.082040 0.886100 0.000000
0.217040 0.886100 0.000000
0.352040 0.886100 0.000000
0.487040 0.886100 0.000000
0.622040 0.886100 0.000000
0.757040 0.886100 0.000000
0.892040 0.886100 0.000000
1.000000 0.886100 0.000000
0.000000 1.000000 0.000000
0.082040 1.000000 0.000000
0.217040 1.000000 0.000000
0.352040 1.000000 0.000000
0.487040 1.000000 0.000000
0.622040 1.000000 0.000000
0.757040 1.000000 0.000000
0.892040 1.000000 0.000000
1.000000 1.000000 0.000000
0.000000 0.000000 0.116600
0.082040 0.000000 0.116600
0.217040 0.000000 0.116600
0.352040 0.000000 0.116600
0.487040 0.000000 0.116600
0.622040 0.000000 0.116600
0.757040 0.000000 0.116600
0.892040 0.000000 0.116600
1.000000 0.000000 0.116600
0.000000 0.092300 0.116600
0.082040 0.092300 0.116600
0.217040 0.092300 0.116600
0.352040 0.092300 0.116600
0.487040 0.092300 0.116600
0.622040 0.092300 0.116600
0.757040 0.092300 0.116600
0.892040 0.092300 0.116600
1.000000 0.092300 0.116600
0.000000 0.224600 0.116600
0.082040 0.224600 0.116600
0.217040 0.224600 0.116600
0.352040 0.224600 0.116600
0.487040 0.224600 0.116600
0.622040 0.224600 0.116600
0.757040 0.224600 0.116600
0.892040 0.224600 0.116600
1.000000 0.224600 0.116600
0.000000 0.356900 0.116600
0.082040 0.356900 0.116600
0.217040 0.356900 0.116600
0.352040 0.356900 0.116600
0.487040 0.356900 0.116600
0.622040 0.356900 0.116600
0.757040 0.356900 0.116600
0.892040 0.356900 0.116600
1.000000 0.356900 0.116600
0.000000 0.489200 0.116600
0.082040 0.489200 0.116600
0.217040 0.489200 0.116600
0.352040 0.489200 0.116600
0.487040 0.489200 0.116600
0.622040 0.489200 0.116600
0.757040 0.489200 0.116600
0.892040 0.489200 0.116600
1.000000 0.489200 0.116600
0.000000 0.621500 0.116600
0.082040 0.621500 0.116600
0.217040 0.621500 0.116600
0.352040 0.621500 0.116600
0.487040 0.621500 0.116600
0.622040 0.621500 0.116600
0.757040 0.621500 0.116600
0.892040 0.621500 0.116600
1.000000 0.621500 0.116600
0.000000 0.753800 0.116600
0.082040 0.753800 0.116600
0.217040 0.753800 0.116600
0.352040 0.753800 0.116600
0.487040 0.753800 0.116600
0.622040 0.753800 0.116600
0.757040 0.753800 0.116600
0.892040 0.753800 0.116600
1.000000 0.753800 0.116600
0.000000 0.886100 0.116600
0.082040 0.886100 0.116600
0.217040 0.886100 0.116600
0.352040 0.886100 0.116600
0.487040 0.886100 0.116600
0.622040 0.886100 0.116600
0.757040 0.886100 0.116600
0.892040 0.886100 0.116600
1.000000 0.886100 0.116600
0.000000 1.000000 0.116600
0.082040 1.000000 0.116600
0.217040 1.000000 0.116600
0.352040 1.000000 0.116600
0.487040 1.000000 0.116600
0.622040 1.000000 0.116600
0.757040 1.000000 0.116600
0.892040 1.000000 0.116600
1.000000 1.000000 0.116600
0.000000 0.000000 0.251600
0.082040 0.000000 0.251600
0.217040 0.000000 0.251600
0.352040 0.000000 0.251600
0.487040 0.000000 0.251600
0.622040 0.000000 0.251600
0.757040 0.000000 0.251600
0.892040 0.000000 0.251600
1.000000 0.000000 0.251600
0.000000 0.092300 0.251600
0.082040 0.092300 0.251600
0.217040 0.092300 0.251600
0.352040 0.092300 0.251600
0.487040 0.092300 0.251600
0.622040 0.092300 0.251600
0.757040 0.092300 0.251600
0.892040 0.092300 0.251600
1.000000 0.092300 0.251600
0.000000 0.224600 0.251600
0.082040 0.224600 0.251600
0.217040 0.224600 0.251600
0.352040 0.224600 0.251600
0.487040 0.224600 0.251600
0.622040 0.224600 0.251600
0.757040 0.224600 0.251600
0.892040 0.224600 0.251600
1.000000 0.224600 0.251600
0.000000 0.356900 0.251600
0.082040 0.356900 0.251600
0.217040 0.356900 0.251600
0.352040 0.356900 0.251600
0.487040 0.356900 0.251600
0.622040 0.356900 0.251600
0.757040 0.356900 0.251600
0.892040 0.356900 0.251600
1.000000 0.356900 0.251600
0.000000 0.489200 0.251600
0.082040 0.489200 0.251600
0.217040 0.489200 0.251600
0.352040 0.489200 0.251600
0.487040 0.489200 0.251600
0.622040 0.489200 0.251600
0.757040 0.489200 0.251600
0.892040 0.489200 0.251600
1.000000 0.489200 0.251600
0.000000 0.621500 0.251600
0.082040 0.621500 0.251600
0.217040 0.621500 0.251600
0.352040 0.621500 0.251600
0.487040 0.621500 0.251600
0.622040 0.621500 0.251600
0.757040 0.621500 0.251600
0.892040 0.621500 0.251600
1.000000 0.621500 0.251600
0.000000 0.753800 0.251600
0.082040 0.753800 0.251600
0.217040 0.753800 0.251600
0.352040 0.753800 0.251600
0.487040 0.753800 0.251600
0.622040 0.753800 0.251600
0.757040 0.753800 0.251600
0.892040 0.753800 0.251600
1.000000 0.753800 0.251600
0.000000 0.886100 0.251600
0.082040 0.886100 0.251600
0.217040 0.886100 0.251600
0.352040 0.886100 0.251600
0.487040 0.886100 0.251600
0.622040 0.886100 0.251600
0.757040 0.886100 0.251600
0.892040 0.886100 0.251600
1.000000 0.886100 0.251600
0.000000 1.000000 0.251600
0.082040 1.000000 0.251600
0.217040 1.000000 0.251600
0.352040 1.000000 0.251600
0.487040 1.000000 0.251600
0.622040 1.000000 0.251600
0.757040 1.000000 0.251600
0.892040 1.000000 0.251600
1.000000 1.000000 0.251600
0.000000 0.000000 0.386600
0.082040 0.000000 0.386600
0.217040 0.000000 0.386600
0.352040 0.000000 0.386600
0.487040 0.000000 0.386600
0.622040 0.000000 0.386600
0.757040 0.000000 0.386600
0.892040 0.000000 0.386600
1.000000 0.000000 0.386600
0.000000 0.092300 0.386600
0.082040 0.092300 0.386600
0.217040 0.092300 0.386600
0.352040 0.092300 0.386600
0.487040 0.092300 0.386600
0.622040 0.092300 0.386600
0.757040 0.092300 0.386600
0.892040 0.092300 0.386600
1.000000 0.092300 0.386600
0.000000 0.224600 0.386600
0.082040 0.224600 0.386600
0.217040 0.224600 0.386600
0.352040 0.224600 0.386600
0.487040 0.224600 0.386600
0.622040 0.224600 0.386600
0.757040 0.224600 0.386600
0.892040 0.224600 0.386600
1.000000 0.224600 0.386600
0.000000 0.356900 0.386600
0.082040 0.356900 0.386600
0.217040 0.356900 0.386600
0.352040 0.356900 0.386600
0.487040 0.356900 0.386600
0.622040 0.356900 0.386600
0.757040 0.356900 0.386600
0.892040 0.356900 0.386600
1.000000 0.356900 0.386600
0.000000 0.489200 0.386600
0.082040 0.489200 0.386600
0.217040 0.489200 0.386600
0.352040 0.489200 0.386600
0.487040 0.489200 0.386600
0.622040 0.489200 0.386600
0.757040 0.489200 0.386600
0.892040 0.489200 0.386600
1.000000 0.489200 0.386600
0.000000 0.621500 0.386600
0.082040 0.621500 0.386600
0.217040 0.621500 0.386600
0.352040 0.621500 0.386600
0.487040 0.621500 0.386600
0.622040 0.621500 0.386600
0.757040 0.621500 0.386600
0.892040 0.621500 0.386600
1.000000 0.621500 0.386600
0.000000 0.753800 0.386600
0.082040 0.753800 0.386600
0.217040 0.753800 0.386600
0.352040 0.753800 0.386600
0.487040 0.753800 0.386600
0.622040 0.753800 0.386600
0.757040 0.753800 0.386600
0.892040 0.753800 0.386600
1.000000 0.753800 0.386600
0.000000 0.886100 0.386600
0.082040 0.886100 0.386600
0.217040 0.886100 0.386600
0.352040 0.886100 0.386600
0.487040 0.886100 0.386600
0.622040 0.886100 0.386600
0.757040 0.886100 0.386600
0.892040 0.886100 0.386600
1.000000 0.886100 0.386600
0.000000 1.000000 0.386600
0.082040 1.000000 0.386600
0.217040 1.000000 0.386600
0.352040 1.000000 0.386600
0.487040 1.000000 0.386600
0.622040 1.000000 0.386600
0.757040 1.000000 0.386600
0.892040 1.000000 0.386600
1.000000 1.000000 0.386600
0.000000 0.000000 0.521600
0.082040 0.000000 0.521600
0.217040 0.000000 0.521600
0.352040 0.000000 0.521600
0.487040 0.000000 0.521600
0.622040 0.000000 0.521600
0.757040 0.000000 0.521600
0.892040 0.000000 0.521600
1.000000 0.000000 0.521600
0.000000 0.092300 0.521600
0.082040 0.092300 0.521600
0.217040 0.092300 0.521600
0.352040 0.092300 0.521600
0.487040 0.092300 0.521600
0.622040 0.092300 0.521600
0.757040 0.092300 0.521600
0.892040 0.092300 0.521600
1.000000 0.092300 0.521600
0.000000 0.224600 0.521600
0.082040 0.224600 0.521600
0.217040 0.224600 0.521600
0.352040 0.224600 0.521600
0.487040 0.224600 0.521600
0.622040 0.224600 0.521600
0.757040 0.224600 0.521600
0.892040 0.224600 0.521600
1.000000 0.224600 0.521600
0.000000 0.356900 0.521600
0.082040 0.356900 0.521600
0.217040 0.356900 0.521600
0.352040 0.356900 0.521600
0.487040 0.356900 0.521600
0.622040 0.356900 0.521600
0.757040 0.356900 0.521600
0.892040 0.356900 0.521600
1.000000 0.356900 0.521600
0.000000 0.489200 0.521600
0.082040 0.489200 0.521600
0.217040 0.489200 0.521600
0.352040 0.489200 0.521600
0.487040 0.489200 0.521600
0.622040 0.489200 0.521600
0.757040 0.489200 0.521600
0.892040 0.489200 0.521600
1.000000 0.489200 0.521600
0.000000 0.621500 0.521600
0.082040 0.621500 0.521600
0.217040 0.621500 0.521600
0.352040 0.621500 0.521600
0.487040 0.621500 0.521600
0.622040 0.621500 0.521600
0.757040 0.621500 0.521600
0.892040 0.621500 0.521600
1.000000 0.621500 0.521600
0.000000 0.753800 0.521600
0.082040 0.753800 0.521600
0.217040 0.753800 0.521600
0.352040 0.753800 0.521600
0.487040 0.753800 0.521600
0.622040 0.753800 0.521600
0.757040 0.753800 0.521600
0.892040 0.753800 0.521600
1.000000 0.753800 0.521600
0.000000 0.886100 0.521600
0.082040 0.886100 0.521600
0.217040 0.886100 0.521600
0.352040 0.886100 0.521600
0.487040 0.886100 0.521600
0.622040 0.886100 0.521600
0.757040 0.886100 0.521600
0.892040 0.886100 0.521600
1.000000 0.886100 0.521600
0.000000 1.000000 0.521600
0.082040 1.000000 0.521600
0.217040 1.000000 0.521600
0.352040 1.000000 0.521600
0.487040 1.000000 0.521600
0.622040 1.000000 0.521600
0.757040 1.000000 0.521600
0.892040 1.000000 0.521600
1.000000 1.000000 0.521600
0.000000 0.000000 0.656600
0.082040 0.000000 0.656600
0.217040 0.000000 0.656600
0.352040 0.000000 0.656600
0.487040 0.000000 0.656600
0.622040 0.000000 0.656600
0.757040 0.000000 0.656600
0.892040 0.000000 0.656600
1.000000 0.000000 0.656600
0.000000 0.092300 0.656600
0.082040 0.092300 0.656600
0.217040 0.092300 0.656600
0.352040 0.092300 0.656600
0.487040 0.092300 0.656600
0.622040 0.092300 0.656600
0.757040 0.092300 0.656600
0.892040 0.092300 0.656600
1.000000 0.092300 0.656600
0.000000 0.224600 0.656600
0.082040 0.224600 0.656600
0.217040 0.224600 0.656600
0.352040 0.224600 0.656600
0.487040 0.224600 0.656600
0.622040 0.224600 0.656600
0.757040 0.224600 0.656600
0.892040 0.224600 0.656600
1.000000 0.224600 0.656600
0.000000 0.356900 0.656600
0.082040 0.356900 0.656600
0.217040 0.356900 0.656600
0.352040 0.356900 0.656600
0.487040 0.356900 0.656600
0.622040 0.356900 0.656600
0.757040 0.356900 0.656600
0.892040 0.356900 0.656600
1.000000 0.356900 0.656600
0.000000 0.489200 0.656600
0.082040 0.489200 0.656600
0.217040 0.489200 0.656600
0.352040 0.489200 0.656600
0.487040 0.489200 0.656600
0.622040 0.489200 0.656600
0.757040 0.489200 0.656600
0.892040 0.489200 0.656600
1.000000 0.489200 0.656600
0.000000 0.621500 0.656600
0.082040 0.621500 0.656600
0.217040 0.621500 0.656600
0.352040 0.621500 0.656600
0.487040 0.621500 0.656600
0.622040 0.621500 0.656600
0.757040 0.621500 0.656600
0.892040 0.621500 0.656600
1.000000 0.621500 0.656600
0.000000 0.753800 0.656600
0.082040 0.753800 0.656600
0.217040 0.753800 0.656600
0.352040 0.753800 0.656600
0.487040 0.753800 0.656600
0.622040 0.753800 0.656600
0.757040 0.753800 0.656600
0.892040 0.753800 0.656600
1.000000 0.753800 0.656600
0.000000 0.886100 0.656600
0.082040 0.886100 0.656600
0.217040 0.886100 0.656600
0.352040 0.886100 0.656600
0.487040 0.886100 0.656600
0.622040 0.886100 0.656600
0.757040 0.886100 0.656600
0.892040 0.886100 0.656600
1.000000 0.886100 0.656600
0.000000 1.000000 0.656600
0.082040 1.000000 0.656600
0.217040 1.000000 0.656600
0.352040 1.000000 0.656600
0.487040 1.000000 0.656600
0.622040 1.000000 0.656600
0.757040 1.000000 0.656600
0.892040 1.000000 0.656600
1.000000 1.000000 0.656600
0.000000 0.000000 0.791600
0.082040 0.000000 0.791600
0.217040 0.000000 0.791600
0.352040 0.000000 0.791600
0.487040 0.000000 0.791600
0.622040 0.000000 0.791600
0.757040 0.000000 0.791600
0.892040 0.000000 0.791600
1.000000 0.000000 0.791600
0.000000 0.092300 0.791600
0.082040 0.092300 0.791600
0.217040 0.092300 0.791600
0.352040 0.092300 0.791600
0.487040 0.092300 0.791600
0.622040 0.092300 0.791600
0.757040 0.092300 0.791600
0.892040 0.092300 0.791600
1.000000 0.092300 0.791600
0.000000 0.224600 0.791600
0.082040 0.224600 0.791600
0.217040 0.224600 0.791600
0.352040 0.224600 0.791600
0.487040 0.224600 0.791600
0.622040 0.224600 0.791600
0.757040 0.224600 0.791600
0.892040 0.224600 0.791600
1.000000 0.224600 0.791600
0.000000 0.356900 0.791600
0.082040 0.356900 0.791600
0.217040 0.356900 0.791600
0.352040 0.356900 0.791600
0.487040 0.356900 0.791600
0.622040 0.356900 0.791600
0.757040 0.356900 0.791600
0.892040 0.356900 0.791600
1.000000 0.356900 0.791600
0.000000 0.489200 0.791600
0.082040 0.489200 0.791600
0.217040 0.489200 0.791600
0.352040 0.489200 0.791600
0.487040 0.489200 0.791600
0.622040 0.489200 0.791600
0.757040 0.489200 0.791600
0.892040 0.489200 0.791600
1.000000 0.489200 0.791600
0.000000 0.621500 0.791600
0.082040 0.621500 0.791600
0.217040 0.621500 0.791600
0.352040 0.621500 0.791600
0.487040 0.621500 0.791600
0.622040 0.621500 0.791600
0.757040 0.621500 0.791600
0.892040 0.621500 0.791600
1.000000 0.621500 0.791600
0.000000 0.753800 0.791600
0.082040 0.753800 0.791600
0.217040 0.753800 0.791600
0.352040 0.753800 0.791600
0.487040 0.753800 0.791600
0.622040 0.753800 0.791600
0.757040 0.753800 0.791600
0.892040 0.753800 0.791600
1.000000 0.753800 0.791600
0.000000 0.886100 0.791600
0.082040 0.886100 0.791600
0.217040 0.886100 0.791600
0.352040 0.886100 0.791600
0.487040 0.886100 0.791600
0.622040 0.886100 0.791600
0.757040 0.886100 0.791600
0.892040 0.886100 0.791600
1.000000 0.886100 0.791600
0.000000 1.000000 0.791600
0.082040 1.000000 0.791600
0.217040 1.000000 0.791600
0.352040 1.000000 0.791600
0.487040 1.000000 0.791600
0.622040 1.000000 0.791600
0.757040 1.000000 0.791600
0.892040 1.000000 0.791600
1.000000 1.000000 0.791600
0.000000 0.000000 0.926600
0.082040 0.000000 0.926600
0.217040 0.000000 0.926600
0.352040 0.000000 0.926600
0.487040 0.000000 0.926600
0.622040 0.000000 0.926600
0.757040 0.000000 0.926600
0.892040 0.000000 0.926600
1.000000 0.000000 0.926600
0.000000 0.092300 0.926600
0.082040 0.092300 0.926600
0.217040 0.092300 0.926600
0.352040 0.092300 0.926600
0.487040 0.092300 0.926600
0.622040 0.092300 0.926600
0.757040 0.092300 0.926600
0.892040 0.092300 0.926600
1.000000 0.092300 0.926600
0.000000 0.224600 0.926600
0.082040 0.224600 0.926600
0.217040 0.224600 0.926600
0.352040 0.224600 0.926600
0.487040 0.224600 0.926600
0.622040 0.224600 0.926600
0.757040 0.224600 0.926600
0.892040 0.224600 0.926600
1.000000 0.224600 0.926600
0.000000 0.356900 0.926600
0.082040 0.356900 0.926600
0.217040 0.356900 0.926600
0.352040 0.356900 0.926600
0.487040 0.356900 0.926600
0.622040 0.356900 0.926600
0.757040 0.356900 0.926600
0.892040 0.356900 0.926600
1.000000 0.356900 0.926600
0.000000 0.489200 0.926600
0.082040 0.489200 0.926600
0.217040 0.489200 0.926600
0.352040 0.489200 0.926600
0.487040 0.489200 0.926600
0.622040 0.489200 0.926600
0.757040 0.489200 0.926600
0.892040 0.489200 0.926600
1.000000 0.489200 0.926600
0.000000 0.621500 0.926600
0.082040 0.621500 0.926600
0.217040 0.621500 0.926600
0.352040 0.621500 0.926600
0.487040 0.621500 0.926600
0.622040 0.621500 0.926600
0.757040 0.621500 0.926600
0.892040 0.621500 0.926600
1.000000 0.621500 0.926600
0.000000 0.753800 0.926600
0.082040 0.753800 0.926600
0.217040 0.753800 0.926600
0.352040 0.753800 0.926600
0.487040 0.753800 0.926600
0.622040 0.753800 0.926600
0.757040 0.753800 0.926600
0.892040 0.753800 0.926600
1.000000 0.753800 0.926600
0.000000 0.886100 0.926600
0.082040 0.886100 0.926600
0.217040 0.886100 0.926600
0.352040 0.886100 0.926600
0.487040 0.886100 0.926600
0.622040 0.886100 0.926600
0.757040 0.886100 0.926600
0.892040 0.886100 0.926600
1.000000 0.886100 0.926600
0.000000 1.000000 0.926600
0.082040 1.000000 0.926600
0.217040 1.000000 0.926600
0.352040 1.000000 0.926600
0.487040 1.000000 0.926600
0.622040 1.000000 0.926600
0.757040 1.000000 0.926600
0.892040 1.000000 0.926600
1.000000 1.000000 0.926600
0.000000 0.000000 1.000000
0.082040 0.000000 1.000000
0.217040 0.000000 1.000000
0.352040 0.000000 1.000000
0.487040 0.000000 1.000000
0.622040 0.000000 1.000000
0.757040 0.000000 1.000000
0.892040 0.000000 1.000000
1.000000 0.000000 1.000000
0.000000 0.092300 1.000000
0.082040 0.092300 1.000000
0.217040 0.092300 1.000000
0.352040 0.092300 1.000000
0.487040 0.092300 1.000000
0.622040 0.092300 1.000000
0.757040 0.092300 1.000000
0.892040 0.092300 1.000000
1.000000 0.092300 1.000000
0.000000 0.224600 1.000000
0.082040 0.224600 1.000000
0.217040 0.224600 1.000000
0.352040 0.224600 1.000000
0.487040 0.224600 1.000000
0.622040 0.224600 1.000000
0.757040 0.224600 1.000000
0.892040 0.224600 1.000000
1.000000 0.224600 1.000000
0.000000 0.356900 1.000000
0.082040 0.356900 1.000000
0.217040 0.356900 1.000000
0.352040 0.356900 1.000000
0.487040 0.356900 1.000000
0.622040 0.356900 1.000000
0.757040 0.356900 1.000000
0.892040 0.356900 1.000000
1.000000 0.356900 1.000000
0.000000 0.489200 1.000000
0.082040 0.489200 1.000000
0.217040 0.489200 1.000000
0.352040 0.489200 1.000000
0.487040 0.489200 1.000000
0.622040 0.489200 1.000000
0.757040 0.489200 1.000000
0.892040 0.489200 1.000000
1.000000 0.489200 1.000000
0.000000 0.621500 1.000000
0.082040 0.621500 1.000000
0.217040 0.621500 1.000000
0.352040 0.621500 1.000000
0.487040 0.621500 1.000000
0.622040 0.621500 1.000000
0.757040 0.621500 1.000000
0.892040 0.621500 1.000000
1.000000 0.621500 1.000000
0.000000 0.753800 1.000000
0.082040 0.753800 1.000000
0.217040 0.753800 1.000000
0.352040 0.753800 1.000000
0.487040 0.753800 1.000000
0.622040 0.753800 1.000000
0.757040 0.753800 1.000000
0.892040 0.753800 1.000000
1.000000 0.753800 1.000000
0.000000 0.886100 1.000000
0.082040 0.886100 1.000000
0.217040 0.886100 1.000000
0.352040 0.886100 1.000000
0.487040 0.886100 1.000000
0.622040 0.886100 1.000000
0.757040 0.886100 1.000000
0.892040 0.886100 1.000000
1.000000 0.886100 1.000000
0.000000 1.000000 1.000000
0.082040 1.000000 1.000000
0.217040 1.000000 1.000000
0.352040 1.000000 1.000000
0.487040 1.000000 1.000000
0.622040 1.000000 1.000000
0.757040 1.000000 1.000000
0.892040 1.000000 1.000000
1.000000 1.000000 1.000000
