hermes-skills/ugc-video-pipeline/luts/cool_blue.cube
TITLE "Cool Blue Tech"
LUT_3D_SIZE 17
0.000000 0.000000 0.000000
0.014540 0.000000 0.000000
0.082040 0.000000 0.000000
0.149540 0.000000 0.000000
0.217040 0.000000 0.000000
0.284540 0.000000 0.000000
0.352040 0.000000 0.000000
0.419540 0.000000 0.000000
0.487040 0.000000 0.000000
0.554540 0.000000 0.000000
0.622040 0.000000 0.000000
0.689540 0.000000 0.000000
0.757040 0.000000 0.000000
0.824540 0.000000 0.000000
0.892040 0.000000 0.000000
0.959540 0.000000 0.000000
1.000000 0.000000 0.000000
0.000000 0.026150 0.000000
0.014540 0.026150 0.000000
0.082040 0.026150 0.000000
0.149540 0.026150 0.000000
0.217040 0.026150 0.000000
0.284540 0.026150 0.000000
0.352040 0.026150 0.000000
0.419540 0.026150 0.000000
0.487040 0.026150 0.000000
0.554540 0.026150 0.000000
0.622040 0.026150 0.000000
0.689540 0.026150 0.000000
0.757040 0.026150 0.000000
0.824540 0.026150 0.000000
0.892040 0.026150 0.000000
0.959540 0.026150 0.000000
1.000000 0.026150 0.000000
0.000000 0.092300 0.000000
0.014540 0.092300 0.000000
0.082040 0.092300 0.000000
0.149540 0.092300 0.000000
0.217040 0.092300 0.000000
0.284540 0.092300 0.000000
0.352040 0.092300 0.000000
0.419540 0.092300 0.000000
0.487040 0.092300 0.000000
0.554540 0.092300 0.000000
0.622040 0.092300 0.000000
0.689540 0.092300 0.000000
0.757040 0.092300 0.000000
0.824540 0.092300 0.000000
0.892040 0.092300 0.000000
0.959540 0.092300 0.000000
1.000000 0.092300 0.000000
0.000000 0.158450 0.000000
0.014540 0.158450 0.000000
0.082040 0.158450 0.000000
0.149540 0.158450 0.000000
0.217040 0.158450 0.000000
0.284540 0.158450 0.000000
0.352040 0.158450 0.000000
0.419540 0.158450 0.000000
0.487040 0.158450 0.000000
0.554540 0.158450 0.000000
0.622040 0.158450 0.000000
0.689540 0.158450 0.000000
0.757040 0.158450 0.000000
0.824540 0.158450 0.000000
0.892040 0.158450 0.000000
0.959540 0.158450 0.000000
1.000000 0.158450 0.000000
0.000000 0.224600 0.000000
0.014540 0.224600 0.000000
0.082040 0.224600 0.000000
0.149540 0.224600 0.000000
0.217040 0.224600 0.000000
0.284540 0.224600 0.000000
0.352040 0.224600 0.000000
0.419540 0.224600 0.000000
0.487040 0.224600 0.000000
0.554540 0.224600 0.000000
0.622040 0.224600 0.000000
0.689540 0.224600 0.000000
0.757040 0.224600 0.000000
0.824540 0.224600 0.000000
0.892040 0.224600 0.000000
0.959540 0.224600 0.000000
1.000000 0.224600 0.000000
0.000000 0.290750 0.000000
0.014540 0.290750 0.000000
0.082040 0.290750 0.000000
0.149540 0.290750 0.000000
0.217040 0.290750 0.000000
0.284540 0.290750 0.000000
0.352040 0.290750 0.000000
0.419540 0.290750 0.000000
0.487040 0.290750 0.000000
0.554540 0.290750 0.000000
0.622040 0.290750 0.000000
0.689540 0.290750 0.000000
0.757040 0.290750 0.000000
0.824540 0.290750 0.000000
0.892040 0.290750 0.000000
0.959540 0.290750 0.000000
1.000000 0.290750 0.000000
0.000000 0.356900 0.000000
0.014540 0.356900 0.000000
0.082040 0.356900 0.000000
0.149540 0.356900 0.000000
0.217040 0.356900 0.000000
0.284540 0.356900 0.000000
0.352040 0.356900 0.000000
0.419540 0.356900 0.000000
0.487040 0.356900 0.000000
0.554540 0.356900 0.000000
0.622040 0.356900 0.000000
0.689540 0.356900 0.000000
0.757040 0.356900 0.000000
0.824540 0.356900 0.000000
0.892040 0.356900 0.000000
0.959540 0.356900 0.000000
1.000000 0.356900 0.000000
0.000000 0.423050 0.000000
0.014540 0.423050 0.000000
0.082040 0.423050 0.000000
0.149540 0.423050 0.000000
0.217040 0.423050 0.000000
0.284540 0.423050 0.000000
0.352040 0.423050 0.000000
0.419540 0.423050 0.000000
0.487040 0.423050 0.000000
0.554540 0.423050 0.000000
0.622040 0.423050 0.000000
0.689540 0.423050 0.000000
0.757040 0.423050 0.000000
0.824540 0.423050 0.000000
0.892040 0.423050 0.000000
0.959540 0.423050 0.000000
1.000000 0.423050 0.000000
0.000000 0.489200 0.000000
0.014540 0.489200 0.000000
0.082040 0.489200 0.000000
0.149540 0.489200 0.000000
0.217040 0.489200 0.000000
0.284540 0.489200 0.000000
0.352040 0.489200 0.000000
0.419540 0.489200 0.000000
0.487040 0.489200 0.000000
0.554540 0.489200 0.000000
0.622040 0.489200 0.000000
0.689540 0.489200 0.000000
0.757040 0.489200 0.000000
0.824540 0.489200 0.000000
0.892040 0.489200 0.000000
0.959540 0.489200 0.000000
1.000000 0.489200 0.000000
0.000000 0.555350 0.000000
0.014540 0.555350 0.000000
0.082040 0.555350 0.000000
0.149540 0.555350 0.000000
0.217040 0.555350 0.000000
0.284540 0.555350 0.000000
0.352040 0.555350 0.000000
0.419540 0.555350 0.000000
0.487040 0.555350 0.000000
0.554540 0.555350 0.000000
0.622040 0.555350 0.000000
0.689540 0.555350 0.000000
0.757040 0.555350 0.000000
0.824540 0.555350 0.000000
0.892040 0.555350 0.000000
0.959540 0.555350 0.000000
1.000000 0.555350 0.000000
0.000000 0.621500 0.000000
0.014540 0.621500 0.000000
0.082040 0.621500 0.000000
0.149540 0.621500 0.000000
0.217040 0.621500 0.000000
0.284540 0.621500 0.000000
0.352040 0.621500 0.000000
0.419540 0.621500 0.000000
0.487040 0.621500 0.000000
0.554540 0.621500 0.000000
0.622040 0.621500 0.000000
0.689540 0.621500 0.000000
0.757040 0.621500 0.000000
0.824540 0.621500 0.000000
0.892040 0.621500 0.000000
0.959540 0.621500 0.000000
1.000000 0.621500 0.000000
0.000000 0.687650 0.000000
0.014540 0.687650 0.000000
0.082040 0.687650 0.000000
0.149540 0.687650 0.000000
0.217040 0.687650 0.000000
0.284540 0.687650 0.000000
0.352040 0.687650 0.000000
0.419540 0.687650 0.000000
0.487040 0.687650 0.000000
0.554540 0.687650 0.000000
0.622040 0.687650 0.000000
0.689540 0.687650 0.000000
0.757040 0.687650 0.000000
0.824540 0.687650 0.000000
0.892040 0.687650 0.000000
0.959540 0.687650 0.000000
1.000000 0.687650 0.000000
0.000000 0.753800 0.000000
0.014540 0.753800 0.000000
0.082040 0.753800 0.000000
0.149540 0.753800 0.000000
0.217040 0.753800 0.000000
0.284540 0.753800 0.000000
0.352040 0.753800 0.000000
0.419540 0.753800 0.000000
0.487040 0.753800 0.000000
0.554540 0.753800 0.000000
0.622040 0.753800 0.000000
0.689540 0.753800 0.000000
0.757040 0.753800 0.000000
0.824540 0.753800 0.000000
0.892040 0.753800 0.000000
0.959540 0.753800 0.000000
1.000000 0.753800 0.000000
0.000000 0.819950 0.000000
0.014540 0.819950 0.000000
0.082040 0.819950 0.000000
0.149540 0.819950 0.000000
0.217040 0.819950 0.000000
0.284540 0.819950 0.000000
0.352040 0.819950 0.000000
0.419540 0.819950 0.000000
0.487040 0.819950 0.000000
0.554540 0.819950 0.000000
0.622040 0.819950 0.000000
0.689540 0.819950 0.000000
0.757040 0.819950 0.000000
0.824540 0.819950 0.000000
0.892040 0.819950 0.000000
0.959540 0.819950 0.000000
1.000000 0.819950 0.000000
0.000000 0.886100 0.000000
0.014540 0.886100 0.000000
0.082040 0.886100 0.000000
0.149540 0.886100 0.000000
0.217040 0.886100 0.000000
0.284540 0.886100 0.000000
0.352040 0.886100 0.000000
0.419540 0.886100 0.000000
0.487040 0.886100 0.000000
0.554540 0.886100 0.000000
0.622040 0.886100 0.000000
0.689540 0.886100 0.000000
0.757040 0.886100 0.000000
0.824540 0.886100 0.000000
0.892040 0.886100 0.000000
0.959540 0.886100 0.000000
1.000000 0.886100 0.000000
0.000000 0.952250 0.000000
0.014540 0.952250 0.000000
0.082040 0.952250 0.000000
0.149540 0.952250 0.000000
0.217040 0.952250 0.000000
0.284540 0.952250 0.000000
0.352040 0.952250 0.000000
0.419540 0.952250 0.000000
0.487040 0.952250 0.000000
0.554540 0.952250 0.000000
0.622040 0.952250 0.000000
0.689540 0.952250 0.000000
0.757040 0.952250 0.000000
0.824540 0.952250 0.000000
0.892040 0.952250 0.000000
0.959540 0.952250 0.000000
1.000000 0.952250 0.000000
0.000000 1.000000 0.000000
0.014540 1.000000 0.000000
0.082040 1.000000 0.000000
0.149540 1.000000 0.000000
0.217040 1.000000 0.000000
0.284540 1.000000 0.000000
0.352040 1.000000 0.000000
0.419540 1.000000 0.000000
0.487040 1.000000 0.000000
0.554540 1.000000 0.000000
0.622040 1.000000 0.000000
0.689540 1.000000 0.000000
0.757040 1.000000 0.000000
0.824540 1.000000 0.000000
0.892040 1.000000 0.000000
0.959540 1.000000 0.000000
1.000000 1.000000 0.000000
0.000000 0.000000 0.049100
0.014540 0.000000 0.049100
0.082040 0.000000 0.049100
0.149540 0.000000 0.049100
0.217040 0.000000 0.049100
0.284540 0.000000 0.049100
0.352040 0.000000 0.049100
0.419540 0.000000 0.049100
0.487040 0.000000 0.049100
0.554540 0.000000 0.049100
0.622040 0.000000 0.049100
0.689540 0.000000 0.049100
0.757040 0.000000 0.049100
0.824540 0.000000 0.049100
0.892040 0.000000 0.049100
0.959540 0.000000 0.049100
1.000000 0.000000 0.049100
0.000000 0.026150 0.049100
0.014540 0.026150 0.049100
0.082040 0.026150 0.049100
0.149540 0.026150 0.049100
0.217040 0.026150 0.049100
0.284540 0.026150 0.049100
0.352040 0.026150 0.049100
0.419540 0.026150 0.049100
0.487040 0.026150 0.049100
0.554540 0.026150 0.049100
0.622040 0.026150 0.049100
0.689540 0.026150 0.049100
0.757040 0.026150 0.049100
0.824540 0.026150 0.049100
0.892040 0.026150 0.049100
0.959540 0.026150 0.049100
1.000000 0.026150 0.049100
0.000000 0.092300 0.049100
0.014540 0.092300 0.049100
0.082040 0.092300 0.049100
0.149540 0.092300 0.049100
0.217040 0.092300 0.049100
0.284540 0.092300 0.049100
0.352040 0.092300 0.049100
0.419540 0.092300 0.049100
0.487040 0.092300 0.049100
0.554540 0.092300 0.049100
0.622040 0.092300 0.049100
0.689540 0.092300 0.049100
0.757040 0.092300 0.049100
0.824540 0.092300 0.049100
0.892040 0.092300 0.049100
0.959540 0.092300 0.049100
1.000000 0.092300 0.049100
0.000000 0.158450 0.049100
0.014540 0.158450 0.049100
0.082040 0.158450 0.049100
0.149540 0.158450 0.049100
0.217040 0.158450 0.049100
0.284540 0.158450 0.049100
0.352040 0.158450 0.049100
0.419540 0.158450 0.049100
0.487040 0.158450 0.049100
0.554540 0.158450 0.049100
0.622040 0.158450 0.049100
0.689540 0.158450 0.049100
0.757040 0.158450 0.049100
0.824540 0.158450 0.049100
0.892040 0.158450 0.049100
0.959540 0.158450 0.049100
1.000000 0.158450 0.049100
0.000000 0.224600 0.049100
0.014540 0.224600 0.049100
0.082040 0.224600 0.049100
0.149540 0.224600 0.049100
0.217040 0.224600 0.049100
0.284540 0.224600 0.049100
0.352040 0.224600 0.049100
0.419540 0.224600 0.049100
0.487040 0.224600 0.049100
0.554540 0.224600 0.049100
0.622040 0.224600 0.049100
0.689540 0.224600 0.049100
0.757040 0.224600 0.049100
0.824540 0.224600 0.049100
0.892040 0.224600 0.049100
0.959540 0.224600 0.049100
1.000000 0.224600 0.049100
0.000000 0.290750 0.049100
0.014540 0.290750 0.049100
0.082040 0.290750 0.049100
0.149540 0.290750 0.049100
0.217040 0.290750 0.049100
0.284540 0.290750 0.049100
0.352040 0.290750 0.049100
0.419540 0.290750 0.049100
0.487040 0.290750 0.049100
0.554540 0.290750 0.049100
0.622040 0.290750 0.049100
0.689540 0.290750 0.049100
0.757040 0.290750 0.049100
0.824540 0.290750 0.049100
0.892040 0.290750 0.049100
0.959540 0.290750 0.049100
1.000000 0.290750 0.049100
0.000000 0.356900 0.049100
0.014540 0.356900 0.049100
0.082040 0.356900 0.049100
0.149540 0.356900 0.049100
0.217040 0.356900 0.049100
0.284540 0.356900 0.049100
0.352040 0.356900 0.049100
0.419540 0.356900 0.049100
0.487040 0.356900 0.049100
0.554540 0.356900 0.049100
0.622040 0.356900 0.049100
0.689540 0.356900 0.049100
0.757040 0.356900 0.049100
0.824540 0.356900 0.049100
0.892040 0.356900 0.049100
0.959540 0.356900 0.049100
1.000000 0.356900 0.049100
0.000000 0.423050 0.049100
0.014540 0.423050 0.049100
0.082040 0.423050 0.049100
0.149540 0.423050 0.049100
0.217040 0.423050 0.049100
0.284540 0.423050 0.049100
0.352040 0.423050 0.049100
0.419540 0.423050 0.049100
0.487040 0.423050 0.049100
0.554540 0.423050 0.049100
0.622040 0.423050 0.049100
0.689540 0.423050 0.049100
0.757040 0.423050 0.049100
0.824540 0.423050 0.049100
0.892040 0.423050 0.049100
0.959540 0.423050 0.049100
1.000000 0.423050 0.049100
0.000000 0.489200 0.049100
0.014540 0.489200 0.049100
0.082040 0.489200 0.049100
0.149540 0.489200 0.049100
0.217040 0.489200 0.049100
0.284540 0.489200 0.049100
0.352040 0.489200 0.049100
0.419540 0.489200 0.049100
0.487040 0.489200 0.049100
0.554540 0.489200 0.049100
0.622040 0.489200 0.049100
0.689540 0.489200 0.049100
0.757040 0.489200 0.049100
0.824540 0.489200 0.049100
0.892040 0.489200 0.049100
0.959540 0.489200 0.049100
1.000000 0.489200 0.049100
0.000000 0.555350 0.049100
0.014540 0.555350 0.049100
0.082040 0.555350 0.049100
0.149540 0.555350 0.049100
0.217040 0.555350 0.049100
0.284540 0.555350 0.049100
0.352040 0.555350 0.049100
0.419540 0.555350 0.049100
0.487040 0.555350 0.049100
0.554540 0.555350 0.049100
0.622040 0.555350 0.049100
0.689540 0.555350 0.049100
0.757040 0.555350 0.049100
0.824540 0.555350 0.049100
0.892040 0.555350 0.049100
0.959540 0.555350 0.049100
1.000000 0.555350 0.049100
0.000000 0.621500 0.049100
0.014540 0.621500 0.049100
0.082040 0.621500 0.049100
0.149540 0.621500 0.049100
0.217040 0.621500 0.049100
0.284540 0.621500 0.049100
0.352040 0.621500 0.049100
0.419540 0.621500 0.049100
0.487040 0.621500 0.049100
0.554540 0.621500 0.049100
0.622040 0.621500 0.049100
0.689540 0.621500 0.049100
0.757040 0.621500 0.049100
0.824540 0.621500 0.049100
0.892040 0.621500 0.049100
0.959540 0.621500 0.049100
1.000000 0.621500 0.049100
0.000000 0.687650 0.049100
0.014540 0.687650 0.049100
0.082040 0.687650 0.049100
0.149540 0.687650 0.049100
0.217040 0.687650 0.049100
0.284540 0.687650 0.049100
0.352040 0.687650 0.049100
0.419540 0.687650 0.049100
0.487040 0.687650 0.049100
0.554540 0.687650 0.049100
0.622040 0.687650 0.049100
0.689540 0.687650 0.049100
0.757040 0.687650 0.049100
0.824540 0.687650 0.049100
0.892040 0.687650 0.049100
0.959540 0.687650 0.049100
1.000000 0.687650 0.049100
0.000000 0.753800 0.049100
0.014540 0.753800 0.049100
0.082040 0.753800 0.049100
0.149540 0.753800 0.049100
0.217040 0.753800 0.049100
0.284540 0.753800 0.049100
0.352040 0.753800 0.049100
0.419540 0.753800 0.049100
0.487040 0.753800 0.049100
0.554540 0.753800 0.049100
0.622040 0.753800 0.049100
0.689540 0.753800 0.049100
0.757040 0.753800 0.049100
0.824540 0.753800 0.049100
0.892040 0.753800 0.049100
0.959540 0.753800 0.049100
1.000000 0.753800 0.049100
0.000000 0.819950 0.049100
0.014540 0.819950 0.049100
0.082040 0.819950 0.049100
0.149540 0.819950 0.049100
0.217040 0.819950 0.049100
0.284540 0.819950 0.049100
0.352040 0.819950 0.049100
0.419540 0.819950 0.049100
0.487040 0.819950 0.049100
0.554540 0.819950 0.049100
0.622040 0.819950 0.049100
0.689540 0.819950 0.049100
0.757040 0.819950 0.049100
0.824540 0.819950 0.049100
0.892040 0.819950 0.049100
0.959540 0.819950 0.049100
1.000000 0.819950 0.049100
0.000000 0.886100 0.049100
0.014540 0.886100 0.049100
0.082040 0.886100 0.049100
0.149540 0.886100 0.049100
0.217040 0.886100 0.049100
0.284540 0.886100 0.049100
0.352040 0.886100 0.049100
0.419540 0.886100 0.049100
0.487040 0.886100 0.049100
0.554540 0.886100 0.049100
0.622040 0.886100 0.049100
0.689540 0.886100 0.049100
0.757040 0.886100 0.049100
0.824540 0.886100 0.049100
0.892040 0.886100 0.049100
0.959540 0.886100 0.049100
1.000000 0.886100 0.049100
0.000000 0.952250 0.049100
0.014540 0.952250 0.049100
0.082040 0.952250 0.049100
0.149540 0.952250 0.049100
0.217040 0.952250 0.049100
0.284540 0.952250 0.049100
0.352040 0.952250 0.049100
0.419540 0.952250 0.049100
0.487040 0.952250 0.049100
0.554540 0.952250 0.049100
0.622040 0.952250 0.049100
0.689540 0.952250 0.049100
0.757040 0.952250 0.049100
0.824540 0.952250 0.049100
0.892040 0.952250 0.049100
0.959540 0.952250 0.049100
1.000000 0.952250 0.049100
0.000000 1.000000 0.049100
0.014540 1.000000 0.049100
0.082040 1.000000 0.049100
0.149540 1.000000 0.049100
0.217040 1.000000 0.049100
0.284540 1.000000 0.049100
0.352040 1.000000 0.049100
0.419540 1.000000 0.049100
0.487040 1.000000 0.049100
0.554540 1.000000 0.049100
0.622040 1.000000 0.049100
0.689540 1.000000 0.049100
0.757040 1.000000 0.049100
0.824540 1.000000 0.049100
0.892040 1.000000 0.049100
0.959540 1.000000 0.049100
1.000000 1.000000 0.049100
0.000000 0.000000 0.116600
0.014540 0.000000 0.116600
0.082040 0.000000 0.116600
0.149540 0.000000 0.116600
0.217040 0.000000 0.116600
0.284540 0.000000 0.116600
0.352040 0.000000 0.116600
0.419540 0.000000 0.116600
0.487040 0.000000 0.116600
0.554540 0.000000 0.116600
0.622040 0.000000 0.116600
0.689540 0.000000 0.116600
0.757040 0.000000 0.116600
0.824540 0.000000 0.116600
0.892040 0.000000 0.116600
0.959540 0.000000 0.116600
1.000000 0.000000 0.116600
0.000000 0.026150 0.116600
0.014540 0.026150 0.116600
0.082040 0.026150 0.116600
0.149540 0.026150 0.116600
0.217040 0.026150 0.116600
0.284540 0.026150 0.116600
0.352040 0.026150 0.116600
0.419540 0.026150 0.116600
0.487040 0.026150 0.116600
0.554540 0.026150 0.116600
0.622040 0.026150 0.116600
0.689540 0.026150 0.116600
0.757040 0.026150 0.116600
0.824540 0.026150 0.116600
0.892040 0.026150 0.116600
0.959540 0.026150 0.116600
1.000000 0.026150 0.116600
0.000000 0.092300 0.116600
0.014540 0.092300 0.116600
0.082040 0.092300 0.116600
0.149540 0.092300 0.116600
0.217040 0.092300 0.116600
0.284540 0.092300 0.116600
0.352040 0.092300 0.116600
0.419540 0.092300 0.116600
0.487040 0.092300 0.116600
0.554540 0.092300 0.116600
0.622040 0.092300 0.116600
0.689540 0.092300 0.116600
0.757040 0.092300 0.116600
0.824540 0.092300 0.116600
0.892040 0.092300 0.116600
0.959540 0.092300 0.116600
1.000000 0.092300 0.116600
0.000000 0.158450 0.116600
0.014540 0.158450 0.116600
0.082040 0.158450 0.116600
0.149540 0.158450 0.116600
0.217040 0.158450 0.116600
0.284540 0.158450 0.116600
0.352040 0.158450 0.116600
0.419540 0.158450 0.116600
0.487040 0.158450 0.116600
0.554540 0.158450 0.116600
0.622040 0.158450 0.116600
0.689540 0.158450 0.116600
0.757040 0.158450 0.116600
0.824540 0.158450 0.116600
0.892040 0.158450 0.116600
0.959540 0.158450 0.116600
1.000000 0.158450 0.116600
0.000000 0.224600 0.116600
0.014540 0.224600 0.116600
0.082040 0.224600 0.116600
0.149540 0.224600 0.116600
0.217040 0.224600 0.116600
0.284540 0.224600 0.116600
0.352040 0.224600 0.116600
0.419540 0.224600 0.116600
0.487040 0.224600 0.116600
0.554540 0.224600 0.116600
0.622040 0.224600 0.116600
0.689540 0.224600 0.116600
0.757040 0.224600 0.116600
0.824540 0.224600 0.116600
0.892040 0.224600 0.116600
0.959540 0.224600 0.116600
1.000000 0.224600 0.116600
0.000000 0.290750 0.116600
0.014540 0.290750 0.116600
0.082040 0.290750 0.116600
0.149540 0.290750 0.116600
0.217040 0.290750 0.116600
0.284540 0.290750 0.116600
0.352040 0.290750 0.116600
0.419540 0.290750 0.116600
0.487040 0.290750 0.116600
0.554540 0.290750 0.116600
0.622040 0.290750 0.116600
0.689540 0.290750 0.116600
0.757040 0.290750 0.116600
0.824540 0.290750 0.116600
0.892040 0.290750 0.116600
0.959540 0.290750 0.116600
1.000000 0.290750 0.116600
0.000000 0.356900 0.116600
0.014540 0.356900 0.116600
0.082040 0.356900 0.116600
0.149540 0.356900 0.116600
0.217040 0.356900 0.116600
0.284540 0.356900 0.116600
0.352040 0.356900 0.116600
0.419540 0.356900 0.116600
0.487040 0.356900 0.116600
0.554540 0.356900 0.116600
0.622040 0.356900 0.116600
0.689540 0.356900 0.116600
0.757040 0.356900 0.116600
0.824540 0.356900 0.116600
0.892040 0.356900 0.116600
0.959540 0.356900 0.116600
1.000000 0.356900 0.116600
0.000000 0.423050 0.116600
0.014540 0.423050 0.116600
0.082040 0.423050 0.116600
0.149540 0.423050 0.116600
0.217040 0.423050 0.116600
0.284540 0.423050 0.116600
0.352040 0.423050 0.116600
0.419540 0.423050 0.116600
0.487040 0.423050 0.116600
0.554540 0.423050 0.116600
0.622040 0.423050 0.116600
0.689540 0.423050 0.116600
0.757040 0.423050 0.116600
0.824540 0.423050 0.116600
0.892040 0.423050 0.116600
0.959540 0.423050 0.116600
1.000000 0.423050 0.116600
0.000000 0.489200 0.116600
0.014540 0.489200 0.116600
0.082040 0.489200 0.116600
0.149540 0.489200 0.116600
0.217040 0.489200 0.116600
0.284540 0.489200 0.116600
0.352040 0.489200 0.116600
0.419540 0.489200 0.116600
0.487040 0.489200 0.116600
0.554540 0.489200 0.116600
0.622040 0.489200 0.116600
0.689540 0.489200 0.116600
0.757040 0.489200 0.116600
0.824540 0.489200 0.116600
0.892040 0.489200 0.116600
0.959540 0.489200 0.116600
1.000000 0.489200 0.116600
0.000000 0.555350 0.116600
0.014540 0.555350 0.116600
0.082040 0.555350 0.116600
0.149540 0.555350 0.116600
0.217040 0.555350 0.116600
0.284540 0.555350 0.116600
0.352040 0.555350 0.116600
0.419540 0.555350 0.116600
0.487040 0.555350 0.116600
0.554540 0.555350 0.116600
0.622040 0.555350 0.116600
0.689540 0.555350 0.116600
0.757040 0.555350 0.116600
0.824540 0.555350 0.116600
0.892040 0.555350 0.116600
0.959540 0.555350 0.116600
1.000000 0.555350 0.116600
0.000000 0.621500 0.116600
0.014540 0.621500 0.116600
0.082040 0.621500 0.116600
0.149540 0.621500 0.116600
0.217040 0.621500 0.116600
0.284540 0.621500 0.116600
0.352040 0.621500 0.116600
0.419540 0.621500 0.116600
0.487040 0.621500 0.116600
0.554540 0.621500 0.116600
0.622040 0.621500 0.116600
0.689540 0.621500 0.116600
0.757040 0.621500 0.116600
0.824540 0.621500 0.116600
0.892040 0.621500 0.116600
0.959540 0.621500 0.116600
1.000000 0.621500 0.116600
0.000000 0.687650 0.116600
0.014540 0.687650 0.116600
0.082040 0.687650 0.116600
0.149540 0.687650 0.116600
0.217040 0.687650 0.116600
0.284540 0.687650 0.116600
0.352040 0.687650 0.116600
0.419540 0.687650 0.116600
0.487040 0.687650 0.116600
0.554540 0.687650 0.116600
0.622040 0.687650 0.116600
0.689540 0.687650 0.116600
0.757040 0.687650 0.116600
0.824540 0.687650 0.116600
0.892040 0.687650 0.116600
0.959540 0.687650 0.116600
1.000000 0.687650 0.116600
0.000000 0.753800 0.116600
0.014540 0.753800 0.116600
0.082040 0.753800 0.116600
0.149540 0.753800 0.116600
0.217040 0.753800 0.116600
0.284540 0.753800 0.116600
0.352040 0.753800 0.116600
0.419540 0.753800 0.116600
0.487040 0.753800 0.116600
0.554540 0.753800 0.116600
0.622040 0.753800 0.116600
0.689540 0.753800 0.116600
0.757040 0.753800 0.116600
0.824540 0.753800 0.116600
0.892040 0.753800 0.116600
0.959540 0.753800 0.116600
1.000000 0.753800 0.116600
0.000000 0.819950 0.116600
0.014540 0.819950 0.116600
0.082040 0.819950 0.116600
0.149540 0.819950 0.116600
0.217040 0.819950 0.116600
0.284540 0.819950 0.116600
0.352040 0.819950 0.116600
0.419540 0.819950 0.116600
0.487040 0.819950 0.116600
0.554540 0.819950 0.116600
0.622040 0.819950 0.116600
0.689540 0.819950 0.116600
0.757040 0.819950 0.116600
0.824540 0.819950 0.116600
0.892040 0.819950 0.116600
0.959540 0.819950 0.116600
1.000000 0.819950 0.116600
0.000000 0.886100 0.116600
0.014540 0.886100 0.116600
0.082040 0.886100 0.116600
0.149540 0.886100 0.116600
0.217040 0.886100 0.116600
0.284540 0.886100 0.116600
0.352040 0.886100 0.116600
0.419540 0.886100 0.116600
0.487040 0.886100 0.116600
0.554540 0.886100 0.116600
0.622040 0.886100 0.116600
0.689540 0.886100 0.116600
0.757040 0.886100 0.116600
0.824540 0.886100 0.116600
0.892040 0.886100 0.116600
0.959540 0.886100 0.116600
1.000000 0.886100 0.116600
0.000000 0.952250 0.116600
0.014540 0.952250 0.116600
0.082040 0.952250 0.116600
0.149540 0.952250 0.116600
0.217040 0.952250 0.116600
0.284540 0.952250 0.116600
0.352040 0.952250 0.116600
0.419540 0.952250 0.116600
0.487040 0.952250 0.116600
0.554540 0.952250 0.116600
0.622040 0.952250 0.116600
0.689540 0.952250 0.116600
0.757040 0.952250 0.116600
0.824540 0.952250 0.116600
0.892040 0.952250 0.116600
0.959540 0.952250 0.116600
1.000000 0.952250 0.116600
0.000000 1.000000 0.116600
0.014540 1.000000 0.116600
0.082040 1.000000 0.116600
0.149540 1.000000 0.116600
0.217040 1.000000 0.116600
0.284540 1.000000 0.116600
0.352040 1.000000 0.116600
0.419540 1.000000 0.116600
0.487040 1.000000 0.116600
0.554540 1.000000 0.116600
0.622040 1.000000 0.116600
0.689540 1.000000 0.116600
0.757040 1.000000 0.116600
0.824540 1.000000 0.116600
0.892040 1.000000 0.116600
0.959540 1.000000 0.116600
1.000000 1.000000 0.116600
0.000000 0.000000 0.184100
0.014540 0.000000 0.184100
0.082040 0.000000 0.184100
0.149540 0.000000 0.184100
0.217040 0.000000 0.184100
0.284540 0.000000 0.184100
0.352040 0.000000 0.184100
0.419540 0.000000 0.184100
0.487040 0.000000 0.184100
0.554540 0.000000 0.184100
0.622040 0.000000 0.184100
0.689540 0.000000 0.184100
0.757040 0.000000 0.184100
0.824540 0.000000 0.184100
0.892040 0.000000 0.184100
0.959540 0.000000 0.184100
1.000000 0.000000 0.184100
0.000000 0.026150 0.184100
0.014540 0.026150 0.184100
0.082040 0.026150 0.184100
