hermes-skills/ugc-video-pipeline/luts/vintage.cube
TITLE "Vintage Fade"
LUT_3D_SIZE 17
0.083160 0.075800 0.065550
0.137498 0.078675 0.068281
0.191835 0.081550 0.071013
0.246172 0.084425 0.073744
0.300510 0.087300 0.076475
0.354848 0.090175 0.079206
0.409185 0.093050 0.081937
0.463523 0.095925 0.084669
0.517860 0.098800 0.087400
0.572198 0.101675 0.090131
0.626535 0.104550 0.092863
0.680872 0.107425 0.095594
0.735210 0.110300 0.098325
0.789548 0.113175 0.101056
0.843885 0.116050 0.103788
0.898223 0.118925 0.106519
0.952560 0.121800 0.109250
0.086179 0.127550 0.068281
0.140516 0.130425 0.071013
0.194854 0.133300 0.073744
0.249191 0.136175 0.076475
0.303529 0.139050 0.079206
0.357866 0.141925 0.081938
0.412204 0.144800 0.084669
0.466541 0.147675 0.087400
0.520879 0.150550 0.090131
0.575216 0.153425 0.092863
0.629554 0.156300 0.095594
0.683891 0.159175 0.098325
0.738229 0.162050 0.101056
0.792566 0.164925 0.103788
0.846904 0.167800 0.106519
0.901241 0.170675 0.109250
0.955579 0.173550 0.111981
0.089197 0.179300 0.071013
0.143535 0.182175 0.073744
0.197873 0.185050 0.076475
0.252210 0.187925 0.079206
0.306547 0.190800 0.081937
0.360885 0.193675 0.084669
0.415223 0.196550 0.087400
0.469560 0.199425 0.090131
0.523898 0.202300 0.092863
0.578235 0.205175 0.095594
0.632573 0.208050 0.098325
0.686910 0.210925 0.101056
0.741248 0.213800 0.103788
0.795585 0.216675 0.106519
0.849923 0.219550 0.109250
0.904260 0.222425 0.111981
0.958598 0.225300 0.114713
0.092216 0.231050 0.073744
0.146554 0.233925 0.076475
0.200891 0.236800 0.079206
0.255229 0.239675 0.081937
0.309566 0.242550 0.084669
0.363904 0.245425 0.087400
0.418241 0.248300 0.090131
0.472579 0.251175 0.092863
0.526916 0.254050 0.095594
0.581254 0.256925 0.098325
0.635591 0.259800 0.101056
0.689929 0.262675 0.103788
0.744266 0.265550 0.106519
0.798604 0.268425 0.109250
0.852941 0.271300 0.111981
0.907279 0.274175 0.114713
0.961616 0.277050 0.117444
0.095235 0.282800 0.076475
0.149573 0.285675 0.079206
0.203910 0.288550 0.081937
0.258248 0.291425 0.084669
0.312585 0.294300 0.087400
0.366923 0.297175 0.090131
0.421260 0.300050 0.092863
0.475598 0.302925 0.095594
0.529935 0.305800 0.098325
0.584272 0.308675 0.101056
0.638610 0.311550 0.103788
0.692948 0.314425 0.106519
0.747285 0.317300 0.109250
0.801623 0.320175 0.111981
0.855960 0.323050 0.114713
0.910298 0.325925 0.117444
0.964635 0.328800 0.120175
0.098254 0.334550 0.079206
0.152591 0.337425 0.081938
0.206929 0.340300 0.084669
0.261266 0.343175 0.087400
0.315604 0.346050 0.090131
0.369941 0.348925 0.092863
0.424279 0.351800 0.095594
0.478616 0.354675 0.098325
0.532954 0.357550 0.101056
0.587291 0.360425 0.103788
0.641629 0.363300 0.106519
0.695966 0.366175 0.109250
0.750304 0.369050 0.111981
0.804641 0.371925 0.114713
0.858979 0.374800 0.117444
0.913316 0.377675 0.120175
0.967654 0.380550 0.122906
0.101273 0.386300 0.081937
0.155610 0.389175 0.084669
0.209948 0.392050 0.087400
0.264285 0.394925 0.090131
0.318623 0.397800 0.092863
0.372960 0.400675 0.095594
0.427298 0.403550 0.098325
0.481635 0.406425 0.101056
0.535973 0.409300 0.103788
0.590310 0.412175 0.106519
0.644648 0.415050 0.109250
0.698985 0.417925 0.111981
0.753323 0.420800 0.114713
0.807660 0.423675 0.117444
0.861998 0.426550 0.120175
0.916335 0.429425 0.122906
0.970673 0.432300 0.125638
0.104291 0.438050 0.084669
0.158629 0.440925 0.087400
0.212966 0.443800 0.090131
0.267304 0.446675 0.092863
0.321641 0.449550 0.095594
0.375979 0.452425 0.098325
0.430316 0.455300 0.101056
0.484654 0.458175 0.103788
0.538991 0.461050 0.106519
0.593329 0.463925 0.109250
0.647666 0.466800 0.111981
0.702004 0.469675 0.114713
0.756341 0.472550 0.117444
0.810679 0.475425 0.120175
0.865016 0.478300 0.122906
0.919354 0.481175 0.125638
0.973691 0.484050 0.128369
0.107310 0.489800 0.087400
0.161648 0.492675 0.090131
0.215985 0.495550 0.092863
0.270323 0.498425 0.095594
0.324660 0.501300 0.098325
0.378998 0.504175 0.101056
0.433335 0.507050 0.103788
0.487673 0.509925 0.106519
0.542010 0.512800 0.109250
0.596348 0.515675 0.111981
0.650685 0.518550 0.114713
0.705022 0.521425 0.117444
0.759360 0.524300 0.120175
0.813698 0.527175 0.122906
0.868035 0.530050 0.125638
0.922373 0.532925 0.128369
0.976710 0.535800 0.131100
0.110329 0.541550 0.090131
0.164666 0.544425 0.092863
0.219004 0.547300 0.095594
0.273341 0.550175 0.098325
0.327679 0.553050 0.101056
0.382016 0.555925 0.103788
0.436354 0.558800 0.106519
0.490691 0.561675 0.109250
0.545029 0.564550 0.111981
0.599366 0.567425 0.114713
0.653704 0.570300 0.117444
0.708041 0.573175 0.120175
0.762379 0.576050 0.122906
0.816716 0.578925 0.125638
0.871054 0.581800 0.128369
0.925391 0.584675 0.131100
0.979729 0.587550 0.133831
0.113348 0.593300 0.092863
0.167685 0.596175 0.095594
0.222023 0.599050 0.098325
0.276360 0.601925 0.101056
0.330698 0.604800 0.103788
0.385035 0.607675 0.106519
0.439373 0.610550 0.109250
0.493710 0.613425 0.111981
0.548048 0.616300 0.114713
0.602385 0.619175 0.117444
0.656723 0.622050 0.120175
0.711060 0.624925 0.122906
0.765398 0.627800 0.125638
0.819735 0.630675 0.128369
0.874073 0.633550 0.131100
0.928410 0.636425 0.133831
0.982748 0.639300 0.136562
0.116366 0.645050 0.095594
0.170704 0.647925 0.098325
0.225041 0.650800 0.101056
0.279379 0.653675 0.103788
0.333716 0.656550 0.106519
0.388054 0.659425 0.109250
0.442391 0.662300 0.111981
0.496729 0.665175 0.114713
0.551066 0.668050 0.117444
0.605404 0.670925 0.120175
0.659741 0.673800 0.122906
0.714079 0.676675 0.125638
0.768416 0.679550 0.128369
0.822754 0.682425 0.131100
0.877091 0.685300 0.133831
0.931429 0.688175 0.136562
0.985766 0.691050 0.139294
0.119385 0.696800 0.098325
0.173723 0.699675 0.101056
0.228060 0.702550 0.103788
0.282398 0.705425 0.106519
0.336735 0.708300 0.109250
0.391073 0.711175 0.111981
0.445410 0.714050 0.114713
0.499748 0.716925 0.117444
0.554085 0.719800 0.120175
0.608423 0.722675 0.122906
0.662760 0.725550 0.125638
0.717097 0.728425 0.128369
0.771435 0.731300 0.131100
0.825773 0.734175 0.133831
0.880110 0.737050 0.136562
0.934448 0.739925 0.139294
0.988785 0.742800 0.142025
0.122404 0.748550 0.101056
0.176741 0.751425 0.103788
0.231079 0.754300 0.106519
0.285416 0.757175 0.109250
0.339754 0.760050 0.111981
0.394091 0.762925 0.114713
0.448429 0.765800 0.117444
0.502766 0.768675 0.120175
0.557104 0.771550 0.122906
0.611441 0.774425 0.125638
0.665779 0.777300 0.128369
0.720116 0.780175 0.131100
0.774454 0.783050 0.133831
0.828791 0.785925 0.136562
0.883129 0.788800 0.139294
0.937466 0.791675 0.142025
0.991804 0.794550 0.144756
0.125423 0.800300 0.103788
0.179760 0.803175 0.106519
0.234098 0.806050 0.109250
0.288435 0.808925 0.111981
0.342773 0.811800 0.114713
0.397110 0.814675 0.117444
0.451448 0.817550 0.120175
0.505785 0.820425 0.122906
0.560122 0.823300 0.125638
0.614460 0.826175 0.128369
0.668798 0.829050 0.131100
0.723135 0.831925 0.133831
0.777473 0.834800 0.136562
0.831810 0.837675 0.139294
0.886147 0.840550 0.142025
0.940485 0.843425 0.144756
0.994823 0.846300 0.147487
0.128441 0.852050 0.106519
0.182779 0.854925 0.109250
0.237116 0.857800 0.111981
0.291454 0.860675 0.114713
0.345791 0.863550 0.117444
0.400129 0.866425 0.120175
0.454466 0.869300 0.122906
0.508804 0.872175 0.125638
0.563141 0.875050 0.128369
0.617479 0.877925 0.131100
0.671816 0.880800 0.133831
0.726154 0.883675 0.136562
0.780491 0.886550 0.139294
0.834829 0.889425 0.142025
0.889166 0.892300 0.144756
0.943504 0.895175 0.147487
0.997841 0.898050 0.150219
0.131460 0.903800 0.109250
0.185798 0.906675 0.111981
0.240135 0.909550 0.114713
0.294472 0.912425 0.117444
0.348810 0.915300 0.120175
0.403148 0.918175 0.122906
0.457485 0.921050 0.125638
0.511823 0.923925 0.128369
0.566160 0.926800 0.131100
0.620498 0.929675 0.133831
0.674835 0.932550 0.136562
0.729173 0.935425 0.139294
0.783510 0.938300 0.142025
0.837848 0.941175 0.144756
0.892185 0.944050 0.147487
0.946523 0.946925 0.150219
1.000000 0.949800 0.152950
0.086179 0.078675 0.114712
0.140516 0.081550 0.117444
0.194854 0.084425 0.120175
0.249191 0.087300 0.122906
0.303529 0.090175 0.125638
0.357866 0.093050 0.128369
0.412204 0.095925 0.131100
0.466541 0.098800 0.133831
0.520879 0.101675 0.136562
0.575216 0.104550 0.139294
0.629554 0.107425 0.142025
0.683891 0.110300 0.144756
0.738229 0.113175 0.147487
0.792566 0.116050 0.150219
0.846904 0.118925 0.152950
0.901241 0.121800 0.155681
0.955579 0.124675 0.158413
0.089197 0.130425 0.117444
0.143535 0.133300 0.120175
0.197873 0.136175 0.122906
0.252210 0.139050 0.125638
0.306547 0.141925 0.128369
0.360885 0.144800 0.131100
0.415223 0.147675 0.133831
0.469560 0.150550 0.136562
0.523898 0.153425 0.139294
0.578235 0.156300 0.142025
0.632572 0.159175 0.144756
0.686910 0.162050 0.147487
0.741248 0.164925 0.150219
0.795585 0.167800 0.152950
0.849923 0.170675 0.155681
0.904260 0.173550 0.158413
0.958597 0.176425 0.161144
0.092216 0.182175 0.120175
0.146554 0.185050 0.122906
0.200891 0.187925 0.125638
0.255229 0.190800 0.128369
0.309566 0.193675 0.131100
0.363904 0.196550 0.133831
0.418241 0.199425 0.136562
0.472579 0.202300 0.139294
0.526916 0.205175 0.142025
0.581254 0.208050 0.144756
0.635591 0.210925 0.147487
0.689929 0.213800 0.150219
0.744266 0.216675 0.152950
0.798604 0.219550 0.155681
0.852941 0.222425 0.158413
0.907279 0.225300 0.161144
0.961616 0.228175 0.163875
0.095235 0.233925 0.122906
0.149573 0.236800 0.125638
0.203910 0.239675 0.128369
0.258248 0.242550 0.131100
0.312585 0.245425 0.133831
0.366923 0.248300 0.136562
0.421260 0.251175 0.139294
0.475598 0.254050 0.142025
0.529935 0.256925 0.144756
0.584272 0.259800 0.147487
0.638610 0.262675 0.150219
0.692948 0.265550 0.152950
0.747285 0.268425 0.155681
0.801623 0.271300 0.158413
0.855960 0.274175 0.161144
0.910298 0.277050 0.163875
0.964635 0.279925 0.166606
0.098254 0.285675 0.125638
0.152591 0.288550 0.128369
0.206929 0.291425 0.131100
0.261266 0.294300 0.133831
0.315604 0.297175 0.136562
0.369941 0.300050 0.139294
0.424279 0.302925 0.142025
0.478616 0.305800 0.144756
0.532954 0.308675 0.147487
0.587291 0.311550 0.150219
0.641629 0.314425 0.152950
0.695966 0.317300 0.155681
0.750304 0.320175 0.158413
0.804641 0.323050 0.161144
0.858979 0.325925 0.163875
0.913316 0.328800 0.166606
0.967654 0.331675 0.169338
0.101273 0.337425 0.128369
0.155610 0.340300 0.131100
0.209948 0.343175 0.133831
0.264285 0.346050 0.136562
0.318623 0.348925 0.139294
0.372960 0.351800 0.142025
0.427298 0.354675 0.144756
0.481635 0.357550 0.147487
0.535973 0.360425 0.150219
0.590310 0.363300 0.152950
0.644648 0.366175 0.155681
0.698985 0.369050 0.158413
0.753323 0.371925 0.161144
0.807660 0.374800 0.163875
0.861998 0.377675 0.166606
0.916335 0.380550 0.169338
0.970673 0.383425 0.172069
0.104291 0.389175 0.131100
0.158629 0.392050 0.133831
0.212966 0.394925 0.136562
0.267304 0.397800 0.139294
0.321641 0.400675 0.142025
0.375979 0.403550 0.144756
0.430316 0.406425 0.147487
0.484654 0.409300 0.150219
0.538991 0.412175 0.152950
0.593329 0.415050 0.155681
0.647666 0.417925 0.158413
0.702004 0.420800 0.161144
0.756341 0.423675 0.163875
0.810679 0.426550 0.166606
0.865016 0.429425 0.169338
0.919354 0.432300 0.172069
0.973691 0.435175 0.174800
0.107310 0.440925 0.133831
0.161648 0.443800 0.136562
0.215985 0.446675 0.139294
0.270323 0.449550 0.142025
0.324660 0.452425 0.144756
0.378998 0.455300 0.147487
0.433335 0.458175 0.150219
0.487673 0.461050 0.152950
0.542010 0.463925 0.155681
0.596348 0.466800 0.158413
0.650685 0.469675 0.161144
0.705022 0.472550 0.163875
0.759360 0.475425 0.166606
0.813698 0.478300 0.169338
0.868035 0.481175 0.172069
0.922373 0.484050 0.174800
0.976710 0.486925 0.177531
0.110329 0.492675 0.136562
0.164666 0.495550 0.139294
0.219004 0.498425 0.142025
0.273341 0.501300 0.144756
0.327679 0.504175 0.147487
0.382016 0.507050 0.150219
0.436354 0.509925 0.152950
0.490691 0.512800 0.155681
0.545029 0.515675 0.158413
0.599366 0.518550 0.161144
0.653704 0.521425 0.163875
0.708041 0.524300 0.166606
0.762379 0.527175 0.169338
0.816716 0.530050 0.172069
0.871054 0.532925 0.174800
0.925391 0.535800 0.177531
0.979729 0.538675 0.180263
0.113348 0.544425 0.139294
0.167685 0.547300 0.142025
0.222023 0.550175 0.144756
0.276360 0.553050 0.147487
0.330698 0.555925 0.150219
0.385035 0.558800 0.152950
0.439373 0.561675 0.155681
0.493710 0.564550 0.158413
0.548048 0.567425 0.161144
0.602385 0.570300 0.163875
0.656723 0.573175 0.166606
0.711060 0.576050 0.169338
0.765398 0.578925 0.172069
0.819735 0.581800 0.174800
0.874072 0.584675 0.177531
0.928410 0.587550 0.180263
0.982748 0.590425 0.182994
0.116366 0.596175 0.142025
0.170704 0.599050 0.144756
0.225041 0.601925 0.147487
0.279379 0.604800 0.150219
0.333716 0.607675 0.152950
0.388054 0.610550 0.155681
0.442391 0.613425 0.158413
0.496729 0.616300 0.161144
0.551066 0.619175 0.163875
0.605404 0.622050 0.166606
0.659741 0.624925 0.169338
0.714079 0.627800 0.172069
0.768416 0.630675 0.174800
0.822754 0.633550 0.177531
0.877091 0.636425 0.180263
0.931429 0.639300 0.182994
0.985766 0.642175 0.185725
0.119385 0.647925 0.144756
0.173723 0.650800 0.147487
0.228060 0.653675 0.150219
0.282398 0.656550 0.152950
0.336735 0.659425 0.155681
0.391073 0.662300 0.158413
0.445410 0.665175 0.161144
0.499748 0.668050 0.163875
0.554085 0.670925 0.166606
0.608423 0.673800 0.169338
0.662760 0.676675 0.172069
0.717097 0.679550 0.174800
0.771435 0.682425 0.177531
0.825773 0.685300 0.180263
0.880110 0.688175 0.182994
0.934448 0.691050 0.185725
0.988785 0.693925 0.188456
0.122404 0.699675 0.147487
0.176741 0.702550 0.150219
0.231079 0.705425 0.152950
0.285416 0.708300 0.155681
0.339754 0.711175 0.158413
0.394091 0.714050 0.161144
0.448429 0.716925 0.163875
0.502766 0.719800 0.166606
0.557104 0.722675 0.169338
0.611441 0.725550 0.172069
0.665779 0.728425 0.174800
0.720116 0.731300 0.177531
0.774454 0.734175 0.180263
0.828791 0.737050 0.182994
0.883129 0.739925 0.185725
0.937466 0.742800 0.188456
0.991804 0.745675 0.191188
0.125423 0.751425 0.150219
0.179760 0.754300 0.152950
0.234098 0.757175 0.155681
0.288435 0.760050 0.158413
0.342773 0.762925 0.161144
0.397110 0.765800 0.163875
0.451448 0.768675 0.166606
0.505785 0.771550 0.169338
0.560122 0.774425 0.172069
0.614460 0.777300 0.174800
0.668798 0.780175 0.177531
0.723135 0.783050 0.180263
0.777473 0.785925 0.182994
0.831810 0.788800 0.185725
0.886147 0.791675 0.188456
0.940485 0.794550 0.191188
0.994823 0.797425 0.193919
0.128441 0.803175 0.152950
0.182779 0.806050 0.155681
0.237116 0.808925 0.158413
0.291454 0.811800 0.161144
0.345791 0.814675 0.163875
0.400129 0.817550 0.166606
0.454466 0.820425 0.169338
0.508804 0.823300 0.172069
0.563141 0.826175 0.174800
0.617479 0.829050 0.177531
0.671816 0.831925 0.180263
0.726154 0.834800 0.182994
0.780491 0.837675 0.185725
0.834829 0.840550 0.188456
0.889166 0.843425 0.191188
0.943504 0.846300 0.193919
0.997841 0.849175 0.196650
0.131460 0.854925 0.155681
0.185798 0.857800 0.158413
0.240135 0.860675 0.161144
0.294472 0.863550 0.163875
0.348810 0.866425 0.166606
0.403148 0.869300 0.169338
0.457485 0.872175 0.172069
0.511823 0.875050 0.174800
0.566160 0.877925 0.177531
0.620498 0.880800 0.180263
0.674835 0.883675 0.182994
0.729173 0.886550 0.185725
0.783510 0.889425 0.188456
0.837847 0.892300 0.191188
0.892185 0.895175 0.193919
0.946523 0.898050 0.196650
1.000000 0.900925 0.199381
0.134479 0.906675 0.158413
0.188816 0.909550 0.161144
0.243154 0.912425 0.163875
0.297491 0.915300 0.166606
0.351829 0.918175 0.169338
0.406166 0.921050 0.172069
0.460504 0.923925 0.174800
0.514841 0.926800 0.177531
0.569179 0.929675 0.180263
0.623516 0.932550 0.182994
0.677854 0.935425 0.185725
0.732191 0.938300 0.188456
0.786529 0.941175 0.191188
0.840866 0.944050 0.193919
0.895204 0.946925 0.196650
0.949541 0.949800 0.199381
1.000000 0.952675 0.202112
0.089197 0.081550 0.163875
0.143535 0.084425 0.166606
0.197873 0.087300 0.169337
0.252210 0.090175 0.172069
0.306547 0.093050 0.174800
0.360885 0.095925 0.177531
0.415223 0.098800 0.180262
0.469560 0.101675 0.182994
0.523898 0.104550 0.185725
0.578235 0.107425 0.188456
0.632572 0.110300 0.191187
0.686910 0.113175 0.193919
0.741248 0.116050 0.196650
0.795585 0.118925 0.199381
0.849923 0.121800 0.202112
0.904260 0.124675 0.204844
0.958598 0.127550 0.207575
0.092216 0.133300 0.166606
0.146554 0.136175 0.169337
0.200891 0.139050 0.172069
0.255229 0.141925 0.174800
0.309566 0.144800 0.177531
0.363904 0.147675 0.180262
0.418241 0.150550 0.182994
0.472579 0.153425 0.185725
0.526916 0.156300 0.188456
0.581254 0.159175 0.191187
0.635591 0.162050 0.193919
0.689929 0.164925 0.196650
0.744266 0.167800 0.199381
0.798604 0.170675 0.202112
0.852941 0.173550 0.204844
0.907279 0.176425 0.207575
0.961616 0.179300 0.210306
0.095235 0.185050 0.169337
0.149573 0.187925 0.172069
0.203910 0.190800 0.174800
0.258248 0.193675 0.177531
0.312585 0.196550 0.180262
0.366923 0.199425 0.182994
0.421260 0.202300 0.185725
0.475598 0.205175 0.188456
0.529935 0.208050 0.191187
0.584272 0.210925 0.193919
0.638610 0.213800 0.196650
0.692948 0.216675 0.199381
0.747285 0.219550 0.202112
0.801623 0.222425 0.204844
0.855960 0.225300 0.207575
0.910298 0.228175 0.210306
0.964635 0.231050 0.213037
0.098254 0.236800 0.172069
0.152591 0.239675 0.174800
0.206929 0.242550 0.177531
0.261266 0.245425 0.180262
0.315604 0.248300 0.182994
0.369941 0.251175 0.185725
0.424279 0.254050 0.188456
0.478616 0.256925 0.191187
0.532954 0.259800 0.193919
0.587291 0.262675 0.196650
0.641629 0.265550 0.199381
0.695966 0.268425 0.202112
0.750304 0.271300 0.204844
0.804641 0.274175 0.207575
0.858979 0.277050 0.210306
0.913316 0.279925 0.213037
0.967654 0.282800 0.215769
0.101273 0.288550 0.174800
0.155610 0.291425 0.177531
0.209948 0.294300 0.180262
0.264285 0.297175 0.182994
0.318623 0.300050 0.185725
0.372960 0.302925 0.188456
0.427298 0.305800 0.191187
0.481635 0.308675 0.193919
0.535973 0.311550 0.196650
0.590310 0.314425 0.199381
0.644648 0.317300 0.202112
0.698985 0.320175 0.204844
0.753323 0.323050 0.207575
0.807660 0.325925 0.210306
0.861998 0.328800 0.213037
0.916335 0.331675 0.215769
0.970673 0.334550 0.218500
0.104291 0.340300 0.177531
0.158629 0.343175 0.180262
0.212966 0.346050 0.182994
0.267304 0.348925 0.185725
0.321641 0.351800 0.188456
0.375979 0.354675 0.191187
0.430316 0.357550 0.193919
0.484654 0.360425 0.196650
0.538991 0.363300 0.199381
0.593329 0.366175 0.202112
0.647666 0.369050 0.204844
0.702004 0.371925 0.207575
0.756341 0.374800 0.210306
0.810679 0.377675 0.213037
0.865016 0.380550 0.215769
0.919354 0.383425 0.218500
0.973691 0.386300 0.221231
0.107310 0.392050 0.180262
0.161648 0.394925 0.182994
0.215985 0.397800 0.185725
0.270323 0.400675 0.188456
0.324660 0.403550 0.191187
0.378998 0.406425 0.193919
0.433335 0.409300 0.196650
0.487673 0.412175 0.199381
0.542010 0.415050 0.202112
0.596348 0.417925 0.204844
0.650685 0.420800 0.207575
0.705022 0.423675 0.210306
0.759360 0.426550 0.213037
0.813698 0.429425 0.215769
0.868035 0.432300 0.218500
0.922373 0.435175 0.221231
0.976710 0.438050 0.223963
0.110329 0.443800 0.182994
0.164666 0.446675 0.185725
0.219004 0.449550 0.188456
0.273341 0.452425 0.191187
0.327679 0.455300 0.193919
0.382016 0.458175 0.196650
0.436354 0.461050 0.199381
0.490691 0.463925 0.202112
0.545029 0.466800 0.204844
0.599366 0.469675 0.207575
0.653704 0.472550 0.210306
0.708041 0.475425 0.213037
0.762379 0.478300 0.215769
0.816716 0.481175 0.218500
0.871054 0.484050 0.221231
0.925391 0.486925 0.223963
0.979729 0.489800 0.226694
0.113348 0.495550 0.185725
0.167685 0.498425 0.188456
0.222023 0.501300 0.191187
0.276360 0.504175 0.193919
0.330698 0.507050 0.196650
0.385035 0.509925 0.199381
0.439373 0.512800 0.202112
0.493710 0.515675 0.204844
0.548048 0.518550 0.207575
0.602385 0.521425 0.210306
0.656723 0.524300 0.213037
0.711060 0.527175 0.215769
0.765398 0.530050 0.218500
0.819735 0.532925 0.221231
0.874073 0.535800 0.223963
0.928410 0.538675 0.226694
0.982748 0.541550 0.229425
0.116366 0.547300 0.188456
0.170704 0.550175 0.191187
0.225041 0.553050 0.193919
0.279379 0.555925 0.196650
0.333716 0.558800 0.199381
0.388054 0.561675 0.202112
0.442391 0.564550 0.204844
0.496729 0.567425 0.207575
0.551066 0.570300 0.210306
0.605404 0.573175 0.213037
0.659741 0.576050 0.215769
0.714079 0.578925 0.218500
0.768416 0.581800 0.221231
0.822754 0.584675 0.223963
0.877091 0.587550 0.226694
0.931429 0.590425 0.229425
0.985766 0.593300 0.232156
0.119385 0.599050 0.191187
0.173723 0.601925 0.193919
0.228060 0.604800 0.196650
0.282398 0.607675 0.199381
0.336735 0.610550 0.202112
0.391073 0.613425 0.204844
0.445410 0.616300 0.207575
0.499748 0.619175 0.210306
0.554085 0.622050 0.213037
0.608423 0.624925 0.215769
0.662760 0.627800 0.218500
0.717098 0.630675 0.221231
0.771435 0.633550 0.223963
0.825773 0.636425 0.226694
0.880110 0.639300 0.229425
0.934448 0.642175 0.232156
0.988785 0.645050 0.234888
0.122404 0.650800 0.193919
0.176741 0.653675 0.196650
0.231079 0.656550 0.199381
0.285416 0.659425 0.202112
0.339754 0.662300 0.204844
0.394091 0.665175 0.207575
0.448429 0.668050 0.210306
0.502766 0.670925 0.213037
0.557104 0.673800 0.215769
0.611441 0.676675 0.218500
0.665779 0.679550 0.221231
0.720116 0.682425 0.223963
0.774454 0.685300 0.226694
0.828791 0.688175 0.229425
0.883129 0.691050 0.232156
0.937466 0.693925 0.234888
0.991804 0.696800 0.237619
0.125423 0.702550 0.196650
0.179760 0.705425 0.199381
0.234098 0.708300 0.202112
0.288435 0.711175 0.204844
0.342773 0.714050 0.207575
0.397110 0.716925 0.210306
0.451448 0.719800 0.213037
0.505785 0.722675 0.215769
0.560122 0.725550 0.218500
0.614460 0.728425 0.221231
0.668798 0.731300 0.223963
0.723135 0.734175 0.226694
0.777473 0.737050 0.229425
0.831810 0.739925 0.232156
0.886147 0.742800 0.234888
0.940485 0.745675 0.237619
0.994823 0.748550 0.240350
0.128441 0.754300 0.199381
0.182779 0.757175 0.202112
0.237116 0.760050 0.204844
0.291454 0.762925 0.207575
0.345791 0.765800 0.210306
0.400129 0.768675 0.213037
0.454466 0.771550 0.215769
0.508804 0.774425 0.218500
0.563141 0.777300 0.221231
0.617479 0.780175 0.223963
0.671816 0.783050 0.226694
0.726154 0.785925 0.229425
0.780491 0.788800 0.232156
0.834829 0.791675 0.234888
0.889166 0.794550 0.237619
0.943504 0.797425 0.240350
0.997841 0.800300 0.243081
0.131460 0.806050 0.202112
0.185798 0.808925 0.204844
0.240135 0.811800 0.207575
0.294472 0.814675 0.210306
0.348810 0.817550 0.213037
0.403148 0.820425 0.215769
0.457485 0.823300 0.218500
0.511823 0.826175 0.221231
0.566160 0.829050 0.223963
0.620498 0.831925 0.226694
0.674835 0.834800 0.229425
0.729173 0.837675 0.232156
0.783510 0.840550 0.234888
0.837847 0.843425 0.237619
0.892185 0.846300 0.240350
0.946523 0.849175 0.243081
1.000000 0.852050 0.245812
0.134479 0.857800 0.204844
0.188816 0.860675 0.207575
0.243154 0.863550 0.210306
0.297491 0.866425 0.213037
0.351829 0.869300 0.215769
0.406166 0.872175 0.218500
0.460504 0.875050 0.221231
0.514841 0.877925 0.223963
0.569179 0.880800 0.226694
0.623516 0.883675 0.229425
0.677854 0.886550 0.232156
0.732191 0.889425 0.234888
0.786529 0.892300 0.237619
0.840866 0.895175 0.240350
0.895204 0.898050 0.243081
0.949541 0.900925 0.245812
1.000000 0.903800 0.248544
0.137498 0.909550 0.207575
0.191835 0.912425 0.210306
0.246173 0.915300 0.213037
0.300510 0.918175 0.215769
0.354847 0.921050 0.218500
0.409185 0.923925 0.221231
0.463523 0.926800 0.223963
0.517860 0.929675 0.226694
0.572198 0.932550 0.229425
0.626535 0.935425 0.232156
0.680873 0.938300 0.234888
0.735210 0.941175 0.237619
0.789548 0.944050 0.240350
0.843885 0.946925 0.243081
0.898223 0.949800 0.245812
0.952560 0.952675 0.248544
1.000000 0.955550 0.251275
0.092216 0.084425 0.213037
0.146554 0.087300 0.215769
0.200891 0.090175 0.218500
0.255229 0.093050 0.221231
0.309566 0.095925 0.223963
0.363904 0.098800 0.226694
0.418241 0.101675 0.229425
0.472579 0.104550 0.232156
0.526916 0.107425 0.234888
0.581254 0.110300 0.237619
0.635591 0.113175 0.240350
0.689929 0.116050 0.243081
0.744266 0.118925 0.245813
0.798604 0.121800 0.248544
0.852941 0.124675 0.251275
0.907279 0.127550 0.254006
0.961616 0.130425 0.256737
0.095235 0.136175 0.215769
0.149573 0.139050 0.218500
0.203910 0.141925 0.221231
