hermes-skills/ugc-video-pipeline/luts/vintage.cube
TITLE "Vintage Fade"
LUT_3D_SIZE 5
0.083160 0.075800 0.065550
0.300510 0.087300 0.076475
0.517860 0.098800 0.087400
0.735210 0.110300 0.098325
0.952560 0.121800 0.109250
0.095235 0.282800 0.076475
0.312585 0.294300 0.087400
0.529935 0.305800 0.098325
0.747285 0.317300 0.109250
0.964635 0.328800 0.120175
0.107310 0.489800 0.087400
0.324660 0.501300 0.098325
0.542010 0.512800 0.109250
0.759360 0.524300 0.120175
0.976710 0.535800 0.131100
0.119385 0.696800 0.098325
0.336735 0.708300 0.109250
0.554085 0.719800 0.120175
0.771435 0.731300 0.131100
0.988785 0.742800 0.142025
0.131460 0.903800 0.109250
0.348810 0.915300 0.120175
0.566160 0.926800 0.131100
0.783510 0.938300 0.142025
1.000000 0.949800 0.152950
0.095235 0.087300 0.262200
0.312585 0.098800 0.273125
0.529935 0.110300 0.284050
0.747285 0.121800 0.294975
0.964635 0.133300 0.305900
0.107310 0.294300 0.273125
0.324660 0.305800 0.284050
0.542010 0.317300 0.294975
0.759360 0.328800 0.305900
0.976710 0.340300 0.316825
0.119385 0.501300 0.284050
0.336735 0.512800 0.294975
0.554085 0.524300 0.305900
0.771435 0.535800 0.316825
0.988785 0.547300 0.327750
0.131460 0.708300 0.294975
0.348810 0.719800 0.305900
0.566160 0.731300 0.316825
0.783510 0.742800 0.327750
1.000000 0.754300 0.338675
0.143535 0.915300 0.305900
0.360885 0.926800 0.316825
0.578235 0.938300 0.327750
0.795585 0.949800 0.338675
1.000000 0.961300 0.349600
0.107310 0.098800 0.458850
0.324660 0.110300 0.469775
0.542010 0.121800 0.480700
0.759360 0.133300 0.491625
0.976710 0.144800 0.502550
0.119385 0.305800 0.469775
0.336735 0.317300 0.480700
0.554085 0.328800 0.491625
0.771435 0.340300 0.502550
0.988785 0.351800 0.513475
0.131460 0.512800 0.480700
0.348810 0.524300 0.491625
0.566160 0.535800 0.502550
0.783510 0.547300 0.513475
1.000000 0.558800 0.524400
0.143535 0.719800 0.491625
0.360885 0.731300 0.502550
0.578235 0.742800 0.513475
0.795585 0.754300 0.524400
1.000000 0.765800 0.535325
0.155610 0.926800 0.502550
0.372960 0.938300 0.513475
0.590310 0.949800 0.524400
0.807660 0.961300 0.535325
1.000000 0.972800 0.546250
0.119385 0.110300 0.655500
0.336735 0.121800 0.666425
0.554085 0.133300 0.677350
0.771435 0.144800 0.688275
0.988785 0.156300 0.699200
0.131460 0.317300 0.666425
0.348810 0.328800 0.677350
0.566160 0.340300 0.688275
0.783510 0.351800 0.699200
1.000000 0.363300 0.710125
0.143535 0.524300 0.677350
0.360885 0.535800 0.688275
0.578235 0.547300 0.699200
0.795585 0.558800 0.710125
1.000000 0.570300 0.721050
0.155610 0.731300 0.688275
0.372960 0.742800 0.699200
0.590310 0.754300 0.710125
0.807660 0.765800 0.721050
1.000000 0.777300 0.731975
0.167685 0.938300 0.699200
0.385035 0.949800 0.710125
0.602385 0.961300 0.721050
0.819735 0.972800 0.731975
1.000000 0.984300 0.742900
0.131460 0.121800 0.852150
0.348810 0.133300 0.863075
0.566160 0.144800 0.874000
0.783510 0.156300 0.884925
1.000000 0.167800 0.895850
0.143535 0.328800 0.863075
0.360885 0.340300 0.874000
0.578235 0.351800 0.884925
0.795585 0.363300 0.895850
1.000000 0.374800 0.906775
0.155610 0.535800 0.874000
0.372960 0.547300 0.884925
0.590310 0.558800 0.895850
0.807660 0.570300 0.906775
1.000000 0.581800 0.917700
0.167685 0.742800 0.884925
0.385035 0.754300 0.895850
0.602385 0.765800 0.906775
0.819735 0.777300 0.917700
1.000000 0.788800 0.928625
0.179760 0.949800 0.895850
0.397110 0.961300 0.906775
0.614460 0.972800 0.917700
0.831810 0.984300 0.928625
1.000000 0.995800 0.939550
