hermes-skills/ugc-video-pipeline/luts/vintage.cube
TITLE "Vintage Fade"
LUT_3D_SIZE 9
0.083160 0.075800 0.065550
0.191835 0.081550 0.071013
0.300510 0.087300 0.076475
0.409185 0.093050 0.081937
0.517860 0.098800 0.087400
0.626535 0.104550 0.092863
0.735210 0.110300 0.098325
0.843885 0.116050 0.103788
0.952560 0.121800 0.109250
0.089197 0.179300 0.071013
0.197873 0.185050 0.076475
0.306547 0.190800 0.081937
0.415223 0.196550 0.087400
0.523898 0.202300 0.092863
0.632573 0.208050 0.098325
0.741248 0.213800 0.103788
0.849923 0.219550 0.109250
0.958598 0.225300 0.114713
0.095235 0.282800 0.076475
0.203910 0.288550 0.081937
0.312585 0.294300 0.087400
0.421260 0.300050 0.092863
0.529935 0.305800 0.098325
0.638610 0.311550 0.103788
0.747285 0.317300 0.109250
0.855960 0.323050 0.114713
0.964635 0.328800 0.120175
0.101273 0.386300 0.081937
0.209948 0.392050 0.087400
0.318623 0.397800 0.092863
0.427298 0.403550 0.098325
0.535973 0.409300 0.103788
0.644648 0.415050 0.109250
0.753323 0.420800 0.114713
0.861998 0.426550 0.120175
0.970673 0.432300 0.125638
0.107310 0.489800 0.087400
0.215985 0.495550 0.092863
0.324660 0.501300 0.098325
0.433335 0.507050 0.103788
0.542010 0.512800 0.109250
0.650685 0.518550 0.114713
0.759360 0.524300 0.120175
0.868035 0.530050 0.125638
0.976710 0.535800 0.131100
0.113348 0.593300 0.092863
0.222023 0.599050 0.098325
0.330698 0.604800 0.103788
0.439373 0.610550 0.109250
0.548048 0.616300 0.114713
0.656723 0.622050 0.120175
0.765398 0.627800 0.125638
0.874073 0.633550 0.131100
0.982748 0.639300 0.136562
0.119385 0.696800 0.098325
0.228060 0.702550 0.103788
0.336735 0.708300 0.109250
0.445410 0.714050 0.114713
0.554085 0.719800 0.120175
0.662760 0.725550 0.125638
0.771435 0.731300 0.131100
0.880110 0.737050 0.136562
0.988785 0.742800 0.142025
0.125423 0.800300 0.103788
0.234098 0.806050 0.109250
0.342773 0.811800 0.114713
0.451448 0.817550 0.120175
0.560122 0.823300 0.125638
0.668798 0.829050 0.131100
0.777473 0.834800 0.136562
0.886147 0.840550 0.142025
0.994823 0.846300 0.147487
0.131460 0.903800 0.109250
0.240135 0.909550 0.114713
0.348810 0.915300 0.120175
0.457485 0.921050 0.125638
0.566160 0.926800 0.131100
0.674835 0.932550 0.136562
0.783510 0.938300 0.142025
0.892185 0.944050 0.147487
1.000000 0.949800 0.152950
0.089197 0.081550 0.163875
0.197873 0.087300 0.169337
0.306547 0.093050 0.174800
0.415223 0.098800 0.180262
0.523898 0.104550 0.185725
0.632572 0.110300 0.191187
0.741248 0.116050 0.196650
0.849923 0.121800 0.202112
0.958598 0.127550 0.207575
0.095235 0.185050 0.169337
0.203910 0.190800 0.174800
0.312585 0.196550 0.180262
0.421260 0.202300 0.185725
0.529935 0.208050 0.191187
0.638610 0.213800 0.196650
0.747285 0.219550 0.202112
0.855960 0.225300 0.207575
0.964635 0.231050 0.213037
0.101273 0.288550 0.174800
0.209948 0.294300 0.180262
0.318623 0.300050 0.185725
0.427298 0.305800 0.191187
0.535973 0.311550 0.196650
0.644648 0.317300 0.202112
0.753323 0.323050 0.207575
0.861998 0.328800 0.213037
0.970673 0.334550 0.218500
0.107310 0.392050 0.180262
0.215985 0.397800 0.185725
0.324660 0.403550 0.191187
0.433335 0.409300 0.196650
0.542010 0.415050 0.202112
0.650685 0.420800 0.207575
0.759360 0.426550 0.213037
0.868035 0.432300 0.218500
0.976710 0.438050 0.223963
0.113348 0.495550 0.185725
0.222023 0.501300 0.191187
0.330698 0.507050 0.196650
0.439373 0.512800 0.202112
0.548048 0.518550 0.207575
0.656723 0.524300 0.213037
0.765398 0.530050 0.218500
0.874073 0.535800 0.223963
0.982748 0.541550 0.229425
0.119385 0.599050 0.191187
0.228060 0.604800 0.196650
0.336735 0.610550 0.202112
0.445410 0.616300 0.207575
0.554085 0.622050 0.213037
0.662760 0.627800 0.218500
0.771435 0.633550 0.223963
0.880110 0.639300 0.229425
0.988785 0.645050 0.234888
0.125423 0.702550 0.196650
0.234098 0.708300 0.202112
0.342773 0.714050 0.207575
0.451448 0.719800 0.213037
0.560122 0.725550 0.218500
0.668798 0.731300 0.223963
0.777473 0.737050 0.229425
0.886147 0.742800 0.234888
0.994823 0.748550 0.240350
0.131460 0.806050 0.202112
0.240135 0.811800 0.207575
0.348810 0.817550 0.213037
0.457485 0.823300 0.218500
0.566160 0.829050 0.223963
0.674835 0.834800 0.229425
0.783510 0.840550 0.234888
0.892185 0.846300 0.240350
1.000000 0.852050 0.245812
0.137498 0.909550 0.207575
0.246173 0.915300 0.213037
0.354847 0.921050 0.218500
0.463523 0.926800 0.223963
0.572198 0.932550 0.229425
0.680873 0.938300 0.234888
0.789548 0.944050 0.240350
0.898223 0.949800 0.245812
1.000000 0.955550 0.251275
0.095235 0.087300 0.262200
0.203910 0.093050 0.267663
0.312585 0.098800 0.273125
0.421260 0.104550 0.278588
0.529935 0.110300 0.284050
0.638610 0.116050 0.289513
0.747285 0.121800 0.294975
0.855960 0.127550 0.300438
0.964635 0.133300 0.305900
0.101273 0.190800 0.267663
0.209948 0.196550 0.273125
0.318623 0.202300 0.278588
0.427298 0.208050 0.284050
0.535973 0.213800 0.289513
0.644648 0.219550 0.294975
0.753323 0.225300 0.300438
0.861998 0.231050 0.305900
0.970673 0.236800 0.311363
0.107310 0.294300 0.273125
0.215985 0.300050 0.278588
0.324660 0.305800 0.284050
0.433335 0.311550 0.289513
0.542010 0.317300 0.294975
0.650685 0.323050 0.300438
0.759360 0.328800 0.305900
0.868035 0.334550 0.311363
0.976710 0.340300 0.316825
0.113348 0.397800 0.278588
0.222023 0.403550 0.284050
0.330698 0.409300 0.289513
0.439373 0.415050 0.294975
0.548048 0.420800 0.300438
0.656723 0.426550 0.305900
0.765398 0.432300 0.311363
0.874073 0.438050 0.316825
0.982748 0.443800 0.322288
0.119385 0.501300 0.284050
0.228060 0.507050 0.289513
0.336735 0.512800 0.294975
0.445410 0.518550 0.300438
0.554085 0.524300 0.305900
0.662760 0.530050 0.311363
0.771435 0.535800 0.316825
0.880110 0.541550 0.322288
0.988785 0.547300 0.327750
0.125423 0.604800 0.289513
0.234098 0.610550 0.294975
0.342773 0.616300 0.300438
0.451448 0.622050 0.305900
0.560122 0.627800 0.311363
0.668798 0.633550 0.316825
0.777473 0.639300 0.322288
0.886147 0.645050 0.327750
0.994823 0.650800 0.333213
0.131460 0.708300 0.294975
0.240135 0.714050 0.300438
0.348810 0.719800 0.305900
0.457485 0.725550 0.311363
0.566160 0.731300 0.316825
0.674835 0.737050 0.322288
0.783510 0.742800 0.327750
0.892185 0.748550 0.333213
1.000000 0.754300 0.338675
0.137498 0.811800 0.300438
0.246173 0.817550 0.305900
0.354847 0.823300 0.311363
0.463523 0.829050 0.316825
0.572198 0.834800 0.322288
0.680873 0.840550 0.327750
0.789548 0.846300 0.333213
0.898223 0.852050 0.338675
1.000000 0.857800 0.344138
0.143535 0.915300 0.305900
0.252210 0.921050 0.311363
0.360885 0.926800 0.316825
0.469560 0.932550 0.322288
0.578235 0.938300 0.327750
0.686910 0.944050 0.333213
0.795585 0.949800 0.338675
0.904260 0.955550 0.344138
1.000000 0.961300 0.349600
0.101273 0.093050 0.360525
0.209948 0.098800 0.365988
0.318623 0.104550 0.371450
0.427298 0.110300 0.376913
0.535973 0.116050 0.382375
0.644648 0.121800 0.387838
0.753322 0.127550 0.393300
0.861998 0.133300 0.398763
0.970673 0.139050 0.404225
0.107310 0.196550 0.365988
0.215985 0.202300 0.371450
0.324660 0.208050 0.376913
0.433335 0.213800 0.382375
0.542010 0.219550 0.387838
0.650685 0.225300 0.393300
0.759360 0.231050 0.398763
0.868035 0.236800 0.404225
0.976710 0.242550 0.409687
0.113348 0.300050 0.371450
0.222023 0.305800 0.376913
0.330698 0.311550 0.382375
0.439373 0.317300 0.387838
0.548048 0.323050 0.393300
0.656723 0.328800 0.398763
0.765398 0.334550 0.404225
0.874073 0.340300 0.409687
0.982748 0.346050 0.415150
0.119385 0.403550 0.376913
0.228060 0.409300 0.382375
0.336735 0.415050 0.387838
0.445410 0.420800 0.393300
0.554085 0.426550 0.398763
0.662760 0.432300 0.404225
0.771435 0.438050 0.409687
0.880110 0.443800 0.415150
0.988785 0.449550 0.420613
0.125423 0.507050 0.382375
0.234098 0.512800 0.387838
0.342773 0.518550 0.393300
0.451448 0.524300 0.398763
0.560122 0.530050 0.404225
0.668798 0.535800 0.409687
0.777473 0.541550 0.415150
0.886147 0.547300 0.420613
0.994823 0.553050 0.426075
0.131460 0.610550 0.387838
0.240135 0.616300 0.393300
0.348810 0.622050 0.398763
0.457485 0.627800 0.404225
0.566160 0.633550 0.409687
0.674835 0.639300 0.415150
0.783510 0.645050 0.420613
0.892185 0.650800 0.426075
1.000000 0.656550 0.431538
0.137498 0.714050 0.393300
0.246173 0.719800 0.398763
0.354847 0.725550 0.404225
0.463523 0.731300 0.409687
0.572198 0.737050 0.415150
0.680873 0.742800 0.420613
0.789548 0.748550 0.426075
0.898223 0.754300 0.431538
1.000000 0.760050 0.437000
0.143535 0.817550 0.398763
0.252210 0.823300 0.404225
0.360885 0.829050 0.409687
0.469560 0.834800 0.415150
0.578235 0.840550 0.420613
0.686910 0.846300 0.426075
0.795585 0.852050 0.431538
0.904260 0.857800 0.437000
1.000000 0.863550 0.442463
0.149573 0.921050 0.404225
0.258248 0.926800 0.409687
0.366923 0.932550 0.415150
0.475598 0.938300 0.420613
0.584272 0.944050 0.426075
0.692948 0.949800 0.431538
0.801623 0.955550 0.437000
0.910297 0.961300 0.442463
1.000000 0.967050 0.447925
0.107310 0.098800 0.458850
0.215985 0.104550 0.464313
0.324660 0.110300 0.469775
0.433335 0.116050 0.475237
0.542010 0.121800 0.480700
0.650685 0.127550 0.486162
0.759360 0.133300 0.491625
0.868035 0.139050 0.497087
0.976710 0.144800 0.502550
0.113348 0.202300 0.464313
0.222023 0.208050 0.469775
0.330698 0.213800 0.475237
0.439373 0.219550 0.480700
0.548048 0.225300 0.486162
0.656723 0.231050 0.491625
0.765398 0.236800 0.497087
0.874073 0.242550 0.502550
0.982748 0.248300 0.508012
0.119385 0.305800 0.469775
0.228060 0.311550 0.475237
0.336735 0.317300 0.480700
0.445410 0.323050 0.486162
0.554085 0.328800 0.491625
0.662760 0.334550 0.497087
0.771435 0.340300 0.502550
0.880110 0.346050 0.508012
0.988785 0.351800 0.513475
0.125423 0.409300 0.475237
0.234098 0.415050 0.480700
0.342773 0.420800 0.486162
0.451448 0.426550 0.491625
0.560122 0.432300 0.497087
0.668798 0.438050 0.502550
0.777473 0.443800 0.508012
0.886147 0.449550 0.513475
0.994823 0.455300 0.518937
0.131460 0.512800 0.480700
0.240135 0.518550 0.486162
0.348810 0.524300 0.491625
0.457485 0.530050 0.497087
0.566160 0.535800 0.502550
0.674835 0.541550 0.508012
0.783510 0.547300 0.513475
0.892185 0.553050 0.518937
1.000000 0.558800 0.524400
0.137498 0.616300 0.486162
0.246173 0.622050 0.491625
0.354847 0.627800 0.497087
0.463523 0.633550 0.502550
0.572198 0.639300 0.508012
0.680873 0.645050 0.513475
0.789548 0.650800 0.518937
0.898223 0.656550 0.524400
1.000000 0.662300 0.529862
0.143535 0.719800 0.491625
0.252210 0.725550 0.497087
0.360885 0.731300 0.502550
0.469560 0.737050 0.508012
0.578235 0.742800 0.513475
0.686910 0.748550 0.518937
0.795585 0.754300 0.524400
0.904260 0.760050 0.529862
1.000000 0.765800 0.535325
0.149573 0.823300 0.497087
0.258248 0.829050 0.502550
0.366923 0.834800 0.508012
0.475598 0.840550 0.513475
0.584272 0.846300 0.518937
0.692948 0.852050 0.524400
0.801623 0.857800 0.529862
0.910297 0.863550 0.535325
1.000000 0.869300 0.540787
0.155610 0.926800 0.502550
0.264285 0.932550 0.508012
0.372960 0.938300 0.513475
0.481635 0.944050 0.518937
0.590310 0.949800 0.524400
0.698985 0.955550 0.529862
0.807660 0.961300 0.535325
0.916335 0.967050 0.540787
1.000000 0.972800 0.546250
0.113348 0.104550 0.557175
0.222023 0.110300 0.562637
0.330698 0.116050 0.568100
0.439373 0.121800 0.573562
0.548048 0.127550 0.579025
0.656723 0.133300 0.584488
0.765398 0.139050 0.589950
0.874073 0.144800 0.595413
0.982748 0.150550 0.600875
0.119385 0.208050 0.562637
0.228060 0.213800 0.568100
0.336735 0.219550 0.573562
0.445410 0.225300 0.579025
0.554085 0.231050 0.584488
0.662760 0.236800 0.589950
0.771435 0.242550 0.595413
0.880110 0.248300 0.600875
0.988785 0.254050 0.606337
0.125423 0.311550 0.568100
0.234098 0.317300 0.573562
0.342773 0.323050 0.579025
0.451448 0.328800 0.584488
0.560122 0.334550 0.589950
0.668798 0.340300 0.595413
0.777473 0.346050 0.600875
0.886147 0.351800 0.606337
0.994823 0.357550 0.611800
0.131460 0.415050 0.573562
0.240135 0.420800 0.579025
0.348810 0.426550 0.584488
0.457485 0.432300 0.589950
0.566160 0.438050 0.595413
0.674835 0.443800 0.600875
0.783510 0.449550 0.606337
0.892185 0.455300 0.611800
1.000000 0.461050 0.617263
0.137498 0.518550 0.579025
0.246173 0.524300 0.584488
0.354847 0.530050 0.589950
0.463523 0.535800 0.595413
0.572198 0.541550 0.600875
0.680873 0.547300 0.606337
0.789548 0.553050 0.611800
0.898223 0.558800 0.617263
1.000000 0.564550 0.622725
0.143535 0.622050 0.584488
0.252210 0.627800 0.589950
0.360885 0.633550 0.595413
0.469560 0.639300 0.600875
0.578235 0.645050 0.606337
0.686910 0.650800 0.611800
0.795585 0.656550 0.617263
0.904260 0.662300 0.622725
1.000000 0.668050 0.628188
0.149573 0.725550 0.589950
0.258248 0.731300 0.595413
0.366923 0.737050 0.600875
0.475598 0.742800 0.606337
0.584272 0.748550 0.611800
0.692948 0.754300 0.617263
0.801623 0.760050 0.622725
0.910297 0.765800 0.628188
1.000000 0.771550 0.633650
0.155610 0.829050 0.595413
0.264285 0.834800 0.600875
0.372960 0.840550 0.606337
0.481635 0.846300 0.611800
0.590310 0.852050 0.617263
0.698985 0.857800 0.622725
0.807660 0.863550 0.628188
0.916335 0.869300 0.633650
1.000000 0.875050 0.639112
0.161648 0.932550 0.600875
0.270323 0.938300 0.606337
0.378997 0.944050 0.611800
0.487673 0.949800 0.617263
0.596348 0.955550 0.622725
0.705022 0.961300 0.628188
0.813698 0.967050 0.633650
0.922373 0.972800 0.639112
1.000000 0.978550 0.644575
0.119385 0.110300 0.655500
0.228060 0.116050 0.660962
0.336735 0.121800 0.666425
0.445410 0.127550 0.671887
0.554085 0.133300 0.677350
0.662760 0.139050 0.682812
0.771435 0.144800 0.688275
0.880110 0.150550 0.693737
0.988785 0.156300 0.699200
0.125423 0.213800 0.660962
0.234098 0.219550 0.666425
0.342773 0.225300 0.671887
0.451448 0.231050 0.677350
0.560122 0.236800 0.682812
0.668798 0.242550 0.688275
0.777473 0.248300 0.693738
0.886147 0.254050 0.699200
0.994823 0.259800 0.704662
0.131460 0.317300 0.666425
0.240135 0.323050 0.671887
0.348810 0.328800 0.677350
0.457485 0.334550 0.682812
0.566160 0.340300 0.688275
0.674835 0.346050 0.693738
0.783510 0.351800 0.699200
0.892185 0.357550 0.704662
1.000000 0.363300 0.710125
0.137498 0.420800 0.671887
0.246173 0.426550 0.677350
0.354847 0.432300 0.682812
0.463523 0.438050 0.688275
0.572198 0.443800 0.693738
0.680873 0.449550 0.699200
0.789548 0.455300 0.704662
0.898223 0.461050 0.710125
1.000000 0.466800 0.715587
0.143535 0.524300 0.677350
0.252210 0.530050 0.682812
0.360885 0.535800 0.688275
0.469560 0.541550 0.693738
0.578235 0.547300 0.699200
0.686910 0.553050 0.704662
0.795585 0.558800 0.710125
0.904260 0.564550 0.715587
1.000000 0.570300 0.721050
0.149573 0.627800 0.682812
0.258248 0.633550 0.688275
0.366923 0.639300 0.693738
0.475598 0.645050 0.699200
0.584272 0.650800 0.704662
0.692948 0.656550 0.710125
0.801623 0.662300 0.715587
0.910297 0.668050 0.721050
1.000000 0.673800 0.726513
0.155610 0.731300 0.688275
0.264285 0.737050 0.693738
0.372960 0.742800 0.699200
0.481635 0.748550 0.704662
0.590310 0.754300 0.710125
0.698985 0.760050 0.715587
0.807660 0.765800 0.721050
0.916335 0.771550 0.726513
1.000000 0.777300 0.731975
0.161648 0.834800 0.693737
0.270323 0.840550 0.699200
0.378997 0.846300 0.704662
0.487673 0.852050 0.710125
0.596348 0.857800 0.715587
0.705022 0.863550 0.721050
0.813698 0.869300 0.726513
0.922373 0.875050 0.731975
1.000000 0.880800 0.737437
0.167685 0.938300 0.699200
0.276360 0.944050 0.704662
0.385035 0.949800 0.710125
0.493710 0.955550 0.715587
0.602385 0.961300 0.721050
0.711060 0.967050 0.726513
0.819735 0.972800 0.731975
0.928410 0.978550 0.737437
1.000000 0.984300 0.742900
0.125423 0.116050 0.753825
0.234098 0.121800 0.759288
0.342773 0.127550 0.764750
0.451448 0.133300 0.770212
0.560122 0.139050 0.775675
0.668798 0.144800 0.781137
0.777473 0.150550 0.786600
0.886147 0.156300 0.792063
0.994823 0.162050 0.797525
0.131460 0.219550 0.759288
0.240135 0.225300 0.764750
0.348810 0.231050 0.770212
0.457485 0.236800 0.775675
0.566160 0.242550 0.781137
0.674835 0.248300 0.786600
0.783510 0.254050 0.792063
0.892185 0.259800 0.797525
1.000000 0.265550 0.802987
0.137498 0.323050 0.764750
0.246173 0.328800 0.770212
0.354847 0.334550 0.775675
0.463523 0.340300 0.781137
0.572198 0.346050 0.786600
0.680873 0.351800 0.792063
0.789548 0.357550 0.797525
0.898223 0.363300 0.802987
1.000000 0.369050 0.808450
0.143535 0.426550 0.770212
0.252210 0.432300 0.775675
0.360885 0.438050 0.781137
0.469560 0.443800 0.786600
0.578235 0.449550 0.792063
0.686910 0.455300 0.797525
0.795585 0.461050 0.802987
0.904260 0.466800 0.808450
1.000000 0.472550 0.813912
0.149573 0.530050 0.775675
0.258248 0.535800 0.781137
0.366923 0.541550 0.786600
0.475598 0.547300 0.792063
0.584272 0.553050 0.797525
0.692948 0.558800 0.802987
0.801623 0.564550 0.808450
0.910297 0.570300 0.813912
1.000000 0.576050 0.819375
0.155610 0.633550 0.781137
0.264285 0.639300 0.786600
0.372960 0.645050 0.792063
0.481635 0.650800 0.797525
0.590310 0.656550 0.802987
0.698985 0.662300 0.808450
0.807660 0.668050 0.813912
0.916335 0.673800 0.819375
1.000000 0.679550 0.824837
0.161648 0.737050 0.786600
0.270323 0.742800 0.792063
0.378997 0.748550 0.797525
0.487673 0.754300 0.802987
0.596348 0.760050 0.808450
0.705022 0.765800 0.813912
0.813698 0.771550 0.819375
0.922373 0.777300 0.824837
1.000000 0.783050 0.830300
0.167685 0.840550 0.792063
0.276360 0.846300 0.797525
0.385035 0.852050 0.802987
0.493710 0.857800 0.808450
0.602385 0.863550 0.813912
0.711060 0.869300 0.819375
0.819735 0.875050 0.824837
0.928410 0.880800 0.830300
1.000000 0.886550 0.835762
0.173723 0.944050 0.797525
0.282398 0.949800 0.802987
0.391073 0.955550 0.808450
0.499748 0.961300 0.813912
0.608423 0.967050 0.819375
0.717098 0.972800 0.824837
0.825773 0.978550 0.830300
0.934448 0.984300 0.835762
1.000000 0.990050 0.841225
0.131460 0.121800 0.852150
0.240135 0.127550 0.857612
0.348810 0.133300 0.863075
0.457485 0.139050 0.868537
0.566160 0.144800 0.874000
0.674835 0.150550 0.879462
0.783510 0.156300 0.884925
0.892185 0.162050 0.890387
1.000000 0.167800 0.895850
0.137498 0.225300 0.857612
0.246173 0.231050 0.863075
0.354847 0.236800 0.868537
0.463523 0.242550 0.874000
0.572198 0.248300 0.879463
0.680873 0.254050 0.884925
0.789548 0.259800 0.890387
0.898223 0.265550 0.895850
1.000000 0.271300 0.901312
0.143535 0.328800 0.863075
0.252210 0.334550 0.868537
0.360885 0.340300 0.874000
0.469560 0.346050 0.879463
0.578235 0.351800 0.884925
0.686910 0.357550 0.890387
0.795585 0.363300 0.895850
0.904260 0.369050 0.901312
1.000000 0.374800 0.906775
0.149573 0.432300 0.868537
0.258248 0.438050 0.874000
0.366923 0.443800 0.879463
0.475598 0.449550 0.884925
0.584272 0.455300 0.890387
0.692948 0.461050 0.895850
0.801623 0.466800 0.901312
0.910297 0.472550 0.906775
1.000000 0.478300 0.912237
0.155610 0.535800 0.874000
0.264285 0.541550 0.879463
0.372960 0.547300 0.884925
0.481635 0.553050 0.890387
0.590310 0.558800 0.895850
0.698985 0.564550 0.901312
0.807660 0.570300 0.906775
0.916335 0.576050 0.912237
1.000000 0.581800 0.917700
0.161648 0.639300 0.879462
0.270323 0.645050 0.884925
0.378997 0.650800 0.890387
0.487673 0.656550 0.895850
0.596348 0.662300 0.901312
0.705022 0.668050 0.906775
0.813698 0.673800 0.912237
0.922373 0.679550 0.917700
1.000000 0.685300 0.923162
0.167685 0.742800 0.884925
0.276360 0.748550 0.890387
0.385035 0.754300 0.895850
0.493710 0.760050 0.901312
0.602385 0.765800 0.906775
0.711060 0.771550 0.912237
0.819735 0.777300 0.917700
0.928410 0.783050 0.923162
1.000000 0.788800 0.928625
0.173723 0.846300 0.890387
0.282398 0.852050 0.895850
0.391073 0.857800 0.901312
0.499748 0.863550 0.906775
0.608423 0.869300 0.912237
0.717098 0.875050 0.917700
0.825773 0.880800 0.923162
0.934448 0.886550 0.928625
1.000000 0.892300 0.934087
0.179760 0.949800 0.895850
0.288435 0.955550 0.901312
0.397110 0.961300 0.906775
0.505785 0.967050 0.912237
0.614460 0.972800 0.917700
0.723135 0.978550 0.923162
0.831810 0.984300 0.928625
0.940485 0.990050 0.934087
1.000000 0.995800 0.939550
