hermes-skills/ugc-video-pipeline/luts/warm_social.cube
TITLE "Warm Social"
LUT_3D_SIZE 17
0.031560 0.021480 -0.002040
0.101690 0.020770 -0.004710
0.171820 0.020060 -0.007380
0.241950 0.019350 -0.010050
0.312080 0.018640 -0.012720
0.382210 0.017930 -0.015390
0.452340 0.017220 -0.018060
0.522470 0.016510 -0.020730
0.592600 0.015800 -0.023400
0.662730 0.015090 -0.026070
0.732860 0.014380 -0.028740
0.802990 0.013670 -0.031410
0.873120 0.012960 -0.034080
0.943250 0.012250 -0.036750
1.000000 0.011540 -0.039420
1.000000 0.011030 -0.041890
1.000000 0.012920 -0.041960
0.029060 0.088980 -0.004540
0.099190 0.088270 -0.007210
0.169320 0.087560 -0.009880
0.239450 0.086850 -0.012550
0.309580 0.086140 -0.015220
0.379710 0.085430 -0.017890
0.449840 0.084720 -0.020560
0.519970 0.084010 -0.023230
0.590100 0.083300 -0.025900
0.660230 0.082590 -0.028570
0.730360 0.081880 -0.031240
0.800490 0.081170 -0.033910
0.870620 0.080460 -0.036580
0.940750 0.079750 -0.039250
1.000000 0.079040 -0.041920
1.000000 0.078530 -0.044390
1.000000 0.080420 -0.044460
0.026560 0.156480 -0.007040
0.096690 0.155770 -0.009710
0.166820 0.155060 -0.012380
0.236950 0.154350 -0.015050
0.307080 0.153640 -0.017720
0.377210 0.152930 -0.020390
0.447340 0.152220 -0.023060
0.517470 0.151510 -0.025730
0.587600 0.150800 -0.028400
0.657730 0.150090 -0.031070
0.727860 0.149380 -0.033740
0.797990 0.148670 -0.036410
0.868120 0.147960 -0.039080
0.938250 0.147250 -0.041750
1.000000 0.146540 -0.044420
1.000000 0.146030 -0.046890
1.000000 0.147920 -0.046960
0.024060 0.223980 -0.009540
0.094190 0.223270 -0.012210
0.164320 0.222560 -0.014880
0.234450 0.221850 -0.017550
0.304580 0.221140 -0.020220
0.374710 0.220430 -0.022890
0.444840 0.219720 -0.025560
0.514970 0.219010 -0.028230
0.585100 0.218300 -0.030900
0.655230 0.217590 -0.033570
0.725360 0.216880 -0.036240
0.795490 0.216170 -0.038910
0.865620 0.215460 -0.041580
0.935750 0.214750 -0.044250
1.000000 0.214040 -0.046920
1.000000 0.213530 -0.049390
1.000000 0.215420 -0.049460
0.021560 0.291480 -0.012040
0.091690 0.290770 -0.014710
0.161820 0.290060 -0.017380
0.231950 0.289350 -0.020050
0.302080 0.288640 -0.022720
0.372210 0.287930 -0.025390
0.442340 0.287220 -0.028060
0.512470 0.286510 -0.030730
0.582600 0.285800 -0.033400
0.652730 0.285090 -0.036070
0.722860 0.284380 -0.038740
0.792990 0.283670 -0.041410
0.863120 0.282960 -0.044080
0.933250 0.282250 -0.046750
1.000000 0.281540 -0.049420
1.000000 0.281030 -0.051890
1.000000 0.282920 -0.051960
0.019060 0.358980 -0.014540
0.089190 0.358270 -0.017210
0.159320 0.357560 -0.019880
0.229450 0.356850 -0.022550
0.299580 0.356140 -0.025220
0.369710 0.355430 -0.027890
0.439840 0.354720 -0.030560
0.509970 0.354010 -0.033230
0.580100 0.353300 -0.035900
0.650230 0.352590 -0.038570
0.720360 0.351880 -0.041240
0.790490 0.351170 -0.043910
0.860620 0.350460 -0.046580
0.930750 0.349750 -0.049250
1.000000 0.349040 -0.051920
1.000000 0.348530 -0.054390
1.000000 0.350420 -0.054460
0.016560 0.426480 -0.017040
0.086690 0.425770 -0.019710
0.156820 0.425060 -0.022380
0.226950 0.424350 -0.025050
0.297080 0.423640 -0.027720
0.367210 0.422930 -0.030390
0.437340 0.422220 -0.033060
0.507470 0.421510 -0.035730
0.577600 0.420800 -0.038400
0.647730 0.420090 -0.041070
0.717860 0.419380 -0.043740
0.787990 0.418670 -0.046410
0.858120 0.417960 -0.049080
0.928250 0.417250 -0.051750
0.998380 0.416540 -0.054420
1.000000 0.416030 -0.056890
1.000000 0.417920 -0.056960
0.014060 0.493980 -0.019540
0.084190 0.493270 -0.022210
0.154320 0.492560 -0.024880
0.224450 0.491850 -0.027550
0.294580 0.491140 -0.030220
0.364710 0.490430 -0.032890
0.434840 0.489720 -0.035560
0.504970 0.489010 -0.038230
0.575100 0.488300 -0.040900
0.645230 0.487590 -0.043570
0.715360 0.486880 -0.046240
0.785490 0.486170 -0.048910
0.855620 0.485460 -0.051580
0.925750 0.484750 -0.054250
0.995880 0.484040 -0.056920
1.000000 0.483530 -0.059390
1.000000 0.485420 -0.059460
0.011560 0.561480 -0.022040
0.081690 0.560770 -0.024710
0.151820 0.560060 -0.027380
0.221950 0.559350 -0.030050
0.292080 0.558640 -0.032720
0.362210 0.557930 -0.035390
0.432340 0.557220 -0.038060
0.502470 0.556510 -0.040730
0.572600 0.555800 -0.043400
0.642730 0.555090 -0.046070
0.712860 0.554380 -0.048740
0.782990 0.553670 -0.051410
0.853120 0.552960 -0.054080
0.923250 0.552250 -0.056750
0.993380 0.551540 -0.059420
1.000000 0.551030 -0.061890
1.000000 0.552920 -0.061960
0.009060 0.628980 -0.024540
0.079190 0.628270 -0.027210
0.149320 0.627560 -0.029880
0.219450 0.626850 -0.032550
0.289580 0.626140 -0.035220
0.359710 0.625430 -0.037890
0.429840 0.624720 -0.040560
0.499970 0.624010 -0.043230
0.570100 0.623300 -0.045900
0.640230 0.622590 -0.048570
0.710360 0.621880 -0.051240
0.780490 0.621170 -0.053910
0.850620 0.620460 -0.056580
0.920750 0.619750 -0.059250
0.990880 0.619040 -0.061920
1.000000 0.618530 -0.064390
1.000000 0.620420 -0.064460
0.006560 0.696480 -0.027040
0.076690 0.695770 -0.029710
0.146820 0.695060 -0.032380
0.216950 0.694350 -0.035050
0.287080 0.693640 -0.037720
0.357210 0.692930 -0.040390
0.427340 0.692220 -0.043060
0.497470 0.691510 -0.045730
0.567600 0.690800 -0.048400
0.637730 0.690090 -0.051070
0.707860 0.689380 -0.053740
0.777990 0.688670 -0.056410
0.848120 0.687960 -0.059080
0.918250 0.687250 -0.061750
0.988380 0.686540 -0.064420
1.000000 0.686030 -0.066890
1.000000 0.687920 -0.066960
0.004060 0.763980 -0.029540
0.074190 0.763270 -0.032210
0.144320 0.762560 -0.034880
0.214450 0.761850 -0.037550
0.284580 0.761140 -0.040220
0.354710 0.760430 -0.042890
0.424840 0.759720 -0.045560
0.494970 0.759010 -0.048230
0.565100 0.758300 -0.050900
0.635230 0.757590 -0.053570
0.705360 0.756880 -0.056240
0.775490 0.756170 -0.058910
0.845620 0.755460 -0.061580
0.915750 0.754750 -0.064250
0.985880 0.754040 -0.066920
1.000000 0.753530 -0.069390
1.000000 0.755420 -0.069460
0.001560 0.831480 -0.032040
0.071690 0.830770 -0.034710
0.141820 0.830060 -0.037380
0.211950 0.829350 -0.040050
0.282080 0.828640 -0.042720
0.352210 0.827930 -0.045390
0.422340 0.827220 -0.048060
0.492470 0.826510 -0.050730
0.562600 0.825800 -0.053400
0.632730 0.825090 -0.056070
0.702860 0.824380 -0.058740
0.772990 0.823670 -0.061410
0.843120 0.822960 -0.064080
0.913250 0.822250 -0.066750
0.983380 0.821540 -0.069420
1.000000 0.821030 -0.071890
1.000000 0.822920 -0.071960
-0.000940 0.898980 -0.034540
0.069190 0.898270 -0.037210
0.139320 0.897560 -0.039880
0.209450 0.896850 -0.042550
0.279580 0.896140 -0.045220
0.349710 0.895430 -0.047890
0.419840 0.894720 -0.050560
0.489970 0.894010 -0.053230
0.560100 0.893300 -0.055900
0.630230 0.892590 -0.058570
0.700360 0.891880 -0.061240
0.770490 0.891170 -0.063910
0.840620 0.890460 -0.066580
0.910750 0.889750 -0.069250
0.980880 0.889040 -0.071920
1.000000 0.888530 -0.074390
1.000000 0.890420 -0.074460
-0.003440 0.966480 -0.037040
0.066690 0.965770 -0.039710
0.136820 0.965060 -0.042380
0.206950 0.964350 -0.045050
0.277080 0.963640 -0.047720
0.347210 0.962930 -0.050390
0.417340 0.962220 -0.053060
0.487470 0.961510 -0.055730
0.557600 0.960800 -0.058400
0.627730 0.960090 -0.061070
0.697860 0.959380 -0.063740
0.767990 0.958670 -0.066410
0.838120 0.957960 -0.069080
0.908250 0.957250 -0.071750
0.978380 0.956540 -0.074420
1.000000 0.956030 -0.076890
1.000000 0.957920 -0.076960
-0.005940 1.000000 -0.039540
0.064190 1.000000 -0.042210
0.134320 1.000000 -0.044880
0.204450 1.000000 -0.047550
0.274580 1.000000 -0.050220
0.344710 1.000000 -0.052890
0.414840 1.000000 -0.055560
0.484970 1.000000 -0.058230
0.555100 1.000000 -0.060900
0.625230 1.000000 -0.063570
0.695360 1.000000 -0.066240
0.765490 1.000000 -0.068910
0.835620 1.000000 -0.071580
0.905750 1.000000 -0.074250
0.975880 1.000000 -0.076920
1.000000 1.000000 -0.079390
1.000000 1.000000 -0.079460
-0.007600 1.000000 -0.041200
0.062600 1.000000 -0.043800
0.132800 1.000000 -0.046400
0.203000 1.000000 -0.049000
0.273200 1.000000 -0.051600
0.343400 1.000000 -0.054200
0.413600 1.000000 -0.056800
0.483800 1.000000 -0.059400
0.554000 1.000000 -0.062000
0.624200 1.000000 -0.064600
0.694400 1.000000 -0.067200
0.764600 1.000000 -0.069800
0.834800 1.000000 -0.072400
0.905000 1.000000 -0.075000
0.975200 1.000000 -0.077600
1.000000 1.000000 -0.080000
1.000000 1.000000 -0.080000
0.029420 0.019340 0.055740
0.099580 0.018660 0.052260
0.169740 0.017980 0.048780
0.239900 0.017300 0.045300
0.310060 0.016620 0.041820
0.380220 0.015940 0.038340
0.450380 0.015260 0.034860
0.520540 0.014580 0.031380
0.590700 0.013900 0.027900
0.660860 0.013220 0.024420
0.731020 0.012540 0.020940
0.801180 0.011860 0.017460
0.871340 0.011180 0.013980
0.941500 0.010500 0.010500
1.000000 0.009820 0.007020
1.000000 0.009340 0.003740
1.000000 0.011260 0.002860
0.026920 0.086840 0.053240
0.097080 0.086160 0.049760
0.167240 0.085480 0.046280
0.237400 0.084800 0.042800
0.307560 0.084120 0.039320
0.377720 0.083440 0.035840
0.447880 0.082760 0.032360
0.518040 0.082080 0.028880
0.588200 0.081400 0.025400
0.658360 0.080720 0.021920
0.728520 0.080040 0.018440
0.798680 0.079360 0.014960
0.868840 0.078680 0.011480
0.939000 0.078000 0.008000
1.000000 0.077320 0.004520
1.000000 0.076840 0.001240
1.000000 0.078760 0.000360
0.024420 0.154340 0.050740
0.094580 0.153660 0.047260
0.164740 0.152980 0.043780
0.234900 0.152300 0.040300
0.305060 0.151620 0.036820
0.375220 0.150940 0.033340
0.445380 0.150260 0.029860
0.515540 0.149580 0.026380
0.585700 0.148900 0.022900
0.655860 0.148220 0.019420
0.726020 0.147540 0.015940
0.796180 0.146860 0.012460
0.866340 0.146180 0.008980
0.936500 0.145500 0.005500
1.000000 0.144820 0.002020
1.000000 0.144340 -0.001260
1.000000 0.146260 -0.002140
0.021920 0.221840 0.048240
0.092080 0.221160 0.044760
0.162240 0.220480 0.041280
0.232400 0.219800 0.037800
0.302560 0.219120 0.034320
0.372720 0.218440 0.030840
0.442880 0.217760 0.027360
0.513040 0.217080 0.023880
0.583200 0.216400 0.020400
0.653360 0.215720 0.016920
0.723520 0.215040 0.013440
0.793680 0.214360 0.009960
0.863840 0.213680 0.006480
0.934000 0.213000 0.003000
1.000000 0.212320 -0.000480
1.000000 0.211840 -0.003760
1.000000 0.213760 -0.004640
0.019420 0.289340 0.045740
0.089580 0.288660 0.042260
0.159740 0.287980 0.038780
0.229900 0.287300 0.035300
0.300060 0.286620 0.031820
0.370220 0.285940 0.028340
0.440380 0.285260 0.024860
0.510540 0.284580 0.021380
0.580700 0.283900 0.017900
0.650860 0.283220 0.014420
0.721020 0.282540 0.010940
0.791180 0.281860 0.007460
0.861340 0.281180 0.003980
0.931500 0.280500 0.000500
1.000000 0.279820 -0.002980
1.000000 0.279340 -0.006260
1.000000 0.281260 -0.007140
0.016920 0.356840 0.043240
0.087080 0.356160 0.039760
0.157240 0.355480 0.036280
0.227400 0.354800 0.032800
0.297560 0.354120 0.029320
0.367720 0.353440 0.025840
0.437880 0.352760 0.022360
0.508040 0.352080 0.018880
0.578200 0.351400 0.015400
0.648360 0.350720 0.011920
0.718520 0.350040 0.008440
0.788680 0.349360 0.004960
0.858840 0.348680 0.001480
0.929000 0.348000 -0.002000
0.999160 0.347320 -0.005480
1.000000 0.346840 -0.008760
1.000000 0.348760 -0.009640
0.014420 0.424340 0.040740
0.084580 0.423660 0.037260
0.154740 0.422980 0.033780
0.224900 0.422300 0.030300
0.295060 0.421620 0.026820
0.365220 0.420940 0.023340
0.435380 0.420260 0.019860
0.505540 0.419580 0.016380
0.575700 0.418900 0.012900
0.645860 0.418220 0.009420
0.716020 0.417540 0.005940
0.786180 0.416860 0.002460
0.856340 0.416180 -0.001020
0.926500 0.415500 -0.004500
0.996660 0.414820 -0.007980
1.000000 0.414340 -0.011260
1.000000 0.416260 -0.012140
0.011920 0.491840 0.038240
0.082080 0.491160 0.034760
0.152240 0.490480 0.031280
0.222400 0.489800 0.027800
0.292560 0.489120 0.024320
0.362720 0.488440 0.020840
0.432880 0.487760 0.017360
0.503040 0.487080 0.013880
0.573200 0.486400 0.010400
0.643360 0.485720 0.006920
0.713520 0.485040 0.003440
0.783680 0.484360 -0.000040
0.853840 0.483680 -0.003520
0.924000 0.483000 -0.007000
0.994160 0.482320 -0.010480
1.000000 0.481840 -0.013760
1.000000 0.483760 -0.014640
0.009420 0.559340 0.035740
0.079580 0.558660 0.032260
0.149740 0.557980 0.028780
0.219900 0.557300 0.025300
0.290060 0.556620 0.021820
0.360220 0.555940 0.018340
0.430380 0.555260 0.014860
0.500540 0.554580 0.011380
0.570700 0.553900 0.007900
0.640860 0.553220 0.004420
0.711020 0.552540 0.000940
0.781180 0.551860 -0.002540
0.851340 0.551180 -0.006020
0.921500 0.550500 -0.009500
0.991660 0.549820 -0.012980
1.000000 0.549340 -0.016260
1.000000 0.551260 -0.017140
0.006920 0.626840 0.033240
0.077080 0.626160 0.029760
0.147240 0.625480 0.026280
0.217400 0.624800 0.022800
0.287560 0.624120 0.019320
0.357720 0.623440 0.015840
0.427880 0.622760 0.012360
0.498040 0.622080 0.008880
0.568200 0.621400 0.005400
0.638360 0.620720 0.001920
0.708520 0.620040 -0.001560
0.778680 0.619360 -0.005040
0.848840 0.618680 -0.008520
0.919000 0.618000 -0.012000
0.989160 0.617320 -0.015480
1.000000 0.616840 -0.018760
1.000000 0.618760 -0.019640
0.004420 0.694340 0.030740
0.074580 0.693660 0.027260
0.144740 0.692980 0.023780
0.214900 0.692300 0.020300
0.285060 0.691620 0.016820
0.355220 0.690940 0.013340
0.425380 0.690260 0.009860
0.495540 0.689580 0.006380
0.565700 0.688900 0.002900
0.635860 0.688220 -0.000580
0.706020 0.687540 -0.004060
0.776180 0.686860 -0.007540
0.846340 0.686180 -0.011020
0.916500 0.685500 -0.014500
0.986660 0.684820 -0.017980
1.000000 0.684340 -0.021260
1.000000 0.686260 -0.022140
0.001920 0.761840 0.028240
0.072080 0.761160 0.024760
0.142240 0.760480 0.021280
0.212400 0.759800 0.017800
0.282560 0.759120 0.014320
0.352720 0.758440 0.010840
0.422880 0.757760 0.007360
0.493040 0.757080 0.003880
0.563200 0.756400 0.000400
0.633360 0.755720 -0.003080
0.703520 0.755040 -0.006560
0.773680 0.754360 -0.010040
0.843840 0.753680 -0.013520
0.914000 0.753000 -0.017000
0.984160 0.752320 -0.020480
1.000000 0.751840 -0.023760
1.000000 0.753760 -0.024640
-0.000580 0.829340 0.025740
0.069580 0.828660 0.022260
0.139740 0.827980 0.018780
0.209900 0.827300 0.015300
0.280060 0.826620 0.011820
0.350220 0.825940 0.008340
0.420380 0.825260 0.004860
0.490540 0.824580 0.001380
0.560700 0.823900 -0.002100
0.630860 0.823220 -0.005580
0.701020 0.822540 -0.009060
0.771180 0.821860 -0.012540
0.841340 0.821180 -0.016020
0.911500 0.820500 -0.019500
0.981660 0.819820 -0.022980
1.000000 0.819340 -0.026260
1.000000 0.821260 -0.027140
-0.003080 0.896840 0.023240
0.067080 0.896160 0.019760
0.137240 0.895480 0.016280
0.207400 0.894800 0.012800
0.277560 0.894120 0.009320
0.347720 0.893440 0.005840
0.417880 0.892760 0.002360
0.488040 0.892080 -0.001120
0.558200 0.891400 -0.004600
0.628360 0.890720 -0.008080
0.698520 0.890040 -0.011560
0.768680 0.889360 -0.015040
0.838840 0.888680 -0.018520
0.909000 0.888000 -0.022000
0.979160 0.887320 -0.025480
1.000000 0.886840 -0.028760
1.000000 0.888760 -0.029640
-0.005580 0.964340 0.020740
0.064580 0.963660 0.017260
0.134740 0.962980 0.013780
0.204900 0.962300 0.010300
0.275060 0.961620 0.006820
0.345220 0.960940 0.003340
0.415380 0.960260 -0.000140
0.485540 0.959580 -0.003620
0.555700 0.958900 -0.007100
0.625860 0.958220 -0.010580
0.696020 0.957540 -0.014060
0.766180 0.956860 -0.017540
0.836340 0.956180 -0.021020
0.906500 0.955500 -0.024500
0.976660 0.954820 -0.027980
1.000000 0.954340 -0.031260
1.000000 0.956260 -0.032140
-0.008080 1.000000 0.018240
0.062080 1.000000 0.014760
0.132240 1.000000 0.011280
0.202400 1.000000 0.007800
0.272560 1.000000 0.004320
0.342720 1.000000 0.000840
0.412880 1.000000 -0.002640
0.483040 1.000000 -0.006120
0.553200 1.000000 -0.009600
0.623360 1.000000 -0.013080
0.693520 1.000000 -0.016560
0.763680 1.000000 -0.020040
0.833840 1.000000 -0.023520
0.904000 1.000000 -0.027000
0.974160 1.000000 -0.030480
1.000000 1.000000 -0.033760
1.000000 1.000000 -0.034640
-0.009740 1.000000 0.016580
0.060490 1.000000 0.013170
0.130720 1.000000 0.009760
0.200950 1.000000 0.006350
0.271180 1.000000 0.002940
0.341410 1.000000 -0.000470
0.411640 1.000000 -0.003880
0.481870 1.000000 -0.007290
0.552100 1.000000 -0.010700
0.622330 1.000000 -0.014110
0.692560 1.000000 -0.017520
0.762790 1.000000 -0.020930
0.833020 1.000000 -0.024340
0.903250 1.000000 -0.027750
0.973480 1.000000 -0.031160
1.000000 1.000000 -0.034370
1.000000 1.000000 -0.035180
0.026920 0.016840 0.123240
0.097080 0.016160 0.119760
0.167240 0.015480 0.116280
0.237400 0.014800 0.112800
0.307560 0.014120 0.109320
0.377720 0.013440 0.105840
0.447880 0.012760 0.102360
0.518040 0.012080 0.098880
0.588200 0.011400 0.095400
0.658360 0.010720 0.091920
0.728520 0.010040 0.088440
0.798680 0.009360 0.084960
0.868840 0.008680 0.081480
0.939000 0.008000 0.078000
1.000000 0.007320 0.074520
1.000000 0.006840 0.071240
1.000000 0.008760 0.070360
0.024420 0.084340 0.120740
0.094580 0.083660 0.117260
0.164740 0.082980 0.113780
0.234900 0.082300 0.110300
0.305060 0.081620 0.106820
0.375220 0.080940 0.103340
0.445380 0.080260 0.099860
0.515540 0.079580 0.096380
0.585700 0.078900 0.092900
0.655860 0.078220 0.089420
0.726020 0.077540 0.085940
0.796180 0.076860 0.082460
0.866340 0.076180 0.078980
0.936500 0.075500 0.075500
1.000000 0.074820 0.072020
1.000000 0.074340 0.068740
1.000000 0.076260 0.067860
0.021920 0.151840 0.118240
0.092080 0.151160 0.114760
0.162240 0.150480 0.111280
0.232400 0.149800 0.107800
0.302560 0.149120 0.104320
0.372720 0.148440 0.100840
0.442880 0.147760 0.097360
0.513040 0.147080 0.093880
0.583200 0.146400 0.090400
0.653360 0.145720 0.086920
0.723520 0.145040 0.083440
0.793680 0.144360 0.079960
0.863840 0.143680 0.076480
0.934000 0.143000 0.073000
1.000000 0.142320 0.069520
1.000000 0.141840 0.066240
1.000000 0.143760 0.065360
0.019420 0.219340 0.115740
0.089580 0.218660 0.112260
0.159740 0.217980 0.108780
0.229900 0.217300 0.105300
0.300060 0.216620 0.101820
0.370220 0.215940 0.098340
0.440380 0.215260 0.094860
0.510540 0.214580 0.091380
0.580700 0.213900 0.087900
0.650860 0.213220 0.084420
0.721020 0.212540 0.080940
0.791180 0.211860 0.077460
0.861340 0.211180 0.073980
0.931500 0.210500 0.070500
1.000000 0.209820 0.067020
1.000000 0.209340 0.063740
1.000000 0.211260 0.062860
0.016920 0.286840 0.113240
0.087080 0.286160 0.109760
0.157240 0.285480 0.106280
0.227400 0.284800 0.102800
0.297560 0.284120 0.099320
0.367720 0.283440 0.095840
0.437880 0.282760 0.092360
0.508040 0.282080 0.088880
0.578200 0.281400 0.085400
0.648360 0.280720 0.081920
0.718520 0.280040 0.078440
0.788680 0.279360 0.074960
0.858840 0.278680 0.071480
0.929000 0.278000 0.068000
0.999160 0.277320 0.064520
1.000000 0.276840 0.061240
1.000000 0.278760 0.060360
0.014420 0.354340 0.110740
0.084580 0.353660 0.107260
0.154740 0.352980 0.103780
0.224900 0.352300 0.100300
0.295060 0.351620 0.096820
0.365220 0.350940 0.093340
0.435380 0.350260 0.089860
0.505540 0.349580 0.086380
0.575700 0.348900 0.082900
0.645860 0.348220 0.079420
0.716020 0.347540 0.075940
0.786180 0.346860 0.072460
0.856340 0.346180 0.068980
0.926500 0.345500 0.065500
0.996660 0.344820 0.062020
1.000000 0.344340 0.058740
1.000000 0.346260 0.057860
0.011920 0.421840 0.108240
0.082080 0.421160 0.104760
0.152240 0.420480 0.101280
0.222400 0.419800 0.097800
0.292560 0.419120 0.094320
0.362720 0.418440 0.090840
0.432880 0.417760 0.087360
0.503040 0.417080 0.083880
0.573200 0.416400 0.080400
0.643360 0.415720 0.076920
0.713520 0.415040 0.073440
0.783680 0.414360 0.069960
0.853840 0.413680 0.066480
0.924000 0.413000 0.063000
0.994160 0.412320 0.059520
1.000000 0.411840 0.056240
1.000000 0.413760 0.055360
0.009420 0.489340 0.105740
0.079580 0.488660 0.102260
0.149740 0.487980 0.098780
0.219900 0.487300 0.095300
0.290060 0.486620 0.091820
0.360220 0.485940 0.088340
0.430380 0.485260 0.084860
0.500540 0.484580 0.081380
0.570700 0.483900 0.077900
0.640860 0.483220 0.074420
0.711020 0.482540 0.070940
0.781180 0.481860 0.067460
0.851340 0.481180 0.063980
0.921500 0.480500 0.060500
0.991660 0.479820 0.057020
1.000000 0.479340 0.053740
1.000000 0.481260 0.052860
0.006920 0.556840 0.103240
0.077080 0.556160 0.099760
0.147240 0.555480 0.096280
0.217400 0.554800 0.092800
0.287560 0.554120 0.089320
0.357720 0.553440 0.085840
0.427880 0.552760 0.082360
0.498040 0.552080 0.078880
0.568200 0.551400 0.075400
0.638360 0.550720 0.071920
0.708520 0.550040 0.068440
0.778680 0.549360 0.064960
0.848840 0.548680 0.061480
0.919000 0.548000 0.058000
0.989160 0.547320 0.054520
1.000000 0.546840 0.051240
1.000000 0.548760 0.050360
0.004420 0.624340 0.100740
0.074580 0.623660 0.097260
0.144740 0.622980 0.093780
0.214900 0.622300 0.090300
0.285060 0.621620 0.086820
0.355220 0.620940 0.083340
0.425380 0.620260 0.079860
0.495540 0.619580 0.076380
0.565700 0.618900 0.072900
0.635860 0.618220 0.069420
0.706020 0.617540 0.065940
0.776180 0.616860 0.062460
0.846340 0.616180 0.058980
0.916500 0.615500 0.055500
0.986660 0.614820 0.052020
1.000000 0.614340 0.048740
1.000000 0.616260 0.047860
0.001920 0.691840 0.098240
0.072080 0.691160 0.094760
0.142240 0.690480 0.091280
0.212400 0.689800 0.087800
0.282560 0.689120 0.084320
0.352720 0.688440 0.080840
0.422880 0.687760 0.077360
0.493040 0.687080 0.073880
0.563200 0.686400 0.070400
0.633360 0.685720 0.066920
0.703520 0.685040 0.063440
0.773680 0.684360 0.059960
0.843840 0.683680 0.056480
0.914000 0.683000 0.053000
0.984160 0.682320 0.049520
1.000000 0.681840 0.046240
1.000000 0.683760 0.045360
-0.000580 0.759340 0.095740
0.069580 0.758660 0.092260
0.139740 0.757980 0.088780
0.209900 0.757300 0.085300
0.280060 0.756620 0.081820
0.350220 0.755940 0.078340
0.420380 0.755260 0.074860
0.490540 0.754580 0.071380
0.560700 0.753900 0.067900
0.630860 0.753220 0.064420
0.701020 0.752540 0.060940
0.771180 0.751860 0.057460
0.841340 0.751180 0.053980
0.911500 0.750500 0.050500
0.981660 0.749820 0.047020
1.000000 0.749340 0.043740
1.000000 0.751260 0.042860
-0.003080 0.826840 0.093240
0.067080 0.826160 0.089760
0.137240 0.825480 0.086280
0.207400 0.824800 0.082800
0.277560 0.824120 0.079320
0.347720 0.823440 0.075840
0.417880 0.822760 0.072360
0.488040 0.822080 0.068880
0.558200 0.821400 0.065400
0.628360 0.820720 0.061920
0.698520 0.820040 0.058440
0.768680 0.819360 0.054960
0.838840 0.818680 0.051480
0.909000 0.818000 0.048000
0.979160 0.817320 0.044520
1.000000 0.816840 0.041240
1.000000 0.818760 0.040360
-0.005580 0.894340 0.090740
0.064580 0.893660 0.087260
0.134740 0.892980 0.083780
0.204900 0.892300 0.080300
0.275060 0.891620 0.076820
0.345220 0.890940 0.073340
0.415380 0.890260 0.069860
0.485540 0.889580 0.066380
0.555700 0.888900 0.062900
0.625860 0.888220 0.059420
0.696020 0.887540 0.055940
0.766180 0.886860 0.052460
0.836340 0.886180 0.048980
0.906500 0.885500 0.045500
0.976660 0.884820 0.042020
1.000000 0.884340 0.038740
1.000000 0.886260 0.037860
-0.008080 0.961840 0.088240
0.062080 0.961160 0.084760
0.132240 0.960480 0.081280
0.202400 0.959800 0.077800
0.272560 0.959120 0.074320
0.342720 0.958440 0.070840
0.412880 0.957760 0.067360
0.483040 0.957080 0.063880
0.553200 0.956400 0.060400
0.623360 0.955720 0.056920
0.693520 0.955040 0.053440
0.763680 0.954360 0.049960
0.833840 0.953680 0.046480
0.904000 0.953000 0.043000
0.974160 0.952320 0.039520
1.000000 0.951840 0.036240
1.000000 0.953760 0.035360
-0.010580 1.000000 0.085740
0.059580 1.000000 0.082260
0.129740 1.000000 0.078780
0.199900 1.000000 0.075300
0.270060 1.000000 0.071820
0.340220 1.000000 0.068340
0.410380 1.000000 0.064860
0.480540 1.000000 0.061380
0.550700 1.000000 0.057900
0.620860 1.000000 0.054420
0.691020 1.000000 0.050940
0.761180 1.000000 0.047460
0.831340 1.000000 0.043980
0.901500 1.000000 0.040500
0.971660 1.000000 0.037020
1.000000 1.000000 0.033740
1.000000 1.000000 0.032860
-0.012240 1.000000 0.084080
0.057990 1.000000 0.080670
0.128220 1.000000 0.077260
0.198450 1.000000 0.073850
0.268680 1.000000 0.070440
0.338910 1.000000 0.067030
0.409140 1.000000 0.063620
0.479370 1.000000 0.060210
0.549600 1.000000 0.056800
0.619830 1.000000 0.053390
0.690060 1.000000 0.049980
0.760290 1.000000 0.046570
0.830520 1.000000 0.043160
0.900750 1.000000 0.039750
0.970980 1.000000 0.036340
1.000000 1.000000 0.033130
1.000000 1.000000 0.032320
0.024420 0.014340 0.190740
0.094580 0.013660 0.187260
0.164740 0.012980 0.183780
0.234900 0.012300 0.180300
0.305060 0.011620 0.176820
