hermes-skills/ugc-video-pipeline/luts/warm_social.cube
TITLE "Warm Social"
LUT_3D_SIZE 5
0.031560 0.021480 -0.002040
0.312080 0.018640 -0.012720
0.592600 0.015800 -0.023400
0.873120 0.012960 -0.034080
1.000000 0.012920 -0.041960
0.021560 0.291480 -0.012040
0.302080 0.288640 -0.022720
0.582600 0.285800 -0.033400
0.863120 0.282960 -0.044080
1.000000 0.282920 -0.051960
0.011560 0.561480 -0.022040
0.292080 0.558640 -0.032720
0.572600 0.555800 -0.043400
0.853120 0.552960 -0.054080
1.000000 0.552920 -0.061960
0.001560 0.831480 -0.032040
0.282080 0.828640 -0.042720
0.562600 0.825800 -0.053400
0.843120 0.822960 -0.064080
1.000000 0.822920 -0.071960
-0.007600 1.000000 -0.041200
0.273200 1.000000 -0.051600
0.554000 1.000000 -0.062000
0.834800 1.000000 -0.072400
1.000000 1.000000 -0.080000
0.021920 0.011840 0.258240
0.302560 0.009120 0.244320
0.583200 0.006400 0.230400
0.863840 0.003680 0.216480
1.000000 0.003760 0.205360
0.011920 0.281840 0.248240
0.292560 0.279120 0.234320
0.573200 0.276400 0.220400
0.853840 0.273680 0.206480
1.000000 0.273760 0.195360
0.001920 0.551840 0.238240
0.282560 0.549120 0.224320
0.563200 0.546400 0.210400
0.843840 0.543680 0.196480
1.000000 0.543760 0.185360
-0.008080 0.821840 0.228240
0.272560 0.819120 0.214320
0.553200 0.816400 0.200400
0.833840 0.813680 0.186480
1.000000 0.813760 0.175360
-0.017240 1.000000 0.219080
0.263680 1.000000 0.205440
0.544600 1.000000 0.191800
0.825520 1.000000 0.178160
1.000000 1.000000 0.167320
0.011920 0.001840 0.528240
0.292560 -0.000880 0.514320
0.573200 -0.003600 0.500400
0.853840 -0.006320 0.486480
1.000000 -0.006240 0.475360
0.001920 0.271840 0.518240
0.282560 0.269120 0.504320
0.563200 0.266400 0.490400
0.843840 0.263680 0.476480
1.000000 0.263760 0.465360
-0.008080 0.541840 0.508240
0.272560 0.539120 0.494320
0.553200 0.536400 0.480400
0.833840 0.533680 0.466480
1.000000 0.533760 0.455360
-0.018080 0.811840 0.498240
0.262560 0.809120 0.484320
0.543200 0.806400 0.470400
0.823840 0.803680 0.456480
1.000000 0.803760 0.445360
-0.027240 1.000000 0.489080
0.253680 1.000000 0.475440
0.534600 1.000000 0.461800
0.815520 1.000000 0.448160
1.000000 1.000000 0.437320
0.001920 -0.008160 0.798240
0.282560 -0.010880 0.784320
0.563200 -0.013600 0.770400
0.843840 -0.016320 0.756480
1.000000 -0.016240 0.745360
-0.008080 0.261840 0.788240
0.272560 0.259120 0.774320
0.553200 0.256400 0.760400
0.833840 0.253680 0.746480
1.000000 0.253760 0.735360
-0.018080 0.531840 0.778240
0.262560 0.529120 0.764320
0.543200 0.526400 0.750400
0.823840 0.523680 0.736480
1.000000 0.523760 0.725360
-0.028080 0.801840 0.768240
0.252560 0.799120 0.754320
0.533200 0.796400 0.740400
0.813840 0.793680 0.726480
1.000000 0.793760 0.715360
-0.037240 1.000000 0.759080
0.243680 1.000000 0.745440
0.524600 1.000000 0.731800
0.805520 1.000000 0.718160
1.000000 1.000000 0.707320
-0.008080 -0.018160 1.000000
0.272560 -0.020880 1.000000
0.553200 -0.023600 1.000000
0.833840 -0.026320 1.000000
1.000000 -0.026240 1.000000
-0.018080 0.251840 1.000000
0.262560 0.249120 1.000000
0.543200 0.246400 1.000000
0.823840 0.243680 1.000000
1.000000 0.243760 1.000000
-0.028080 0.521840 1.000000
0.252560 0.519120 1.000000
0.533200 0.516400 1.000000
0.813840 0.513680 1.000000
1.000000 0.513760 0.995360
-0.038080 0.791840 1.000000
0.242560 0.789120 1.000000
0.523200 0.786400 1.000000
0.803840 0.783680 0.996480
1.000000 0.783760 0.985360
-0.047240 1.000000 1.000000
0.233680 1.000000 1.000000
0.514600 1.000000 1.000000
0.795520 1.000000 0.988160
1.000000 1.000000 0.977320
