hermes-skills/ugc-video-pipeline/luts/warm_social.cube
TITLE "Warm Social"
LUT_3D_SIZE 9
0.031560 0.021480 -0.002040
0.171820 0.020060 -0.007380
0.312080 0.018640 -0.012720
0.452340 0.017220 -0.018060
0.592600 0.015800 -0.023400
0.732860 0.014380 -0.028740
0.873120 0.012960 -0.034080
1.000000 0.011540 -0.039420
1.000000 0.012920 -0.041960
0.026560 0.156480 -0.007040
0.166820 0.155060 -0.012380
0.307080 0.153640 -0.017720
0.447340 0.152220 -0.023060
0.587600 0.150800 -0.028400
0.727860 0.149380 -0.033740
0.868120 0.147960 -0.039080
1.000000 0.146540 -0.044420
1.000000 0.147920 -0.046960
0.021560 0.291480 -0.012040
0.161820 0.290060 -0.017380
0.302080 0.288640 -0.022720
0.442340 0.287220 -0.028060
0.582600 0.285800 -0.033400
0.722860 0.284380 -0.038740
0.863120 0.282960 -0.044080
1.000000 0.281540 -0.049420
1.000000 0.282920 -0.051960
0.016560 0.426480 -0.017040
0.156820 0.425060 -0.022380
0.297080 0.423640 -0.027720
0.437340 0.422220 -0.033060
0.577600 0.420800 -0.038400
0.717860 0.419380 -0.043740
0.858120 0.417960 -0.049080
0.998380 0.416540 -0.054420
1.000000 0.417920 -0.056960
0.011560 0.561480 -0.022040
0.151820 0.560060 -0.027380
0.292080 0.558640 -0.032720
0.432340 0.557220 -0.038060
0.572600 0.555800 -0.043400
0.712860 0.554380 -0.048740
0.853120 0.552960 -0.054080
0.993380 0.551540 -0.059420
1.000000 0.552920 -0.061960
0.006560 0.696480 -0.027040
0.146820 0.695060 -0.032380
0.287080 0.693640 -0.037720
0.427340 0.692220 -0.043060
0.567600 0.690800 -0.048400
0.707860 0.689380 -0.053740
0.848120 0.687960 -0.059080
0.988380 0.686540 -0.064420
1.000000 0.687920 -0.066960
0.001560 0.831480 -0.032040
0.141820 0.830060 -0.037380
0.282080 0.828640 -0.042720
0.422340 0.827220 -0.048060
0.562600 0.825800 -0.053400
0.702860 0.824380 -0.058740
0.843120 0.822960 -0.064080
0.983380 0.821540 -0.069420
1.000000 0.822920 -0.071960
-0.003440 0.966480 -0.037040
0.136820 0.965060 -0.042380
0.277080 0.963640 -0.047720
0.417340 0.962220 -0.053060
0.557600 0.960800 -0.058400
0.697860 0.959380 -0.063740
0.838120 0.957960 -0.069080
0.978380 0.956540 -0.074420
1.000000 0.957920 -0.076960
-0.007600 1.000000 -0.041200
0.132800 1.000000 -0.046400
0.273200 1.000000 -0.051600
0.413600 1.000000 -0.056800
0.554000 1.000000 -0.062000
0.694400 1.000000 -0.067200
0.834800 1.000000 -0.072400
0.975200 1.000000 -0.077600
1.000000 1.000000 -0.080000
0.026920 0.016840 0.123240
0.167240 0.015480 0.116280
0.307560 0.014120 0.109320
0.447880 0.012760 0.102360
0.588200 0.011400 0.095400
0.728520 0.010040 0.088440
0.868840 0.008680 0.081480
1.000000 0.007320 0.074520
1.000000 0.008760 0.070360
0.021920 0.151840 0.118240
0.162240 0.150480 0.111280
0.302560 0.149120 0.104320
0.442880 0.147760 0.097360
0.583200 0.146400 0.090400
0.723520 0.145040 0.083440
0.863840 0.143680 0.076480
1.000000 0.142320 0.069520
1.000000 0.143760 0.065360
0.016920 0.286840 0.113240
0.157240 0.285480 0.106280
0.297560 0.284120 0.099320
0.437880 0.282760 0.092360
0.578200 0.281400 0.085400
0.718520 0.280040 0.078440
0.858840 0.278680 0.071480
0.999160 0.277320 0.064520
1.000000 0.278760 0.060360
0.011920 0.421840 0.108240
0.152240 0.420480 0.101280
0.292560 0.419120 0.094320
0.432880 0.417760 0.087360
0.573200 0.416400 0.080400
0.713520 0.415040 0.073440
0.853840 0.413680 0.066480
0.994160 0.412320 0.059520
1.000000 0.413760 0.055360
0.006920 0.556840 0.103240
0.147240 0.555480 0.096280
0.287560 0.554120 0.089320
0.427880 0.552760 0.082360
0.568200 0.551400 0.075400
0.708520 0.550040 0.068440
0.848840 0.548680 0.061480
0.989160 0.547320 0.054520
1.000000 0.548760 0.050360
0.001920 0.691840 0.098240
0.142240 0.690480 0.091280
0.282560 0.689120 0.084320
0.422880 0.687760 0.077360
0.563200 0.686400 0.070400
0.703520 0.685040 0.063440
0.843840 0.683680 0.056480
0.984160 0.682320 0.049520
1.000000 0.683760 0.045360
-0.003080 0.826840 0.093240
0.137240 0.825480 0.086280
0.277560 0.824120 0.079320
0.417880 0.822760 0.072360
0.558200 0.821400 0.065400
0.698520 0.820040 0.058440
0.838840 0.818680 0.051480
0.979160 0.817320 0.044520
1.000000 0.818760 0.040360
-0.008080 0.961840 0.088240
0.132240 0.960480 0.081280
0.272560 0.959120 0.074320
0.412880 0.957760 0.067360
0.553200 0.956400 0.060400
0.693520 0.955040 0.053440
0.833840 0.953680 0.046480
0.974160 0.952320 0.039520
1.000000 0.953760 0.035360
-0.012240 1.000000 0.084080
0.128220 1.000000 0.077260
0.268680 1.000000 0.070440
0.409140 1.000000 0.063620
0.549600 1.000000 0.056800
0.690060 1.000000 0.049980
0.830520 1.000000 0.043160
0.970980 1.000000 0.036340
1.000000 1.000000 0.032320
0.021920 0.011840 0.258240
0.162240 0.010480 0.251280
0.302560 0.009120 0.244320
0.442880 0.007760 0.237360
0.583200 0.006400 0.230400
0.723520 0.005040 0.223440
0.863840 0.003680 0.216480
1.000000 0.002320 0.209520
1.000000 0.003760 0.205360
0.016920 0.146840 0.253240
0.157240 0.145480 0.246280
0.297560 0.144120 0.239320
0.437880 0.142760 0.232360
0.578200 0.141400 0.225400
0.718520 0.140040 0.218440
0.858840 0.138680 0.211480
0.999160 0.137320 0.204520
1.000000 0.138760 0.200360
0.011920 0.281840 0.248240
0.152240 0.280480 0.241280
0.292560 0.279120 0.234320
0.432880 0.277760 0.227360
0.573200 0.276400 0.220400
0.713520 0.275040 0.213440
0.853840 0.273680 0.206480
0.994160 0.272320 0.199520
1.000000 0.273760 0.195360
0.006920 0.416840 0.243240
0.147240 0.415480 0.236280
0.287560 0.414120 0.229320
0.427880 0.412760 0.222360
0.568200 0.411400 0.215400
0.708520 0.410040 0.208440
0.848840 0.408680 0.201480
0.989160 0.407320 0.194520
1.000000 0.408760 0.190360
0.001920 0.551840 0.238240
0.142240 0.550480 0.231280
0.282560 0.549120 0.224320
0.422880 0.547760 0.217360
0.563200 0.546400 0.210400
0.703520 0.545040 0.203440
0.843840 0.543680 0.196480
0.984160 0.542320 0.189520
1.000000 0.543760 0.185360
-0.003080 0.686840 0.233240
0.137240 0.685480 0.226280
0.277560 0.684120 0.219320
0.417880 0.682760 0.212360
0.558200 0.681400 0.205400
0.698520 0.680040 0.198440
0.838840 0.678680 0.191480
0.979160 0.677320 0.184520
1.000000 0.678760 0.180360
-0.008080 0.821840 0.228240
0.132240 0.820480 0.221280
0.272560 0.819120 0.214320
0.412880 0.817760 0.207360
0.553200 0.816400 0.200400
0.693520 0.815040 0.193440
0.833840 0.813680 0.186480
0.974160 0.812320 0.179520
1.000000 0.813760 0.175360
-0.013080 0.956840 0.223240
0.127240 0.955480 0.216280
0.267560 0.954120 0.209320
0.407880 0.952760 0.202360
0.548200 0.951400 0.195400
0.688520 0.950040 0.188440
0.828840 0.948680 0.181480
0.969160 0.947320 0.174520
1.000000 0.948760 0.170360
-0.017240 1.000000 0.219080
0.123220 1.000000 0.212260
0.263680 1.000000 0.205440
0.404140 1.000000 0.198620
0.544600 1.000000 0.191800
0.685060 1.000000 0.184980
0.825520 1.000000 0.178160
0.965980 1.000000 0.171340
1.000000 1.000000 0.167320
0.016920 0.006840 0.393240
0.157240 0.005480 0.386280
0.297560 0.004120 0.379320
0.437880 0.002760 0.372360
0.578200 0.001400 0.365400
0.718520 0.000040 0.358440
0.858840 -0.001320 0.351480
0.999160 -0.002680 0.344520
1.000000 -0.001240 0.340360
0.011920 0.141840 0.388240
0.152240 0.140480 0.381280
0.292560 0.139120 0.374320
0.432880 0.137760 0.367360
0.573200 0.136400 0.360400
0.713520 0.135040 0.353440
0.853840 0.133680 0.346480
0.994160 0.132320 0.339520
1.000000 0.133760 0.335360
0.006920 0.276840 0.383240
0.147240 0.275480 0.376280
0.287560 0.274120 0.369320
0.427880 0.272760 0.362360
0.568200 0.271400 0.355400
0.708520 0.270040 0.348440
0.848840 0.268680 0.341480
0.989160 0.267320 0.334520
1.000000 0.268760 0.330360
0.001920 0.411840 0.378240
0.142240 0.410480 0.371280
0.282560 0.409120 0.364320
0.422880 0.407760 0.357360
0.563200 0.406400 0.350400
0.703520 0.405040 0.343440
0.843840 0.403680 0.336480
0.984160 0.402320 0.329520
1.000000 0.403760 0.325360
-0.003080 0.546840 0.373240
0.137240 0.545480 0.366280
0.277560 0.544120 0.359320
0.417880 0.542760 0.352360
0.558200 0.541400 0.345400
0.698520 0.540040 0.338440
0.838840 0.538680 0.331480
0.979160 0.537320 0.324520
1.000000 0.538760 0.320360
-0.008080 0.681840 0.368240
0.132240 0.680480 0.361280
0.272560 0.679120 0.354320
0.412880 0.677760 0.347360
0.553200 0.676400 0.340400
0.693520 0.675040 0.333440
0.833840 0.673680 0.326480
0.974160 0.672320 0.319520
1.000000 0.673760 0.315360
-0.013080 0.816840 0.363240
0.127240 0.815480 0.356280
0.267560 0.814120 0.349320
0.407880 0.812760 0.342360
0.548200 0.811400 0.335400
0.688520 0.810040 0.328440
0.828840 0.808680 0.321480
0.969160 0.807320 0.314520
1.000000 0.808760 0.310360
-0.018080 0.951840 0.358240
0.122240 0.950480 0.351280
0.262560 0.949120 0.344320
0.402880 0.947760 0.337360
0.543200 0.946400 0.330400
0.683520 0.945040 0.323440
0.823840 0.943680 0.316480
0.964160 0.942320 0.309520
1.000000 0.943760 0.305360
-0.022240 1.000000 0.354080
0.118220 1.000000 0.347260
0.258680 1.000000 0.340440
0.399140 1.000000 0.333620
0.539600 1.000000 0.326800
0.680060 1.000000 0.319980
0.820520 1.000000 0.313160
0.960980 1.000000 0.306340
1.000000 1.000000 0.302320
0.011920 0.001840 0.528240
0.152240 0.000480 0.521280
0.292560 -0.000880 0.514320
0.432880 -0.002240 0.507360
0.573200 -0.003600 0.500400
0.713520 -0.004960 0.493440
0.853840 -0.006320 0.486480
0.994160 -0.007680 0.479520
1.000000 -0.006240 0.475360
0.006920 0.136840 0.523240
0.147240 0.135480 0.516280
0.287560 0.134120 0.509320
0.427880 0.132760 0.502360
0.568200 0.131400 0.495400
0.708520 0.130040 0.488440
0.848840 0.128680 0.481480
0.989160 0.127320 0.474520
1.000000 0.128760 0.470360
0.001920 0.271840 0.518240
0.142240 0.270480 0.511280
0.282560 0.269120 0.504320
0.422880 0.267760 0.497360
0.563200 0.266400 0.490400
0.703520 0.265040 0.483440
0.843840 0.263680 0.476480
0.984160 0.262320 0.469520
1.000000 0.263760 0.465360
-0.003080 0.406840 0.513240
0.137240 0.405480 0.506280
0.277560 0.404120 0.499320
0.417880 0.402760 0.492360
0.558200 0.401400 0.485400
0.698520 0.400040 0.478440
0.838840 0.398680 0.471480
0.979160 0.397320 0.464520
1.000000 0.398760 0.460360
-0.008080 0.541840 0.508240
0.132240 0.540480 0.501280
0.272560 0.539120 0.494320
0.412880 0.537760 0.487360
0.553200 0.536400 0.480400
0.693520 0.535040 0.473440
0.833840 0.533680 0.466480
0.974160 0.532320 0.459520
1.000000 0.533760 0.455360
-0.013080 0.676840 0.503240
0.127240 0.675480 0.496280
0.267560 0.674120 0.489320
0.407880 0.672760 0.482360
0.548200 0.671400 0.475400
0.688520 0.670040 0.468440
0.828840 0.668680 0.461480
0.969160 0.667320 0.454520
1.000000 0.668760 0.450360
-0.018080 0.811840 0.498240
0.122240 0.810480 0.491280
0.262560 0.809120 0.484320
0.402880 0.807760 0.477360
0.543200 0.806400 0.470400
0.683520 0.805040 0.463440
0.823840 0.803680 0.456480
0.964160 0.802320 0.449520
1.000000 0.803760 0.445360
-0.023080 0.946840 0.493240
0.117240 0.945480 0.486280
0.257560 0.944120 0.479320
0.397880 0.942760 0.472360
0.538200 0.941400 0.465400
0.678520 0.940040 0.458440
0.818840 0.938680 0.451480
0.959160 0.937320 0.444520
1.000000 0.938760 0.440360
-0.027240 1.000000 0.489080
0.113220 1.000000 0.482260
0.253680 1.000000 0.475440
0.394140 1.000000 0.468620
0.534600 1.000000 0.461800
0.675060 1.000000 0.454980
0.815520 1.000000 0.448160
0.955980 1.000000 0.441340
1.000000 1.000000 0.437320
0.006920 -0.003160 0.663240
0.147240 -0.004520 0.656280
0.287560 -0.005880 0.649320
0.427880 -0.007240 0.642360
0.568200 -0.008600 0.635400
0.708520 -0.009960 0.628440
0.848840 -0.011320 0.621480
0.989160 -0.012680 0.614520
1.000000 -0.011240 0.610360
0.001920 0.131840 0.658240
0.142240 0.130480 0.651280
0.282560 0.129120 0.644320
0.422880 0.127760 0.637360
0.563200 0.126400 0.630400
0.703520 0.125040 0.623440
0.843840 0.123680 0.616480
0.984160 0.122320 0.609520
1.000000 0.123760 0.605360
-0.003080 0.266840 0.653240
0.137240 0.265480 0.646280
0.277560 0.264120 0.639320
0.417880 0.262760 0.632360
0.558200 0.261400 0.625400
0.698520 0.260040 0.618440
0.838840 0.258680 0.611480
0.979160 0.257320 0.604520
1.000000 0.258760 0.600360
-0.008080 0.401840 0.648240
0.132240 0.400480 0.641280
0.272560 0.399120 0.634320
0.412880 0.397760 0.627360
0.553200 0.396400 0.620400
0.693520 0.395040 0.613440
0.833840 0.393680 0.606480
0.974160 0.392320 0.599520
1.000000 0.393760 0.595360
-0.013080 0.536840 0.643240
0.127240 0.535480 0.636280
0.267560 0.534120 0.629320
0.407880 0.532760 0.622360
0.548200 0.531400 0.615400
0.688520 0.530040 0.608440
0.828840 0.528680 0.601480
0.969160 0.527320 0.594520
1.000000 0.528760 0.590360
-0.018080 0.671840 0.638240
0.122240 0.670480 0.631280
0.262560 0.669120 0.624320
0.402880 0.667760 0.617360
0.543200 0.666400 0.610400
0.683520 0.665040 0.603440
0.823840 0.663680 0.596480
0.964160 0.662320 0.589520
1.000000 0.663760 0.585360
-0.023080 0.806840 0.633240
0.117240 0.805480 0.626280
0.257560 0.804120 0.619320
0.397880 0.802760 0.612360
0.538200 0.801400 0.605400
0.678520 0.800040 0.598440
0.818840 0.798680 0.591480
0.959160 0.797320 0.584520
1.000000 0.798760 0.580360
-0.028080 0.941840 0.628240
0.112240 0.940480 0.621280
0.252560 0.939120 0.614320
0.392880 0.937760 0.607360
0.533200 0.936400 0.600400
0.673520 0.935040 0.593440
0.813840 0.933680 0.586480
0.954160 0.932320 0.579520
1.000000 0.933760 0.575360
-0.032240 1.000000 0.624080
0.108220 1.000000 0.617260
0.248680 1.000000 0.610440
0.389140 1.000000 0.603620
0.529600 1.000000 0.596800
0.670060 1.000000 0.589980
0.810520 1.000000 0.583160
0.950980 1.000000 0.576340
1.000000 1.000000 0.572320
0.001920 -0.008160 0.798240
0.142240 -0.009520 0.791280
0.282560 -0.010880 0.784320
0.422880 -0.012240 0.777360
0.563200 -0.013600 0.770400
0.703520 -0.014960 0.763440
0.843840 -0.016320 0.756480
0.984160 -0.017680 0.749520
1.000000 -0.016240 0.745360
-0.003080 0.126840 0.793240
0.137240 0.125480 0.786280
0.277560 0.124120 0.779320
0.417880 0.122760 0.772360
0.558200 0.121400 0.765400
0.698520 0.120040 0.758440
0.838840 0.118680 0.751480
0.979160 0.117320 0.744520
1.000000 0.118760 0.740360
-0.008080 0.261840 0.788240
0.132240 0.260480 0.781280
0.272560 0.259120 0.774320
0.412880 0.257760 0.767360
0.553200 0.256400 0.760400
0.693520 0.255040 0.753440
0.833840 0.253680 0.746480
0.974160 0.252320 0.739520
1.000000 0.253760 0.735360
-0.013080 0.396840 0.783240
0.127240 0.395480 0.776280
0.267560 0.394120 0.769320
0.407880 0.392760 0.762360
0.548200 0.391400 0.755400
0.688520 0.390040 0.748440
0.828840 0.388680 0.741480
0.969160 0.387320 0.734520
1.000000 0.388760 0.730360
-0.018080 0.531840 0.778240
0.122240 0.530480 0.771280
0.262560 0.529120 0.764320
0.402880 0.527760 0.757360
0.543200 0.526400 0.750400
0.683520 0.525040 0.743440
0.823840 0.523680 0.736480
0.964160 0.522320 0.729520
1.000000 0.523760 0.725360
-0.023080 0.666840 0.773240
0.117240 0.665480 0.766280
0.257560 0.664120 0.759320
0.397880 0.662760 0.752360
0.538200 0.661400 0.745400
0.678520 0.660040 0.738440
0.818840 0.658680 0.731480
0.959160 0.657320 0.724520
1.000000 0.658760 0.720360
-0.028080 0.801840 0.768240
0.112240 0.800480 0.761280
0.252560 0.799120 0.754320
0.392880 0.797760 0.747360
0.533200 0.796400 0.740400
0.673520 0.795040 0.733440
0.813840 0.793680 0.726480
0.954160 0.792320 0.719520
1.000000 0.793760 0.715360
-0.033080 0.936840 0.763240
0.107240 0.935480 0.756280
0.247560 0.934120 0.749320
0.387880 0.932760 0.742360
0.528200 0.931400 0.735400
0.668520 0.930040 0.728440
0.808840 0.928680 0.721480
0.949160 0.927320 0.714520
1.000000 0.928760 0.710360
-0.037240 1.000000 0.759080
0.103220 1.000000 0.752260
0.243680 1.000000 0.745440
0.384140 1.000000 0.738620
0.524600 1.000000 0.731800
0.665060 1.000000 0.724980
0.805520 1.000000 0.718160
0.945980 1.000000 0.711340
1.000000 1.000000 0.707320
-0.003080 -0.013160 0.933240
0.137240 -0.014520 0.926280
0.277560 -0.015880 0.919320
0.417880 -0.017240 0.912360
0.558200 -0.018600 0.905400
0.698520 -0.019960 0.898440
0.838840 -0.021320 0.891480
0.979160 -0.022680 0.884520
1.000000 -0.021240 0.880360
-0.008080 0.121840 0.928240
0.132240 0.120480 0.921280
0.272560 0.119120 0.914320
0.412880 0.117760 0.907360
0.553200 0.116400 0.900400
0.693520 0.115040 0.893440
0.833840 0.113680 0.886480
0.974160 0.112320 0.879520
1.000000 0.113760 0.875360
-0.013080 0.256840 0.923240
0.127240 0.255480 0.916280
0.267560 0.254120 0.909320
0.407880 0.252760 0.902360
0.548200 0.251400 0.895400
0.688520 0.250040 0.888440
0.828840 0.248680 0.881480
0.969160 0.247320 0.874520
1.000000 0.248760 0.870360
-0.018080 0.391840 0.918240
0.122240 0.390480 0.911280
0.262560 0.389120 0.904320
0.402880 0.387760 0.897360
0.543200 0.386400 0.890400
0.683520 0.385040 0.883440
0.823840 0.383680 0.876480
0.964160 0.382320 0.869520
1.000000 0.383760 0.865360
-0.023080 0.526840 0.913240
0.117240 0.525480 0.906280
0.257560 0.524120 0.899320
0.397880 0.522760 0.892360
0.538200 0.521400 0.885400
0.678520 0.520040 0.878440
0.818840 0.518680 0.871480
0.959160 0.517320 0.864520
1.000000 0.518760 0.860360
-0.028080 0.661840 0.908240
0.112240 0.660480 0.901280
0.252560 0.659120 0.894320
0.392880 0.657760 0.887360
0.533200 0.656400 0.880400
0.673520 0.655040 0.873440
0.813840 0.653680 0.866480
0.954160 0.652320 0.859520
1.000000 0.653760 0.855360
-0.033080 0.796840 0.903240
0.107240 0.795480 0.896280
0.247560 0.794120 0.889320
0.387880 0.792760 0.882360
0.528200 0.791400 0.875400
0.668520 0.790040 0.868440
0.808840 0.788680 0.861480
0.949160 0.787320 0.854520
1.000000 0.788760 0.850360
-0.038080 0.931840 0.898240
0.102240 0.930480 0.891280
0.242560 0.929120 0.884320
0.382880 0.927760 0.877360
0.523200 0.926400 0.870400
0.663520 0.925040 0.863440
0.803840 0.923680 0.856480
0.944160 0.922320 0.849520
1.000000 0.923760 0.845360
-0.042240 1.000000 0.894080
0.098220 1.000000 0.887260
0.238680 1.000000 0.880440
0.379140 1.000000 0.873620
0.519600 1.000000 0.866800
0.660060 1.000000 0.859980
0.800520 1.000000 0.853160
0.940980 1.000000 0.846340
1.000000 1.000000 0.842320
-0.008080 -0.018160 1.000000
0.132240 -0.019520 1.000000
0.272560 -0.020880 1.000000
0.412880 -0.022240 1.000000
0.553200 -0.023600 1.000000
0.693520 -0.024960 1.000000
0.833840 -0.026320 1.000000
0.974160 -0.027680 1.000000
1.000000 -0.026240 1.000000
-0.013080 0.116840 1.000000
0.127240 0.115480 1.000000
0.267560 0.114120 1.000000
0.407880 0.112760 1.000000
0.548200 0.111400 1.000000
0.688520 0.110040 1.000000
0.828840 0.108680 1.000000
0.969160 0.107320 1.000000
1.000000 0.108760 1.000000
-0.018080 0.251840 1.000000
0.122240 0.250480 1.000000
0.262560 0.249120 1.000000
0.402880 0.247760 1.000000
0.543200 0.246400 1.000000
0.683520 0.245040 1.000000
0.823840 0.243680 1.000000
0.964160 0.242320 1.000000
1.000000 0.243760 1.000000
-0.023080 0.386840 1.000000
0.117240 0.385480 1.000000
0.257560 0.384120 1.000000
0.397880 0.382760 1.000000
0.538200 0.381400 1.000000
0.678520 0.380040 1.000000
0.818840 0.378680 1.000000
0.959160 0.377320 1.000000
1.000000 0.378760 1.000000
-0.028080 0.521840 1.000000
0.112240 0.520480 1.000000
0.252560 0.519120 1.000000
0.392880 0.517760 1.000000
0.533200 0.516400 1.000000
0.673520 0.515040 1.000000
0.813840 0.513680 1.000000
0.954160 0.512320 0.999520
1.000000 0.513760 0.995360
-0.033080 0.656840 1.000000
0.107240 0.655480 1.000000
0.247560 0.654120 1.000000
0.387880 0.652760 1.000000
0.528200 0.651400 1.000000
0.668520 0.650040 1.000000
0.808840 0.648680 1.000000
0.949160 0.647320 0.994520
1.000000 0.648760 0.990360
-0.038080 0.791840 1.000000
0.102240 0.790480 1.000000
0.242560 0.789120 1.000000
0.382880 0.787760 1.000000
0.523200 0.786400 1.000000
0.663520 0.785040 1.000000
0.803840 0.783680 0.996480
0.944160 0.782320 0.989520
1.000000 0.783760 0.985360
-0.043080 0.926840 1.000000
0.097240 0.925480 1.000000
0.237560 0.924120 1.000000
0.377880 0.922760 1.000000
0.518200 0.921400 1.000000
0.658520 0.920040 0.998440
0.798840 0.918680 0.991480
0.939160 0.917320 0.984520
1.000000 0.918760 0.980360
-0.047240 1.000000 1.000000
0.093220 1.000000 1.000000
0.233680 1.000000 1.000000
0.374140 1.000000 1.000000
0.514600 1.000000 1.000000
0.655060 1.000000 0.994980
0.795520 1.000000 0.988160
0.935980 1.000000 0.981340
1.000000 1.000000 0.977320
